(G-CODE GENERATED BY FLATCAM v8.991 - www.flatcam.org - Version Date: 2019/12/27)

(Name: Function_Generator-B_Cu.gbr_iso_cnc)
(Type: G-code from Geometry)
(Units: MM)

(Created on Wednesday, 13 August 2025 at 12:42)

(TOOL DIAMETER: 0.2072 mm)
(Feedrate: 120.0 mm/min)
(Feedrate_Z: 60.0 mm/min)
(Feedrate rapids 1500.0 mm/min)

(Z_Cut: -0.2 mm)
(Z_Move: 3.0 mm)
(Z Toolchange: 15.0 mm)
(X,Y Toolchange: 0.0000, 0.0000 mm)
(Z Start: None mm)
(Z End: 15.0 mm)
(Steps per circle: 64)
(Preprocessor Geometry: default)

(X range:    2.6614 ...   90.3031  mm)
(Y range:    2.1971 ...   59.8829  mm)

(Spindle Speed: None RPM)
G21
G90
G94




G01 F120.00
G00 Z3.0000

M03
G00 X2.6639 Y10.2651
G01 F60.00
G01 Z-0.2000
G01 F120.00
G01 X2.6615 Y10.2090
G01 X2.6614 Y10.1590
G01 X2.6670 Y9.9550
G01 X2.6674 Y9.9476
G01 X2.6702 Y9.9227
G01 X2.7074 Y9.7061
G01 X2.7132 Y9.6817
G01 X2.7152 Y9.6745
G01 X2.7829 Y9.4654
G01 X2.7921 Y9.4421
G01 X2.7951 Y9.4353
G01 X2.8919 Y9.2379
G01 X2.8954 Y9.2314
G01 X2.9083 Y9.2099
G01 X3.0322 Y9.0283
G01 X3.0476 Y9.0085
G01 X3.0524 Y9.0028
G01 X3.2008 Y8.8407
G01 X3.2060 Y8.8355
G01 X3.2244 Y8.8184
G01 X3.3945 Y8.6791
G01 X3.4004 Y8.6746
G01 X3.4210 Y8.6604
G01 X3.6091 Y8.5467
G01 X3.6156 Y8.5431
G01 X3.6380 Y8.5319
G01 X3.8405 Y8.4461
G01 X3.8474 Y8.4435
G01 X3.8712 Y8.4356
G01 X4.0837 Y8.3795
G01 X4.0909 Y8.3779
G01 X4.1156 Y8.3735
G01 X4.3294 Y8.3488
G01 X4.3556 Y8.3473
G01 X24.7697 Y8.3473
G01 X24.7816 Y8.3474
G01 X24.7966 Y8.3487
G01 X24.8454 Y8.3565
G01 X25.0631 Y8.3453
G01 X25.3483 Y8.2957
G01 X25.6254 Y8.2120
G01 X25.8905 Y8.0956
G01 X26.1395 Y7.9481
G01 X26.3690 Y7.7717
G01 X26.5755 Y7.5688
G01 X26.7561 Y7.3426
G01 X26.9081 Y7.0962
G01 X27.0293 Y6.8333
G01 X27.1179 Y6.5578
G01 X27.1726 Y6.2735
G01 X27.1927 Y5.9847
G01 X27.1865 Y5.8639
G01 X27.1862 Y5.8523
G01 X27.1861 Y2.9692
G01 X27.1876 Y2.9437
G01 X27.2018 Y2.8173
G01 X27.2038 Y2.8058
G01 X27.2099 Y2.7787
G01 X27.2132 Y2.7676
G01 X27.2529 Y2.6541
G01 X27.2573 Y2.6434
G01 X27.2694 Y2.6184
G01 X27.2750 Y2.6082
G01 X27.3394 Y2.5056
G01 X27.3457 Y2.4969
G01 X27.3630 Y2.4752
G01 X27.3707 Y2.4666
G01 X27.4557 Y2.3816
G01 X27.4644 Y2.3738
G01 X27.4861 Y2.3565
G01 X27.4956 Y2.3498
G01 X27.5974 Y2.2859
G01 X27.6075 Y2.2802
G01 X27.6326 Y2.2682
G01 X27.6433 Y2.2637
G01 X27.7567 Y2.2241
G01 X27.7679 Y2.2208
G01 X27.7950 Y2.2147
G01 X27.8064 Y2.2127
G01 X27.9328 Y2.1985
G01 X27.9582 Y2.1971
G01 X87.3507 Y2.1971
G01 X87.3607 Y2.1976
G01 X87.3649 Y2.1982
G01 X87.4411 Y2.1971
G01 X87.7426 Y2.2090
G01 X87.7622 Y2.2108
G01 X88.0552 Y2.2556
G01 X88.0802 Y2.2609
G01 X88.3662 Y2.3385
G01 X88.3848 Y2.3449
G01 X88.6550 Y2.4518
G01 X88.6782 Y2.4625
G01 X88.9347 Y2.5990
G01 X88.9565 Y2.6123
G01 X89.2008 Y2.7801
G01 X89.2163 Y2.7922
G01 X89.4403 Y2.9863
G01 X89.4544 Y3.0001
G01 X89.6514 Y3.2137
G01 X89.6641 Y3.2288
G01 X89.8395 Y3.4677
G01 X89.8534 Y3.4891
G01 X89.9980 Y3.7411
G01 X90.0095 Y3.7639
G01 X90.1249 Y4.0306
G01 X90.1319 Y4.0490
G01 X90.2186 Y4.3324
G01 X90.2246 Y4.3572
G01 X90.2788 Y4.6486
G01 X90.2811 Y4.6682
G01 X90.3021 Y4.9591
G01 X90.3026 Y4.9717
G01 X90.3031 Y57.0407
G01 X90.3027 Y57.0535
G01 X90.2861 Y57.3493
G01 X90.2841 Y57.3689
G01 X90.2342 Y57.6633
G01 X90.2300 Y57.6826
G01 X90.1475 Y57.9695
G01 X90.1411 Y57.9882
G01 X90.0270 Y58.2641
G01 X90.0159 Y58.2871
G01 X89.8743 Y58.5434
G01 X89.8640 Y58.5601
G01 X89.6913 Y58.8038
G01 X89.6754 Y58.8237
G01 X89.4803 Y59.0420
G01 X89.4623 Y59.0601
G01 X89.2395 Y59.2589
G01 X89.2240 Y59.2711
G01 X88.9852 Y59.4405
G01 X88.9686 Y59.4511
G01 X88.7073 Y59.5957
G01 X88.6843 Y59.6068
G01 X88.4084 Y59.7209
G01 X88.3898 Y59.7272
G01 X88.1084 Y59.8083
G01 X88.0835 Y59.8140
G01 X87.7891 Y59.8638
G01 X87.7695 Y59.8659
G01 X87.4639 Y59.8828
G01 X5.5406 Y59.8829
G01 X5.5224 Y59.8821
G01 X5.4437 Y59.8829
G01 X5.1472 Y59.8695
G01 X5.1276 Y59.8677
G01 X4.8422 Y59.8224
G01 X4.8229 Y59.8184
G01 X4.5443 Y59.7414
G01 X4.5256 Y59.7352
G01 X4.2574 Y59.6275
G01 X4.2343 Y59.6167
G01 X4.1589 Y59.5760
G01 X4.1462 Y59.5679
G01 X4.1173 Y59.5465
G01 X4.1059 Y59.5366
G01 X3.0033 Y58.4339
G01 X2.9941 Y58.4234
G01 X2.9738 Y58.3968
G01 X2.9661 Y58.3851
G01 X2.9526 Y58.3612
G01 X2.9413 Y58.3383
G01 X2.8281 Y58.0724
G01 X2.8215 Y58.0538
G01 X2.7388 Y57.7769
G01 X2.7344 Y57.7577
G01 X2.6832 Y57.4732
G01 X2.6809 Y57.4537
G01 X2.6615 Y57.1572
G01 X2.6614 Y10.2983
G01 X2.6617 Y10.2897
G01 X2.6639 Y10.2651
G00 Z3.0000
G00 X3.3494 Y21.2678
G01 F60.00
G01 Z-0.2000
G01 F120.00
G01 X3.4377 Y21.1356
G01 X13.9805 Y10.5928
G01 X14.1001 Y10.4732
G01 X14.2323 Y10.3849
G01 X14.3791 Y10.3241
G01 X14.5350 Y10.2931
G01 X20.9239 Y10.2931
G01 X21.0798 Y10.3241
G01 X21.2267 Y10.3849
G01 X21.3588 Y10.4732
G01 X23.0220 Y12.1364
G01 X23.0303 Y12.1438
G01 X23.0509 Y12.1605
G01 X23.0591 Y12.1665
G01 X23.0679 Y12.1716
G01 X23.0771 Y12.1759
G01 X23.0867 Y12.1792
G01 X23.1538 Y12.1989
G01 X23.1634 Y12.2012
G01 X23.1731 Y12.2026
G01 X23.1830 Y12.2031
G01 X23.2818 Y12.2031
G01 X23.4741 Y12.2336
G01 X23.6593 Y12.2937
G01 X23.8327 Y12.3821
G01 X23.9903 Y12.4965
G01 X24.1279 Y12.6342
G01 X24.2424 Y12.7917
G01 X24.3307 Y12.9652
G01 X24.3909 Y13.1504
G01 X24.4214 Y13.3426
G01 X24.4212 Y13.5381
G01 X24.3909 Y13.7296
G01 X24.3307 Y13.9148
G01 X24.2424 Y14.0883
G01 X24.1279 Y14.2458
G01 X23.9903 Y14.3835
G01 X23.8327 Y14.4979
G01 X23.8145 Y14.5072
G01 X23.8036 Y14.5136
G01 X23.7936 Y14.5212
G01 X23.7486 Y14.5603
G01 X23.7407 Y14.5679
G01 X23.7337 Y14.5762
G01 X23.7276 Y14.5853
G01 X23.7225 Y14.5950
G01 X23.7184 Y14.6051
G01 X23.6958 Y14.6713
G01 X23.6931 Y14.6807
G01 X23.6913 Y14.6904
G01 X23.6904 Y14.7003
G01 X23.6904 Y14.7101
G01 X23.6914 Y14.7199
G01 X23.6933 Y14.7296
G01 X23.7101 Y14.7974
G01 X23.7130 Y14.8069
G01 X23.7167 Y14.8160
G01 X23.7212 Y14.8247
G01 X23.7266 Y14.8330
G01 X23.7327 Y14.8407
G01 X23.7396 Y14.8478
G01 X23.7904 Y14.8958
G01 X23.7978 Y14.9022
G01 X23.8059 Y14.9079
G01 X23.8145 Y14.9128
G01 X23.8327 Y14.9221
G01 X23.9903 Y15.0365
G01 X24.1279 Y15.1742
G01 X24.2424 Y15.3317
G01 X24.3307 Y15.5052
G01 X24.3909 Y15.6904
G01 X24.4214 Y15.8827
G01 X24.4214 Y15.9815
G01 X24.4220 Y15.9926
G01 X24.4248 Y16.0189
G01 X24.4264 Y16.0290
G01 X24.4289 Y16.0388
G01 X24.4324 Y16.0484
G01 X24.4369 Y16.0575
G01 X24.4704 Y16.1188
G01 X24.4755 Y16.1272
G01 X24.4814 Y16.1351
G01 X24.4880 Y16.1424
G01 X26.5912 Y18.2456
G01 X26.6795 Y18.3778
G01 X26.7404 Y18.5246
G01 X26.7714 Y18.6805
G01 X26.7714 Y27.0715
G01 X26.7720 Y27.0826
G01 X26.7748 Y27.1089
G01 X26.7764 Y27.1190
G01 X26.7789 Y27.1288
G01 X26.7824 Y27.1384
G01 X26.7869 Y27.1475
G01 X26.8204 Y27.2088
G01 X26.8255 Y27.2172
G01 X26.8314 Y27.2251
G01 X26.8380 Y27.2324
G01 X28.3420 Y28.7364
G01 X28.3503 Y28.7438
G01 X28.3709 Y28.7605
G01 X28.3791 Y28.7665
G01 X28.3879 Y28.7716
G01 X28.3971 Y28.7759
G01 X28.4067 Y28.7792
G01 X28.4738 Y28.7989
G01 X28.4834 Y28.8012
G01 X28.4931 Y28.8026
G01 X28.5030 Y28.8031
G01 X28.5587 Y28.8031
G01 X28.7447 Y28.8326
G01 X28.9239 Y28.8908
G01 X29.0918 Y28.9763
G01 X29.2442 Y29.0871
G01 X29.2836 Y29.1264
G01 X29.2918 Y29.1338
G01 X29.3125 Y29.1505
G01 X29.3207 Y29.1565
G01 X29.3295 Y29.1616
G01 X29.3387 Y29.1659
G01 X29.3483 Y29.1692
G01 X29.4153 Y29.1889
G01 X29.4249 Y29.1912
G01 X29.4347 Y29.1926
G01 X29.4445 Y29.1931
G01 X32.4044 Y29.1931
G01 X32.4155 Y29.1925
G01 X32.4419 Y29.1897
G01 X32.4519 Y29.1881
G01 X32.4617 Y29.1855
G01 X32.4713 Y29.1820
G01 X32.4804 Y29.1776
G01 X32.5418 Y29.1441
G01 X32.5502 Y29.1390
G01 X32.5581 Y29.1331
G01 X32.5654 Y29.1264
G01 X32.6047 Y29.0870
G01 X32.7572 Y28.9763
G01 X32.9250 Y28.8908
G01 X33.1042 Y28.8326
G01 X33.2903 Y28.8031
G01 X33.4787 Y28.8031
G01 X33.6647 Y28.8326
G01 X33.8439 Y28.8908
G01 X34.0118 Y28.9763
G01 X34.1642 Y29.0871
G01 X34.2974 Y29.2203
G01 X34.4081 Y29.3727
G01 X34.4937 Y29.5405
G01 X34.5519 Y29.7197
G01 X34.5814 Y29.9058
G01 X34.5814 Y30.0942
G01 X34.5519 Y30.2803
G01 X34.4937 Y30.4595
G01 X34.4081 Y30.6273
G01 X34.2974 Y30.7797
G01 X34.2726 Y30.8046
G01 X34.2640 Y30.8137
G01 X34.2577 Y30.8211
G01 X34.2522 Y30.8291
G01 X34.2456 Y30.8413
G01 X34.2165 Y30.9048
G01 X34.2129 Y30.9140
G01 X34.2101 Y30.9234
G01 X34.2082 Y30.9331
G01 X34.2073 Y30.9429
G01 X34.2073 Y30.9528
G01 X34.2082 Y30.9626
G01 X34.2182 Y31.0318
G01 X34.2200 Y31.0414
G01 X34.2228 Y31.0509
G01 X34.2265 Y31.0600
G01 X34.2310 Y31.0688
G01 X34.2363 Y31.0771
G01 X34.2424 Y31.0849
G01 X34.2882 Y31.1377
G01 X34.2950 Y31.1448
G01 X34.3024 Y31.1512
G01 X34.3105 Y31.1570
G01 X34.3190 Y31.1619
G01 X34.3280 Y31.1660
G01 X34.3373 Y31.1692
G01 X34.4043 Y31.1889
G01 X34.4139 Y31.1912
G01 X34.4237 Y31.1926
G01 X34.4335 Y31.1931
G01 X34.8860 Y31.1931
G01 X34.8970 Y31.1925
G01 X34.9234 Y31.1897
G01 X34.9334 Y31.1881
G01 X34.9433 Y31.1855
G01 X34.9528 Y31.1820
G01 X34.9620 Y31.1776
G01 X35.0233 Y31.1441
G01 X35.0317 Y31.1390
G01 X35.0396 Y31.1331
G01 X35.0469 Y31.1264
G01 X36.6877 Y29.4857
G01 X36.6951 Y29.4774
G01 X36.7117 Y29.4568
G01 X36.7177 Y29.4486
G01 X36.7228 Y29.4398
G01 X36.7271 Y29.4306
G01 X36.7304 Y29.4210
G01 X36.7501 Y29.3539
G01 X36.7524 Y29.3444
G01 X36.7538 Y29.3346
G01 X36.7543 Y29.3247
G01 X36.7543 Y18.8465
G01 X36.7537 Y18.8354
G01 X36.7509 Y18.8090
G01 X36.7493 Y18.7990
G01 X36.7467 Y18.7892
G01 X36.7432 Y18.7796
G01 X36.7388 Y18.7705
G01 X36.7053 Y18.7091
G01 X36.7002 Y18.7007
G01 X36.6943 Y18.6928
G01 X36.6877 Y18.6855
G01 X36.5720 Y18.5699
G01 X36.4520 Y18.4047
G01 X36.3593 Y18.2228
G01 X36.2962 Y18.0287
G01 X36.2643 Y17.8271
G01 X36.2643 Y17.6229
G01 X36.2962 Y17.4213
G01 X36.3593 Y17.2272
G01 X36.4520 Y17.0453
G01 X36.5720 Y16.8801
G01 X36.7163 Y16.7358
G01 X36.8815 Y16.6158
G01 X37.0634 Y16.5231
G01 X37.2575 Y16.4600
G01 X37.4591 Y16.4281
G01 X37.6227 Y16.4281
G01 X37.6338 Y16.4275
G01 X37.6601 Y16.4247
G01 X37.6702 Y16.4231
G01 X37.6800 Y16.4205
G01 X37.6896 Y16.4170
G01 X37.6987 Y16.4126
G01 X37.7600 Y16.3791
G01 X37.7685 Y16.3740
G01 X37.7764 Y16.3681
G01 X37.7837 Y16.3614
G01 X39.8718 Y14.2732
G01 X40.0040 Y14.1849
G01 X40.1509 Y14.1241
G01 X40.3067 Y14.0931
G01 X55.1939 Y14.0931
G01 X55.3498 Y14.1241
G01 X55.4967 Y14.1849
G01 X55.6288 Y14.2732
G01 X63.6886 Y22.3330
G01 X63.7769 Y22.4651
G01 X63.8377 Y22.6120
G01 X63.8687 Y22.7679
G01 X63.8687 Y29.2955
G01 X63.8693 Y29.3066
G01 X63.8711 Y29.3175
G01 X63.8823 Y29.3690
G01 X63.8850 Y29.3790
G01 X63.8887 Y29.3887
G01 X63.8933 Y29.3980
G01 X63.8988 Y29.4067
G01 X63.9052 Y29.4149
G01 X63.9510 Y29.4677
G01 X63.9578 Y29.4748
G01 X63.9652 Y29.4812
G01 X63.9733 Y29.4870
G01 X63.9818 Y29.4919
G01 X63.9908 Y29.4960
G01 X64.0001 Y29.4992
G01 X64.0671 Y29.5189
G01 X64.0767 Y29.5212
G01 X64.0865 Y29.5226
G01 X64.0963 Y29.5231
G01 X73.5930 Y29.5231
G01 X73.6041 Y29.5225
G01 X73.6304 Y29.5197
G01 X73.6405 Y29.5181
G01 X73.6503 Y29.5155
G01 X73.6599 Y29.5120
G01 X73.6690 Y29.5076
G01 X73.7303 Y29.4741
G01 X73.7387 Y29.4690
G01 X73.7466 Y29.4631
G01 X73.7539 Y29.4564
G01 X73.8696 Y29.3408
G01 X74.0347 Y29.2208
G01 X74.2166 Y29.1281
G01 X74.4108 Y29.0650
G01 X74.6124 Y29.0331
G01 X74.8165 Y29.0331
G01 X75.0182 Y29.0650
G01 X75.2123 Y29.1281
G01 X75.3942 Y29.2208
G01 X75.5593 Y29.3408
G01 X75.7037 Y29.4851
G01 X75.8237 Y29.6503
G01 X75.9164 Y29.8322
G01 X75.9794 Y30.0263
G01 X76.0114 Y30.2279
G01 X76.0114 Y30.4321
G01 X75.9794 Y30.6337
G01 X75.9164 Y30.8278
G01 X75.8237 Y31.0097
G01 X75.7037 Y31.1749
G01 X75.5593 Y31.3192
G01 X75.3942 Y31.4392
G01 X75.2123 Y31.5319
G01 X75.0182 Y31.5950
G01 X74.8165 Y31.6269
G01 X74.6124 Y31.6269
G01 X74.5116 Y31.6109
G01 X74.4108 Y31.5950
G01 X74.2166 Y31.5319
G01 X74.0347 Y31.4392
G01 X73.8696 Y31.3192
G01 X73.7539 Y31.2036
G01 X73.7457 Y31.1962
G01 X73.7250 Y31.1795
G01 X73.7168 Y31.1735
G01 X73.7081 Y31.1684
G01 X73.6988 Y31.1641
G01 X73.6892 Y31.1608
G01 X73.6222 Y31.1411
G01 X73.6126 Y31.1388
G01 X73.6028 Y31.1374
G01 X73.5930 Y31.1369
G01 X64.0963 Y31.1369
G01 X64.0852 Y31.1375
G01 X64.0743 Y31.1393
G01 X64.0228 Y31.1505
G01 X64.0128 Y31.1532
G01 X64.0031 Y31.1569
G01 X63.9939 Y31.1615
G01 X63.9851 Y31.1670
G01 X63.9770 Y31.1734
G01 X63.9242 Y31.2192
G01 X63.9170 Y31.2260
G01 X63.9106 Y31.2334
G01 X63.9048 Y31.2415
G01 X63.8999 Y31.2500
G01 X63.8958 Y31.2590
G01 X63.8926 Y31.2683
G01 X63.8729 Y31.3353
G01 X63.8706 Y31.3449
G01 X63.8692 Y31.3547
G01 X63.8687 Y31.3645
G01 X63.8687 Y39.2349
G01 X63.8692 Y39.2450
G01 X63.8716 Y39.2692
G01 X63.8730 Y39.2791
G01 X63.8754 Y39.2887
G01 X63.8787 Y39.2981
G01 X63.8829 Y39.3071
G01 X63.9153 Y39.3690
G01 X63.9202 Y39.3773
G01 X63.9258 Y39.3852
G01 X63.9321 Y39.3925
G01 X63.9391 Y39.3991
G01 X63.9466 Y39.4051
G01 X63.9547 Y39.4104
G01 X64.0096 Y39.4426
G01 X64.0176 Y39.4468
G01 X64.0272 Y39.4509
G01 X64.1540 Y39.4981
G01 X64.2454 Y39.5665
G01 X64.3138 Y39.6578
G01 X64.3543 Y39.7665
G01 X64.3587 Y39.8077
G01 X64.3587 Y41.6923
G01 X64.3543 Y41.7335
G01 X64.3137 Y41.8422
G01 X64.2454 Y41.9335
G01 X64.1540 Y42.0019
G01 X64.0362 Y42.0459
G01 X64.0112 Y42.0543
G01 X64.0020 Y42.0580
G01 X63.9931 Y42.0625
G01 X63.9848 Y42.0679
G01 X63.9770 Y42.0740
G01 X63.9242 Y42.1198
G01 X63.9170 Y42.1266
G01 X63.9106 Y42.1340
G01 X63.9048 Y42.1421
G01 X63.8999 Y42.1506
G01 X63.8958 Y42.1596
G01 X63.8926 Y42.1689
G01 X63.8729 Y42.2359
G01 X63.8706 Y42.2455
G01 X63.8692 Y42.2553
G01 X63.8687 Y42.2651
G01 X63.8687 Y45.9321
G01 X63.8377 Y46.0880
G01 X63.7769 Y46.2349
G01 X63.6886 Y46.3670
G01 X59.9155 Y50.1401
G01 X59.9089 Y50.1473
G01 X59.9016 Y50.1573
G01 X59.8731 Y50.2017
G01 X59.8680 Y50.2106
G01 X59.8637 Y50.2201
G01 X59.8605 Y50.2299
G01 X59.8582 Y50.2400
G01 X59.8569 Y50.2503
G01 X59.8520 Y50.3200
G01 X59.8517 Y50.3298
G01 X59.8524 Y50.3397
G01 X59.8541 Y50.3494
G01 X59.8566 Y50.3589
G01 X59.8601 Y50.3682
G01 X59.8644 Y50.3770
G01 X59.8978 Y50.4383
G01 X59.9030 Y50.4468
G01 X59.9089 Y50.4547
G01 X59.9130 Y50.4592
G01 X60.0337 Y50.6253
G01 X60.1264 Y50.8072
G01 X60.1894 Y51.0013
G01 X60.2214 Y51.2029
G01 X60.2214 Y51.4071
G01 X60.1894 Y51.6087
G01 X60.1264 Y51.8028
G01 X60.0337 Y51.9847
G01 X59.9137 Y52.1499
G01 X59.7693 Y52.2942
G01 X59.6042 Y52.4142
G01 X59.4223 Y52.5069
G01 X59.2282 Y52.5700
G01 X59.0265 Y52.6019
G01 X58.8630 Y52.6019
G01 X58.8519 Y52.6025
G01 X58.8255 Y52.6053
G01 X58.8155 Y52.6069
G01 X58.8057 Y52.6095
G01 X58.7961 Y52.6130
G01 X58.7870 Y52.6174
G01 X58.7256 Y52.6509
G01 X58.7172 Y52.6560
G01 X58.7093 Y52.6619
G01 X58.7020 Y52.6686
G01 X55.6924 Y55.6782
G01 X55.6836 Y55.6859
G01 X55.6766 Y55.6929
G01 X55.6674 Y55.7025
G01 X55.6611 Y55.7100
G01 X55.6555 Y55.7180
G01 X55.6518 Y55.7245
G01 X55.6427 Y55.7362
G01 X55.6375 Y55.7446
G01 X55.6332 Y55.7535
G01 X55.6297 Y55.7627
G01 X55.6271 Y55.7722
G01 X55.6246 Y55.7834
G01 X55.6198 Y55.7938
G01 X55.6162 Y55.8030
G01 X55.6134 Y55.8124
G01 X55.6115 Y55.8221
G01 X55.6106 Y55.8319
G01 X55.6106 Y55.8418
G01 X55.6110 Y55.8460
G01 X55.6103 Y55.8501
G01 X55.6095 Y55.8599
G01 X55.6097 Y55.8698
G01 X55.6109 Y55.8796
G01 X55.6129 Y55.8892
G01 X55.6159 Y55.8986
G01 X55.6198 Y55.9094
G01 X55.6215 Y55.9208
G01 X55.6233 Y55.9304
G01 X55.6261 Y55.9399
G01 X55.6298 Y55.9490
G01 X55.6343 Y55.9578
G01 X55.6396 Y55.9661
G01 X55.6422 Y55.9694
G01 X55.6439 Y55.9733
G01 X55.6485 Y55.9819
G01 X55.6540 Y55.9901
G01 X55.6603 Y55.9978
G01 X55.6672 Y56.0048
G01 X55.6748 Y56.0111
G01 X55.6840 Y56.0180
G01 X55.6915 Y56.0267
G01 X55.6983 Y56.0338
G01 X55.7057 Y56.0402
G01 X55.7138 Y56.0460
G01 X55.7223 Y56.0509
G01 X55.7313 Y56.0550
G01 X55.7352 Y56.0564
G01 X55.7387 Y56.0587
G01 X55.7473 Y56.0635
G01 X55.7564 Y56.0674
G01 X55.7658 Y56.0705
G01 X55.7754 Y56.0726
G01 X55.7852 Y56.0738
G01 X55.7966 Y56.0747
G01 X55.8076 Y56.0779
G01 X55.8172 Y56.0802
G01 X55.8270 Y56.0816
G01 X55.8368 Y56.0821
G01 X77.5470 Y56.0821
G01 X77.5580 Y56.0815
G01 X77.5844 Y56.0787
G01 X77.5944 Y56.0771
G01 X77.6043 Y56.0745
G01 X77.6138 Y56.0710
G01 X77.6230 Y56.0666
G01 X77.6843 Y56.0331
G01 X77.6927 Y56.0280
G01 X77.7006 Y56.0221
G01 X77.7079 Y56.0154
G01 X80.1409 Y53.5824
G01 X80.1483 Y53.5742
G01 X80.1649 Y53.5535
G01 X80.1709 Y53.5453
G01 X80.1761 Y53.5366
G01 X80.1803 Y53.5273
G01 X80.1837 Y53.5177
G01 X80.2034 Y53.4507
G01 X80.2057 Y53.4411
G01 X80.2071 Y53.4313
G01 X80.2076 Y53.4215
G01 X80.2076 Y48.5785
G01 X80.2070 Y48.5674
G01 X80.2041 Y48.5411
G01 X80.2026 Y48.5310
G01 X80.2000 Y48.5212
G01 X80.1965 Y48.5116
G01 X80.1921 Y48.5025
G01 X80.1586 Y48.4412
G01 X80.1534 Y48.4328
G01 X80.1475 Y48.4249
G01 X80.1409 Y48.4176
G01 X75.0877 Y43.3644
G01 X74.9994 Y43.2322
G01 X74.9386 Y43.0854
G01 X74.9076 Y42.9295
G01 X74.9076 Y33.6205
G01 X74.9386 Y33.4646
G01 X74.9994 Y33.3178
G01 X75.0877 Y33.1856
G01 X78.6909 Y29.5824
G01 X78.6983 Y29.5742
G01 X78.7150 Y29.5535
G01 X78.7209 Y29.5453
G01 X78.7261 Y29.5366
G01 X78.7303 Y29.5273
G01 X78.7337 Y29.5177
G01 X78.7534 Y29.4507
G01 X78.7557 Y29.4411
G01 X78.7571 Y29.4313
G01 X78.7576 Y29.4215
G01 X78.7576 Y20.3785
G01 X78.7570 Y20.3674
G01 X78.7541 Y20.3411
G01 X78.7526 Y20.3310
G01 X78.7500 Y20.3212
G01 X78.7465 Y20.3116
G01 X78.7421 Y20.3025
G01 X78.7086 Y20.2412
G01 X78.7034 Y20.2328
G01 X78.6975 Y20.2249
G01 X78.6909 Y20.2176
G01 X76.1969 Y17.7236
G01 X76.1886 Y17.7162
G01 X76.1680 Y17.6995
G01 X76.1598 Y17.6935
G01 X76.1510 Y17.6884
G01 X76.1418 Y17.6841
G01 X76.1322 Y17.6808
G01 X76.0652 Y17.6611
G01 X76.0556 Y17.6588
G01 X76.0458 Y17.6574
G01 X76.0360 Y17.6569
G01 X71.1430 Y17.6569
G01 X71.1319 Y17.6575
G01 X71.1055 Y17.6603
G01 X71.0955 Y17.6619
G01 X71.0857 Y17.6645
G01 X71.0761 Y17.6680
G01 X71.0670 Y17.6724
G01 X71.0056 Y17.7059
G01 X70.9972 Y17.7110
G01 X70.9893 Y17.7169
G01 X70.9820 Y17.7236
G01 X68.7315 Y19.9741
G01 X68.5993 Y20.0624
G01 X68.4525 Y20.1232
G01 X68.2966 Y20.1543
G01 X67.5859 Y20.1542
G01 X67.5749 Y20.1548
G01 X67.5485 Y20.1577
G01 X67.5385 Y20.1593
G01 X67.5286 Y20.1618
G01 X67.5191 Y20.1653
G01 X67.5099 Y20.1698
G01 X67.4486 Y20.2032
G01 X67.4402 Y20.2084
G01 X67.4323 Y20.2143
G01 X67.4250 Y20.2209
G01 X67.3093 Y20.3366
G01 X67.1442 Y20.4566
G01 X66.9623 Y20.5492
G01 X66.7682 Y20.6123
G01 X66.5665 Y20.6442
G01 X66.3624 Y20.6442
G01 X66.1608 Y20.6123
G01 X65.9666 Y20.5492
G01 X65.7847 Y20.4566
G01 X65.6196 Y20.3366
G01 X65.5039 Y20.2209
G01 X65.4957 Y20.2135
G01 X65.4750 Y20.1969
G01 X65.4668 Y20.1909
G01 X65.4581 Y20.1857
G01 X65.4488 Y20.1815
G01 X65.4392 Y20.1781
G01 X65.3722 Y20.1584
G01 X65.3626 Y20.1561
G01 X65.3528 Y20.1547
G01 X65.3430 Y20.1542
G01 X63.4323 Y20.1542
G01 X63.2765 Y20.1232
G01 X63.1296 Y20.0624
G01 X62.9974 Y19.9741
G01 X58.4204 Y15.3970
G01 X58.2977 Y15.2744
G01 X58.2094 Y15.1422
G01 X58.1486 Y14.9954
G01 X58.1176 Y14.8395
G01 X58.1176 Y10.4265
G01 X58.1170 Y10.4154
G01 X58.1141 Y10.3890
G01 X58.1126 Y10.3790
G01 X58.1100 Y10.3692
G01 X58.1065 Y10.3596
G01 X58.1021 Y10.3505
G01 X58.0686 Y10.2891
G01 X58.0634 Y10.2807
G01 X58.0575 Y10.2728
G01 X58.0509 Y10.2655
G01 X57.9352 Y10.1499
G01 X57.8153 Y9.9847
G01 X57.7226 Y9.8028
G01 X57.6595 Y9.6087
G01 X57.6276 Y9.4071
G01 X57.6276 Y9.2029
G01 X57.6595 Y9.0013
G01 X57.7226 Y8.8072
G01 X57.8153 Y8.6253
G01 X57.9352 Y8.4601
G01 X58.0796 Y8.3158
G01 X58.2447 Y8.1958
G01 X58.4266 Y8.1031
G01 X58.6208 Y8.0400
G01 X58.8224 Y8.0081
G01 X59.0265 Y8.0081
G01 X59.2282 Y8.0400
G01 X59.4223 Y8.1031
G01 X59.6042 Y8.1958
G01 X59.7693 Y8.3158
G01 X59.9137 Y8.4601
G01 X60.0103 Y8.5931
G01 X60.0159 Y8.6001
G01 X60.0297 Y8.6161
G01 X60.0364 Y8.6231
G01 X60.0436 Y8.6294
G01 X60.0514 Y8.6350
G01 X60.0597 Y8.6399
G01 X60.1215 Y8.6725
G01 X60.1304 Y8.6767
G01 X60.1397 Y8.6800
G01 X60.1493 Y8.6824
G01 X60.1590 Y8.6839
G01 X60.1689 Y8.6845
G01 X60.1787 Y8.6841
G01 X60.2483 Y8.6781
G01 X60.2581 Y8.6768
G01 X60.2677 Y8.6746
G01 X60.2770 Y8.6715
G01 X60.2860 Y8.6675
G01 X60.2946 Y8.6626
G01 X60.3027 Y8.6570
G01 X60.3580 Y8.6143
G01 X60.3656 Y8.6079
G01 X60.3724 Y8.6008
G01 X60.3786 Y8.5931
G01 X60.4752 Y8.4601
G01 X60.6273 Y8.3081
G01 X60.6340 Y8.3005
G01 X60.6400 Y8.2923
G01 X60.6452 Y8.2835
G01 X60.6775 Y8.2216
G01 X60.6823 Y8.2111
G01 X60.6859 Y8.2001
G01 X60.6886 Y8.1876
G01 X60.7494 Y8.0408
G01 X60.8377 Y7.9086
G01 X62.4231 Y6.3232
G01 X62.5553 Y6.2349
G01 X62.7021 Y6.1741
G01 X62.8580 Y6.1431
G01 X68.3966 Y6.1431
G01 X68.5525 Y6.1741
G01 X68.6993 Y6.2349
G01 X68.8315 Y6.3232
G01 X74.4920 Y11.9838
G01 X74.5003 Y11.9912
G01 X74.5209 Y12.0078
G01 X74.5291 Y12.0138
G01 X74.5379 Y12.0190
G01 X74.5471 Y12.0232
G01 X74.5567 Y12.0266
G01 X74.6238 Y12.0463
G01 X74.6334 Y12.0486
G01 X74.6431 Y12.0500
G01 X74.6530 Y12.0504
G01 X74.8165 Y12.0504
G01 X75.0182 Y12.0824
G01 X75.2123 Y12.1455
G01 X75.3942 Y12.2381
G01 X75.5593 Y12.3581
G01 X75.6750 Y12.4738
G01 X75.6832 Y12.4812
G01 X75.7039 Y12.4978
G01 X75.7121 Y12.5038
G01 X75.7209 Y12.5090
G01 X75.7301 Y12.5132
G01 X75.7397 Y12.5166
G01 X75.8067 Y12.5363
G01 X75.8163 Y12.5386
G01 X75.8261 Y12.5400
G01 X75.8359 Y12.5404
G01 X79.9413 Y12.5404
G01 X80.0972 Y12.5715
G01 X80.2440 Y12.6323
G01 X80.3762 Y12.7206
G01 X84.8894 Y17.2338
G01 X84.8976 Y17.2412
G01 X84.9183 Y17.2578
G01 X84.9265 Y17.2638
G01 X84.9353 Y17.2690
G01 X84.9445 Y17.2732
G01 X84.9541 Y17.2766
G01 X85.0211 Y17.2963
G01 X85.0307 Y17.2986
G01 X85.0405 Y17.3000
G01 X85.0503 Y17.3004
G01 X85.0665 Y17.3004
G01 X85.2682 Y17.3324
G01 X85.4623 Y17.3955
G01 X85.6442 Y17.4881
G01 X85.8093 Y17.6081
G01 X85.9537 Y17.7525
G01 X86.0737 Y17.9176
G01 X86.1664 Y18.0995
G01 X86.2294 Y18.2937
G01 X86.2614 Y18.4953
G01 X86.2614 Y18.6588
G01 X86.2620 Y18.6699
G01 X86.2648 Y18.6963
G01 X86.2664 Y18.7063
G01 X86.2689 Y18.7162
G01 X86.2724 Y18.7257
G01 X86.2769 Y18.7349
G01 X86.3104 Y18.7962
G01 X86.3155 Y18.8046
G01 X86.3214 Y18.8125
G01 X86.3280 Y18.8198
G01 X88.4912 Y20.9830
G01 X88.5795 Y21.1151
G01 X88.6404 Y21.2620
G01 X88.6714 Y21.4179
G01 X88.6714 Y27.9295
G01 X88.6404 Y28.0854
G01 X88.5795 Y28.2322
G01 X88.4912 Y28.3644
G01 X86.3280 Y30.5276
G01 X86.3206 Y30.5358
G01 X86.3040 Y30.5565
G01 X86.2980 Y30.5647
G01 X86.2929 Y30.5734
G01 X86.2886 Y30.5827
G01 X86.2852 Y30.5923
G01 X86.2656 Y30.6593
G01 X86.2632 Y30.6689
G01 X86.2618 Y30.6787
G01 X86.2614 Y30.6885
G01 X86.2614 Y30.8521
G01 X86.2294 Y31.0537
G01 X86.1664 Y31.2478
G01 X86.0737 Y31.4297
G01 X85.9537 Y31.5949
G01 X85.8093 Y31.7392
G01 X85.6442 Y31.8592
G01 X85.4623 Y31.9519
G01 X85.2682 Y32.0150
G01 X85.0665 Y32.0469
G01 X84.8624 Y32.0469
G01 X84.6608 Y32.0150
G01 X84.4666 Y31.9519
G01 X84.2847 Y31.8592
G01 X84.1196 Y31.7392
G01 X83.9752 Y31.5949
G01 X83.8553 Y31.4297
G01 X83.7626 Y31.2478
G01 X83.6995 Y31.0537
G01 X83.6676 Y30.8521
G01 X83.6676 Y30.6479
G01 X83.6995 Y30.4463
G01 X83.7626 Y30.2522
G01 X83.8553 Y30.0703
G01 X83.9752 Y29.9051
G01 X84.1196 Y29.7608
G01 X84.2847 Y29.6408
G01 X84.4666 Y29.5481
G01 X84.6608 Y29.4850
G01 X84.8624 Y29.4531
G01 X85.0260 Y29.4531
G01 X85.0370 Y29.4525
G01 X85.0634 Y29.4497
G01 X85.0734 Y29.4481
G01 X85.0833 Y29.4455
G01 X85.0928 Y29.4420
G01 X85.1020 Y29.4376
G01 X85.1633 Y29.4041
G01 X85.1717 Y29.3990
G01 X85.1796 Y29.3931
G01 X85.1869 Y29.3864
G01 X86.9909 Y27.5824
G01 X86.9983 Y27.5742
G01 X87.0150 Y27.5535
G01 X87.0209 Y27.5453
G01 X87.0261 Y27.5366
G01 X87.0303 Y27.5273
G01 X87.0337 Y27.5177
G01 X87.0534 Y27.4507
G01 X87.0557 Y27.4411
G01 X87.0571 Y27.4313
G01 X87.0576 Y27.4215
G01 X87.0576 Y21.9259
G01 X87.0570 Y21.9148
G01 X87.0541 Y21.8884
G01 X87.0526 Y21.8784
G01 X87.0500 Y21.8685
G01 X87.0465 Y21.8590
G01 X87.0421 Y21.8498
G01 X87.0086 Y21.7885
G01 X87.0034 Y21.7801
G01 X86.9975 Y21.7722
G01 X86.9909 Y21.7649
G01 X85.1869 Y19.9609
G01 X85.1786 Y19.9535
G01 X85.1580 Y19.9369
G01 X85.1498 Y19.9309
G01 X85.1410 Y19.9257
G01 X85.1318 Y19.9215
G01 X85.1222 Y19.9181
G01 X85.0552 Y19.8984
G01 X85.0456 Y19.8961
G01 X85.0358 Y19.8947
G01 X85.0260 Y19.8942
G01 X84.8624 Y19.8942
G01 X84.6608 Y19.8623
G01 X84.4666 Y19.7992
G01 X84.2847 Y19.7066
G01 X84.1196 Y19.5866
G01 X83.9752 Y19.4422
G01 X83.8553 Y19.2771
G01 X83.7626 Y19.0952
G01 X83.6995 Y18.9010
G01 X83.6676 Y18.6994
G01 X83.6676 Y18.4953
G01 X83.6769 Y18.4363
G01 X83.6780 Y18.4267
G01 X83.6781 Y18.4171
G01 X83.6768 Y18.3713
G01 X83.6761 Y18.3616
G01 X83.6745 Y18.3520
G01 X83.6719 Y18.3426
G01 X83.6685 Y18.3334
G01 X83.6642 Y18.3246
G01 X83.6307 Y18.2633
G01 X83.6256 Y18.2549
G01 X83.6197 Y18.2470
G01 X83.6131 Y18.2397
G01 X79.5942 Y14.2209
G01 X79.5860 Y14.2135
G01 X79.5654 Y14.1969
G01 X79.5571 Y14.1909
G01 X79.5484 Y14.1857
G01 X79.5391 Y14.1815
G01 X79.5295 Y14.1781
G01 X79.4625 Y14.1584
G01 X79.4529 Y14.1561
G01 X79.4432 Y14.1547
G01 X79.4333 Y14.1542
G01 X75.8359 Y14.1542
G01 X75.8249 Y14.1548
G01 X75.7985 Y14.1577
G01 X75.7885 Y14.1593
G01 X75.7786 Y14.1618
G01 X75.7691 Y14.1653
G01 X75.7599 Y14.1698
G01 X75.6986 Y14.2032
G01 X75.6902 Y14.2084
G01 X75.6823 Y14.2143
G01 X75.6750 Y14.2209
G01 X75.5593 Y14.3366
G01 X75.3942 Y14.4566
G01 X75.2123 Y14.5492
G01 X75.0182 Y14.6123
G01 X74.8165 Y14.6442
G01 X74.6124 Y14.6442
G01 X74.4108 Y14.6123
G01 X74.2166 Y14.5492
G01 X74.0347 Y14.4566
G01 X73.8696 Y14.3366
G01 X73.7252 Y14.1922
G01 X73.6053 Y14.0271
G01 X73.5126 Y13.8452
G01 X73.4495 Y13.6510
G01 X73.4176 Y13.4494
G01 X73.4176 Y13.2859
G01 X73.4170 Y13.2748
G01 X73.4141 Y13.2484
G01 X73.4126 Y13.2384
G01 X73.4100 Y13.2285
G01 X73.4065 Y13.2190
G01 X73.4021 Y13.2098
G01 X73.3686 Y13.1485
G01 X73.3634 Y13.1401
G01 X73.3575 Y13.1322
G01 X73.3509 Y13.1249
G01 X68.0496 Y7.8236
G01 X68.0413 Y7.8162
G01 X68.0207 Y7.7995
G01 X68.0124 Y7.7935
G01 X68.0037 Y7.7884
G01 X67.9944 Y7.7841
G01 X67.9848 Y7.7808
G01 X67.9178 Y7.7611
G01 X67.9082 Y7.7588
G01 X67.8985 Y7.7574
G01 X67.8886 Y7.7569
G01 X63.3660 Y7.7569
G01 X63.3549 Y7.7575
G01 X63.3285 Y7.7603
G01 X63.3185 Y7.7619
G01 X63.3087 Y7.7645
G01 X63.2991 Y7.7680
G01 X63.2900 Y7.7724
G01 X63.2286 Y7.8059
G01 X63.2202 Y7.8110
G01 X63.2123 Y7.8169
G01 X63.2050 Y7.8236
G01 X62.6331 Y8.3955
G01 X62.6196 Y8.4104
G01 X62.6133 Y8.4182
G01 X62.6077 Y8.4267
G01 X62.6030 Y8.4357
G01 X62.5747 Y8.5051
G01 X62.5714 Y8.5144
G01 X62.5690 Y8.5240
G01 X62.5676 Y8.5337
G01 X62.5671 Y8.5436
G01 X62.5675 Y8.5534
G01 X62.5688 Y8.5632
G01 X62.5817 Y8.6318
G01 X62.5840 Y8.6414
G01 X62.5872 Y8.6508
G01 X62.5912 Y8.6598
G01 X62.6664 Y8.8072
G01 X62.7294 Y9.0013
G01 X62.7614 Y9.2029
G01 X62.7614 Y9.4071
G01 X62.7294 Y9.6087
G01 X62.6664 Y9.8028
G01 X62.5737 Y9.9847
G01 X62.4537 Y10.1499
G01 X62.3093 Y10.2942
G01 X62.1442 Y10.4142
G01 X61.9623 Y10.5069
G01 X61.7682 Y10.5700
G01 X61.5665 Y10.6019
G01 X61.3624 Y10.6019
G01 X61.1608 Y10.5700
G01 X60.9666 Y10.5069
G01 X60.7847 Y10.4142
G01 X60.6196 Y10.2942
G01 X60.4752 Y10.1499
G01 X60.3786 Y10.0169
G01 X60.3731 Y10.0099
G01 X60.3592 Y9.9939
G01 X60.3516 Y9.9860
G01 X60.3433 Y9.9790
G01 X60.3343 Y9.9730
G01 X60.2674 Y9.9375
G01 X60.2585 Y9.9333
G01 X60.2492 Y9.9300
G01 X60.2397 Y9.9276
G01 X60.2299 Y9.9261
G01 X60.2201 Y9.9255
G01 X60.2102 Y9.9259
G01 X60.1406 Y9.9319
G01 X60.1308 Y9.9332
G01 X60.1212 Y9.9354
G01 X60.1119 Y9.9385
G01 X60.1029 Y9.9425
G01 X60.0943 Y9.9474
G01 X60.0862 Y9.9530
G01 X60.0309 Y9.9957
G01 X60.0234 Y10.0021
G01 X60.0165 Y10.0092
G01 X60.0103 Y10.0169
G01 X59.9137 Y10.1499
G01 X59.7980 Y10.2655
G01 X59.7906 Y10.2738
G01 X59.7740 Y10.2944
G01 X59.7680 Y10.3026
G01 X59.7629 Y10.3114
G01 X59.7586 Y10.3206
G01 X59.7552 Y10.3302
G01 X59.7356 Y10.3973
G01 X59.7332 Y10.4069
G01 X59.7318 Y10.4166
G01 X59.7314 Y10.4265
G01 X59.7314 Y14.3315
G01 X59.7320 Y14.3426
G01 X59.7348 Y14.3689
G01 X59.7364 Y14.3790
G01 X59.7389 Y14.3888
G01 X59.7424 Y14.3984
G01 X59.7469 Y14.4075
G01 X59.7804 Y14.4688
G01 X59.7855 Y14.4772
G01 X59.7914 Y14.4851
G01 X59.7980 Y14.4924
G01 X63.7794 Y18.4738
G01 X63.7876 Y18.4812
G01 X63.8083 Y18.4978
G01 X63.8165 Y18.5038
G01 X63.8253 Y18.5090
G01 X63.8345 Y18.5132
G01 X63.8441 Y18.5166
G01 X63.9111 Y18.5363
G01 X63.9207 Y18.5386
G01 X63.9305 Y18.5400
G01 X63.9403 Y18.5404
G01 X65.3430 Y18.5404
G01 X65.3541 Y18.5399
G01 X65.3804 Y18.5370
G01 X65.3905 Y18.5354
G01 X65.4003 Y18.5329
G01 X65.4099 Y18.5294
G01 X65.4190 Y18.5249
G01 X65.4803 Y18.4915
G01 X65.4887 Y18.4863
G01 X65.4966 Y18.4804
G01 X65.5039 Y18.4738
G01 X65.6196 Y18.3581
G01 X65.7847 Y18.2381
G01 X65.9666 Y18.1455
G01 X66.1608 Y18.0824
G01 X66.3624 Y18.0504
G01 X66.5665 Y18.0504
G01 X66.7682 Y18.0824
G01 X66.9623 Y18.1455
G01 X67.1442 Y18.2381
G01 X67.3093 Y18.3581
G01 X67.4250 Y18.4738
G01 X67.4332 Y18.4812
G01 X67.4539 Y18.4978
G01 X67.4621 Y18.5038
G01 X67.4709 Y18.5090
G01 X67.4801 Y18.5132
G01 X67.4897 Y18.5166
G01 X67.5567 Y18.5363
G01 X67.5663 Y18.5386
G01 X67.5761 Y18.5400
G01 X67.5859 Y18.5404
G01 X67.7886 Y18.5404
G01 X67.7997 Y18.5399
G01 X67.8260 Y18.5370
G01 X67.8361 Y18.5354
G01 X67.8492 Y18.5322
G01 X67.8598 Y18.5289
G01 X67.8699 Y18.5245
G01 X67.8796 Y18.5190
G01 X67.9023 Y18.5044
G01 X67.9259 Y18.4915
G01 X67.9344 Y18.4863
G01 X67.9423 Y18.4804
G01 X67.9496 Y18.4738
G01 X70.2001 Y16.2232
G01 X70.3323 Y16.1349
G01 X70.4791 Y16.0741
G01 X70.6350 Y16.0431
G01 X76.5439 Y16.0431
G01 X76.6998 Y16.0741
G01 X76.8467 Y16.1349
G01 X76.9788 Y16.2232
G01 X80.1912 Y19.4356
G01 X80.2795 Y19.5678
G01 X80.3404 Y19.7146
G01 X80.3714 Y19.8705
G01 X80.3714 Y29.9295
G01 X80.3404 Y30.0854
G01 X80.2795 Y30.2322
G01 X80.1912 Y30.3644
G01 X76.5880 Y33.9676
G01 X76.5806 Y33.9758
G01 X76.5640 Y33.9965
G01 X76.5580 Y34.0047
G01 X76.5529 Y34.0134
G01 X76.5486 Y34.0227
G01 X76.5452 Y34.0323
G01 X76.5256 Y34.0993
G01 X76.5232 Y34.1089
G01 X76.5218 Y34.1187
G01 X76.5214 Y34.1285
G01 X76.5214 Y42.4215
G01 X76.5220 Y42.4326
G01 X76.5248 Y42.4589
G01 X76.5264 Y42.4690
G01 X76.5289 Y42.4788
G01 X76.5324 Y42.4884
G01 X76.5369 Y42.4975
G01 X76.5704 Y42.5588
G01 X76.5755 Y42.5672
G01 X76.5814 Y42.5751
G01 X76.5880 Y42.5824
G01 X81.6412 Y47.6356
G01 X81.7295 Y47.7678
G01 X81.7904 Y47.9146
G01 X81.8214 Y48.0705
G01 X81.8214 Y53.9295
G01 X81.7904 Y54.0854
G01 X81.7295 Y54.2322
G01 X81.6412 Y54.3644
G01 X78.4898 Y57.5158
G01 X78.3577 Y57.6041
G01 X78.2108 Y57.6649
G01 X78.0549 Y57.6959
G01 X37.1255 Y57.6959
G01 X37.0649 Y57.6672
G01 X37.0555 Y57.6634
G01 X36.9816 Y57.6369
G01 X36.9719 Y57.6340
G01 X36.8957 Y57.6149
G01 X36.8857 Y57.6129
G01 X36.8081 Y57.6014
G01 X36.7980 Y57.6004
G01 X36.7195 Y57.5965
G01 X36.7094 Y57.5965
G01 X36.6310 Y57.6004
G01 X36.6209 Y57.6014
G01 X36.5432 Y57.6129
G01 X36.5332 Y57.6149
G01 X36.4571 Y57.6340
G01 X36.4473 Y57.6369
G01 X36.3734 Y57.6634
G01 X36.3640 Y57.6672
G01 X36.3034 Y57.6959
G01 X30.8755 Y57.6959
G01 X30.8149 Y57.6672
G01 X30.8055 Y57.6634
G01 X30.7316 Y57.6369
G01 X30.7219 Y57.6340
G01 X30.6457 Y57.6149
G01 X30.6357 Y57.6129
G01 X30.5581 Y57.6014
G01 X30.5480 Y57.6004
G01 X30.4695 Y57.5965
G01 X30.4594 Y57.5965
G01 X30.3810 Y57.6004
G01 X30.3709 Y57.6014
G01 X30.2932 Y57.6129
G01 X30.2832 Y57.6149
G01 X30.2071 Y57.6340
G01 X30.1973 Y57.6369
G01 X30.1234 Y57.6634
G01 X30.1140 Y57.6672
G01 X30.0534 Y57.6959
G01 X24.1890 Y57.6959
G01 X24.0331 Y57.6649
G01 X23.8862 Y57.6041
G01 X23.7541 Y57.5158
G01 X18.1019 Y51.8636
G01 X18.0936 Y51.8562
G01 X18.0730 Y51.8395
G01 X18.0648 Y51.8335
G01 X18.0560 Y51.8284
G01 X18.0468 Y51.8241
G01 X18.0372 Y51.8208
G01 X17.9702 Y51.8011
G01 X17.9606 Y51.7988
G01 X17.9508 Y51.7974
G01 X17.9410 Y51.7969
G01 X17.8421 Y51.7969
G01 X17.6498 Y51.7664
G01 X17.4647 Y51.7063
G01 X17.2912 Y51.6179
G01 X17.1337 Y51.5035
G01 X17.0638 Y51.4336
G01 X17.0555 Y51.4262
G01 X17.0349 Y51.4095
G01 X17.0267 Y51.4035
G01 X17.0179 Y51.3984
G01 X17.0087 Y51.3941
G01 X16.9991 Y51.3908
G01 X16.9320 Y51.3711
G01 X16.9225 Y51.3688
G01 X16.9127 Y51.3674
G01 X16.9029 Y51.3669
G01 X9.2950 Y51.3669
G01 X9.1391 Y51.3359
G01 X8.9922 Y51.2751
G01 X8.8601 Y51.1868
G01 X6.3369 Y48.6636
G01 X6.3286 Y48.6562
G01 X6.3080 Y48.6395
G01 X6.2998 Y48.6335
G01 X6.2910 Y48.6284
G01 X6.2818 Y48.6241
G01 X6.2722 Y48.6208
G01 X6.2052 Y48.6011
G01 X6.1956 Y48.5988
G01 X6.1858 Y48.5974
G01 X6.1760 Y48.5969
G01 X6.0663 Y48.5969
G01 X5.8725 Y48.5662
G01 X5.6858 Y48.5055
G01 X5.5109 Y48.4164
G01 X5.3522 Y48.3011
G01 X5.2134 Y48.1623
G01 X5.0980 Y48.0035
G01 X5.0089 Y47.8286
G01 X4.9483 Y47.6420
G01 X4.9176 Y47.4481
G01 X4.9176 Y47.3385
G01 X4.9170 Y47.3274
G01 X4.9141 Y47.3011
G01 X4.9126 Y47.2910
G01 X4.9100 Y47.2812
G01 X4.9065 Y47.2716
G01 X4.9021 Y47.2625
G01 X4.8686 Y47.2012
G01 X4.8634 Y47.1928
G01 X4.8575 Y47.1849
G01 X4.8509 Y47.1776
G01 X3.4377 Y45.7644
G01 X3.3494 Y45.6322
G01 X3.2886 Y45.4854
G01 X3.2576 Y45.3295
G01 X3.2576 Y21.5705
G01 X3.2886 Y21.4146
G01 X3.3494 Y21.2678
G00 Z3.0000
G00 X10.7007 Y25.4927
G01 F60.00
G01 Z-0.2000
G01 F120.00
G01 X10.6452 Y25.4516
G01 X10.6374 Y25.4452
G01 X10.5792 Y25.3924
G01 X10.5720 Y25.3853
G01 X10.5193 Y25.3271
G01 X10.5128 Y25.3192
G01 X10.4661 Y25.2562
G01 X10.4604 Y25.2477
G01 X10.4201 Y25.1804
G01 X10.4153 Y25.1714
G01 X10.3817 Y25.1004
G01 X10.3778 Y25.0910
G01 X10.3514 Y25.0171
G01 X10.3484 Y25.0074
G01 X10.3293 Y24.9312
G01 X10.3274 Y24.9213
G01 X10.3158 Y24.8436
G01 X10.3148 Y24.8335
G01 X10.3110 Y24.7551
G01 X10.3110 Y24.7449
G01 X10.3148 Y24.6665
G01 X10.3158 Y24.6564
G01 X10.3274 Y24.5787
G01 X10.3293 Y24.5688
G01 X10.3484 Y24.4926
G01 X10.3514 Y24.4829
G01 X10.3778 Y24.4090
G01 X10.3817 Y24.3996
G01 X10.4153 Y24.3286
G01 X10.4201 Y24.3196
G01 X10.4604 Y24.2523
G01 X10.4661 Y24.2438
G01 X10.5128 Y24.1808
G01 X10.5193 Y24.1729
G01 X10.5720 Y24.1147
G01 X10.5792 Y24.1076
G01 X10.6374 Y24.0548
G01 X10.6452 Y24.0484
G01 X10.7083 Y24.0016
G01 X10.7167 Y23.9960
G01 X10.7841 Y23.9556
G01 X10.7931 Y23.9508
G01 X10.8640 Y23.9172
G01 X10.8734 Y23.9134
G01 X10.9473 Y23.8869
G01 X10.9571 Y23.8840
G01 X11.0332 Y23.8649
G01 X11.0432 Y23.8629
G01 X11.1209 Y23.8514
G01 X11.1310 Y23.8504
G01 X11.2094 Y23.8465
G01 X11.2195 Y23.8465
G01 X11.2980 Y23.8504
G01 X11.3081 Y23.8514
G01 X11.3857 Y23.8629
G01 X11.3957 Y23.8649
G01 X11.4719 Y23.8840
G01 X11.4816 Y23.8869
G01 X11.5555 Y23.9134
G01 X11.5649 Y23.9172
G01 X11.6359 Y23.9508
G01 X11.6448 Y23.9556
G01 X11.7122 Y23.9960
G01 X11.7206 Y24.0016
G01 X11.7837 Y24.0484
G01 X11.7916 Y24.0548
G01 X11.8497 Y24.1076
G01 X11.8569 Y24.1147
G01 X11.9096 Y24.1729
G01 X11.9161 Y24.1808
G01 X11.9629 Y24.2438
G01 X11.9685 Y24.2523
G01 X12.0089 Y24.3196
G01 X12.0137 Y24.3286
G01 X12.0472 Y24.3996
G01 X12.0511 Y24.4090
G01 X12.0776 Y24.4829
G01 X12.0805 Y24.4926
G01 X12.0996 Y24.5688
G01 X12.1016 Y24.5787
G01 X12.1131 Y24.6564
G01 X12.1141 Y24.6665
G01 X12.1179 Y24.7449
G01 X12.1179 Y24.7551
G01 X12.1141 Y24.8335
G01 X12.1131 Y24.8436
G01 X12.1016 Y24.9213
G01 X12.0996 Y24.9312
G01 X12.0803 Y25.0082
G01 X12.0776 Y25.0171
G01 X12.0511 Y25.0910
G01 X12.0472 Y25.1004
G01 X12.0137 Y25.1714
G01 X12.0089 Y25.1804
G01 X11.9685 Y25.2477
G01 X11.9629 Y25.2562
G01 X11.9161 Y25.3192
G01 X11.9096 Y25.3271
G01 X11.8569 Y25.3853
G01 X11.8497 Y25.3924
G01 X11.7916 Y25.4452
G01 X11.7837 Y25.4516
G01 X11.7283 Y25.4927
G01 X11.7283 Y28.5872
G01 X14.1473 Y31.0062
G01 X14.4160 Y31.0062
G01 X14.4253 Y30.9916
G01 X14.4744 Y30.9254
G01 X14.4809 Y30.9175
G01 X14.5362 Y30.8565
G01 X14.5434 Y30.8493
G01 X14.6045 Y30.7939
G01 X14.6124 Y30.7875
G01 X14.6786 Y30.7384
G01 X14.6870 Y30.7327
G01 X14.7577 Y30.6903
G01 X14.7667 Y30.6855
G01 X14.8412 Y30.6503
G01 X14.8506 Y30.6464
G01 X14.9282 Y30.6186
G01 X14.9380 Y30.6157
G01 X15.0179 Y30.5956
G01 X15.0279 Y30.5937
G01 X15.1094 Y30.5816
G01 X15.1195 Y30.5806
G01 X15.2019 Y30.5765
G01 X15.2120 Y30.5765
G01 X15.2944 Y30.5806
G01 X15.3045 Y30.5816
G01 X15.3860 Y30.5937
G01 X15.3960 Y30.5956
G01 X15.4760 Y30.6157
G01 X15.4857 Y30.6186
G01 X15.5633 Y30.6464
G01 X15.5727 Y30.6503
G01 X15.6472 Y30.6855
G01 X15.6562 Y30.6903
G01 X15.7269 Y30.7327
G01 X15.7354 Y30.7384
G01 X15.8016 Y30.7875
G01 X15.8094 Y30.7939
G01 X15.8705 Y30.8493
G01 X15.8777 Y30.8565
G01 X15.9331 Y30.9175
G01 X15.9395 Y30.9254
G01 X15.9886 Y30.9916
G01 X15.9979 Y31.0062
G01 X16.8345 Y31.0062
G01 X16.8798 Y31.0083
G01 X16.8899 Y31.0093
G01 X16.9297 Y31.0152
G01 X16.9397 Y31.0172
G01 X16.9787 Y31.0270
G01 X16.9884 Y31.0299
G01 X17.0263 Y31.0435
G01 X17.0357 Y31.0474
G01 X17.0721 Y31.0646
G01 X17.0811 Y31.0694
G01 X17.1156 Y31.0901
G01 X17.1241 Y31.0957
G01 X17.1564 Y31.1197
G01 X17.1643 Y31.1261
G01 X17.1978 Y31.1567
G01 X22.8773 Y36.8362
G01 X28.1445 Y36.8362
G01 X28.1898 Y36.8383
G01 X28.1999 Y36.8393
G01 X28.2397 Y36.8452
G01 X28.2497 Y36.8472
G01 X28.2887 Y36.8570
G01 X28.2984 Y36.8599
G01 X28.3363 Y36.8735
G01 X28.3457 Y36.8774
G01 X28.3821 Y36.8946
G01 X28.3911 Y36.8994
G01 X28.4256 Y36.9201
G01 X28.4341 Y36.9257
G01 X28.4664 Y36.9497
G01 X28.4743 Y36.9561
G01 X28.5078 Y36.9867
G01 X30.5526 Y39.0315
G01 X30.6209 Y39.0214
G01 X30.6310 Y39.0204
G01 X30.7094 Y39.0165
G01 X30.7195 Y39.0165
G01 X30.7980 Y39.0204
G01 X30.8081 Y39.0214
G01 X30.8857 Y39.0329
G01 X30.8957 Y39.0349
G01 X30.9719 Y39.0540
G01 X30.9816 Y39.0569
G01 X31.0555 Y39.0834
G01 X31.0649 Y39.0872
G01 X31.1359 Y39.1208
G01 X31.1448 Y39.1256
G01 X31.2122 Y39.1660
G01 X31.2206 Y39.1716
G01 X31.2837 Y39.2184
G01 X31.2916 Y39.2248
G01 X31.3497 Y39.2776
G01 X31.3569 Y39.2847
G01 X31.4096 Y39.3429
G01 X31.4161 Y39.3508
G01 X31.4629 Y39.4138
G01 X31.4685 Y39.4223
G01 X31.5089 Y39.4896
G01 X31.5137 Y39.4986
G01 X31.5472 Y39.5696
G01 X31.5511 Y39.5790
G01 X31.5776 Y39.6529
G01 X31.5805 Y39.6626
G01 X31.5996 Y39.7388
G01 X31.6016 Y39.7487
G01 X31.6131 Y39.8264
G01 X31.6141 Y39.8365
G01 X31.6179 Y39.9149
G01 X31.6179 Y39.9251
G01 X31.6141 Y40.0035
G01 X31.6131 Y40.0136
G01 X31.6016 Y40.0913
G01 X31.5996 Y40.1012
G01 X31.5803 Y40.1782
G01 X31.5776 Y40.1871
G01 X31.5511 Y40.2610
G01 X31.5472 Y40.2704
G01 X31.5137 Y40.3414
G01 X31.5089 Y40.3504
G01 X31.4685 Y40.4177
G01 X31.4629 Y40.4262
G01 X31.4161 Y40.4892
G01 X31.4096 Y40.4971
G01 X31.3569 Y40.5553
G01 X31.3497 Y40.5624
G01 X31.2916 Y40.6152
G01 X31.2837 Y40.6216
G01 X31.2206 Y40.6684
G01 X31.2122 Y40.6740
G01 X31.1448 Y40.7144
G01 X31.1359 Y40.7192
G01 X31.0649 Y40.7528
G01 X31.0555 Y40.7566
G01 X30.9816 Y40.7831
G01 X30.9719 Y40.7860
G01 X30.8957 Y40.8051
G01 X30.8857 Y40.8071
G01 X30.8081 Y40.8186
G01 X30.7980 Y40.8196
G01 X30.7195 Y40.8235
G01 X30.7094 Y40.8235
G01 X30.6310 Y40.8196
G01 X30.6209 Y40.8186
G01 X30.5432 Y40.8071
G01 X30.5332 Y40.8051
G01 X30.4571 Y40.7860
G01 X30.4473 Y40.7831
G01 X30.3734 Y40.7566
G01 X30.3640 Y40.7528
G01 X30.2931 Y40.7192
G01 X30.2841 Y40.7144
G01 X30.2167 Y40.6740
G01 X30.2083 Y40.6684
G01 X30.1452 Y40.6216
G01 X30.1374 Y40.6152
G01 X30.0792 Y40.5624
G01 X30.0720 Y40.5553
G01 X30.0193 Y40.4971
G01 X30.0128 Y40.4892
G01 X29.9661 Y40.4262
G01 X29.9604 Y40.4177
G01 X29.9201 Y40.3504
G01 X29.9153 Y40.3414
G01 X29.8817 Y40.2704
G01 X29.8778 Y40.2610
G01 X29.8514 Y40.1871
G01 X29.8484 Y40.1774
G01 X29.8293 Y40.1012
G01 X29.8274 Y40.0913
G01 X29.8158 Y40.0136
G01 X29.8148 Y40.0035
G01 X29.8110 Y39.9251
G01 X29.8110 Y39.9149
G01 X29.8148 Y39.8365
G01 X29.8158 Y39.8264
G01 X29.8260 Y39.7581
G01 X27.9316 Y37.8638
G01 X22.6645 Y37.8638
G01 X22.6192 Y37.8617
G01 X22.6091 Y37.8607
G01 X22.5692 Y37.8548
G01 X22.5593 Y37.8528
G01 X22.5202 Y37.8430
G01 X22.5105 Y37.8401
G01 X22.4726 Y37.8265
G01 X22.4632 Y37.8226
G01 X22.4268 Y37.8054
G01 X22.4178 Y37.8006
G01 X22.3833 Y37.7799
G01 X22.3749 Y37.7743
G01 X22.3425 Y37.7503
G01 X22.3347 Y37.7439
G01 X22.3012 Y37.7133
G01 X16.6216 Y32.0338
G01 X15.9979 Y32.0338
G01 X15.9886 Y32.0484
G01 X15.9395 Y32.1146
G01 X15.9331 Y32.1225
G01 X15.8777 Y32.1835
G01 X15.8705 Y32.1907
G01 X15.8094 Y32.2461
G01 X15.8016 Y32.2525
G01 X15.7354 Y32.3016
G01 X15.7269 Y32.3073
G01 X15.6562 Y32.3497
G01 X15.6472 Y32.3545
G01 X15.5727 Y32.3897
G01 X15.5633 Y32.3936
G01 X15.4857 Y32.4214
G01 X15.4760 Y32.4243
G01 X15.3960 Y32.4444
G01 X15.3860 Y32.4463
G01 X15.3045 Y32.4584
G01 X15.2944 Y32.4594
G01 X15.2120 Y32.4635
G01 X15.2019 Y32.4635
G01 X15.1195 Y32.4594
G01 X15.1094 Y32.4584
G01 X15.0279 Y32.4463
G01 X15.0179 Y32.4444
G01 X14.9380 Y32.4243
G01 X14.9282 Y32.4214
G01 X14.8506 Y32.3936
G01 X14.8412 Y32.3897
G01 X14.7667 Y32.3545
G01 X14.7577 Y32.3497
G01 X14.6870 Y32.3073
G01 X14.6786 Y32.3016
G01 X14.6124 Y32.2525
G01 X14.6045 Y32.2461
G01 X14.5434 Y32.1907
G01 X14.5362 Y32.1835
G01 X14.4809 Y32.1225
G01 X14.4744 Y32.1146
G01 X14.4253 Y32.0484
G01 X14.4160 Y32.0338
G01 X13.9345 Y32.0338
G01 X13.8892 Y32.0317
G01 X13.8791 Y32.0307
G01 X13.8392 Y32.0248
G01 X13.8293 Y32.0228
G01 X13.7902 Y32.0130
G01 X13.7805 Y32.0101
G01 X13.7426 Y31.9965
G01 X13.7332 Y31.9926
G01 X13.6968 Y31.9754
G01 X13.6878 Y31.9706
G01 X13.6533 Y31.9499
G01 X13.6449 Y31.9443
G01 X13.6125 Y31.9203
G01 X13.6047 Y31.9139
G01 X13.5712 Y31.8833
G01 X10.8512 Y29.1633
G01 X10.8206 Y29.1298
G01 X10.8142 Y29.1219
G01 X10.7902 Y29.0896
G01 X10.7845 Y29.0812
G01 X10.7638 Y29.0466
G01 X10.7590 Y29.0377
G01 X10.7418 Y29.0013
G01 X10.7379 Y28.9919
G01 X10.7244 Y28.9540
G01 X10.7214 Y28.9442
G01 X10.7116 Y28.9052
G01 X10.7097 Y28.8952
G01 X10.7038 Y28.8554
G01 X10.7028 Y28.8453
G01 X10.7007 Y28.8000
G01 X10.7007 Y25.4927
G00 Z3.0000
G00 X14.4744 Y28.3854
G01 F60.00
G01 Z-0.2000
G01 F120.00
G01 X14.4809 Y28.3775
G01 X14.5362 Y28.3165
G01 X14.5434 Y28.3093
G01 X14.6045 Y28.2539
G01 X14.6124 Y28.2475
G01 X14.6786 Y28.1984
G01 X14.6870 Y28.1927
G01 X14.7577 Y28.1503
G01 X14.7667 Y28.1455
G01 X14.8412 Y28.1103
G01 X14.8506 Y28.1064
G01 X14.9282 Y28.0786
G01 X14.9380 Y28.0757
G01 X15.0179 Y28.0556
G01 X15.0279 Y28.0537
G01 X15.1094 Y28.0416
G01 X15.1195 Y28.0406
G01 X15.2019 Y28.0365
G01 X15.2120 Y28.0365
G01 X15.2944 Y28.0406
G01 X15.3045 Y28.0416
G01 X15.3860 Y28.0537
G01 X15.3960 Y28.0556
G01 X15.4760 Y28.0757
G01 X15.4857 Y28.0786
G01 X15.5633 Y28.1064
G01 X15.5727 Y28.1103
G01 X15.6472 Y28.1455
G01 X15.6562 Y28.1503
G01 X15.7269 Y28.1927
G01 X15.7354 Y28.1984
G01 X15.8016 Y28.2475
G01 X15.8094 Y28.2539
G01 X15.8705 Y28.3093
G01 X15.8777 Y28.3165
G01 X15.9331 Y28.3775
G01 X15.9395 Y28.3854
G01 X15.9886 Y28.4516
G01 X15.9979 Y28.4662
G01 X16.5945 Y28.4662
G01 X16.6398 Y28.4683
G01 X16.6499 Y28.4693
G01 X16.6897 Y28.4752
G01 X16.6997 Y28.4772
G01 X16.7387 Y28.4870
G01 X16.7484 Y28.4899
G01 X16.7863 Y28.5035
G01 X16.7957 Y28.5074
G01 X16.8321 Y28.5246
G01 X16.8411 Y28.5294
G01 X16.8756 Y28.5501
G01 X16.8841 Y28.5557
G01 X16.9164 Y28.5797
G01 X16.9243 Y28.5861
G01 X16.9578 Y28.6167
G01 X19.3473 Y31.0062
G01 X22.3560 Y31.0062
G01 X22.3653 Y30.9916
G01 X22.4144 Y30.9254
G01 X22.4209 Y30.9175
G01 X22.4762 Y30.8565
G01 X22.4834 Y30.8493
G01 X22.5445 Y30.7939
G01 X22.5524 Y30.7875
G01 X22.6186 Y30.7384
G01 X22.6270 Y30.7327
G01 X22.6977 Y30.6903
G01 X22.7067 Y30.6855
G01 X22.7812 Y30.6503
G01 X22.7906 Y30.6464
G01 X22.8682 Y30.6186
G01 X22.8780 Y30.6157
G01 X22.9579 Y30.5956
G01 X22.9679 Y30.5937
G01 X23.0494 Y30.5816
G01 X23.0595 Y30.5806
G01 X23.1419 Y30.5765
G01 X23.1520 Y30.5765
G01 X23.2344 Y30.5806
G01 X23.2445 Y30.5816
G01 X23.3260 Y30.5937
G01 X23.3360 Y30.5956
G01 X23.4160 Y30.6157
G01 X23.4257 Y30.6186
G01 X23.5033 Y30.6464
G01 X23.5127 Y30.6503
G01 X23.5872 Y30.6855
G01 X23.5962 Y30.6903
G01 X23.6669 Y30.7327
G01 X23.6754 Y30.7384
G01 X23.7416 Y30.7875
G01 X23.7494 Y30.7939
G01 X23.8105 Y30.8493
G01 X23.8177 Y30.8565
G01 X23.8731 Y30.9175
G01 X23.8795 Y30.9254
G01 X23.9286 Y30.9916
G01 X23.9343 Y31.0001
G01 X23.9454 Y31.0186
G01 X23.9787 Y31.0270
G01 X23.9884 Y31.0299
G01 X24.0263 Y31.0435
G01 X24.0357 Y31.0474
G01 X24.0721 Y31.0646
G01 X24.0811 Y31.0694
G01 X24.1156 Y31.0901
G01 X24.1241 Y31.0957
G01 X24.1564 Y31.1197
G01 X24.1643 Y31.1261
G01 X24.1941 Y31.1532
G01 X26.3773 Y33.3362
G01 X36.3516 Y33.3362
G01 X40.0512 Y29.6367
G01 X40.0847 Y29.6061
G01 X40.0925 Y29.5997
G01 X40.1249 Y29.5757
G01 X40.1333 Y29.5701
G01 X40.1678 Y29.5494
G01 X40.1768 Y29.5446
G01 X40.2132 Y29.5274
G01 X40.2226 Y29.5235
G01 X40.2605 Y29.5099
G01 X40.2702 Y29.5070
G01 X40.3093 Y29.4972
G01 X40.3192 Y29.4952
G01 X40.3591 Y29.4893
G01 X40.3692 Y29.4883
G01 X40.4145 Y29.4862
G01 X42.8017 Y29.4862
G01 X42.8428 Y29.4308
G01 X42.8493 Y29.4229
G01 X42.9020 Y29.3647
G01 X42.9092 Y29.3576
G01 X42.9674 Y29.3048
G01 X42.9752 Y29.2984
G01 X43.0383 Y29.2516
G01 X43.0467 Y29.2460
G01 X43.1141 Y29.2056
G01 X43.1231 Y29.2008
G01 X43.1940 Y29.1672
G01 X43.2034 Y29.1634
G01 X43.2773 Y29.1369
G01 X43.2871 Y29.1340
G01 X43.3632 Y29.1149
G01 X43.3732 Y29.1129
G01 X43.4509 Y29.1014
G01 X43.4610 Y29.1004
G01 X43.5394 Y29.0965
G01 X43.5495 Y29.0965
G01 X43.6280 Y29.1004
G01 X43.6381 Y29.1014
G01 X43.7157 Y29.1129
G01 X43.7257 Y29.1149
G01 X43.8019 Y29.1340
G01 X43.8116 Y29.1369
G01 X43.8855 Y29.1634
G01 X43.8949 Y29.1672
G01 X43.9659 Y29.2008
G01 X43.9748 Y29.2056
G01 X44.0422 Y29.2460
G01 X44.0506 Y29.2516
G01 X44.1137 Y29.2984
G01 X44.1216 Y29.3048
G01 X44.1797 Y29.3576
G01 X44.1869 Y29.3647
G01 X44.2396 Y29.4229
G01 X44.2461 Y29.4308
G01 X44.2929 Y29.4938
G01 X44.2985 Y29.5023
G01 X44.3389 Y29.5696
G01 X44.3437 Y29.5786
G01 X44.3772 Y29.6496
G01 X44.3811 Y29.6590
G01 X44.4076 Y29.7329
G01 X44.4105 Y29.7426
G01 X44.4296 Y29.8188
G01 X44.4316 Y29.8287
G01 X44.4431 Y29.9064
G01 X44.4441 Y29.9165
G01 X44.4479 Y29.9949
G01 X44.4479 Y30.0051
G01 X44.4441 Y30.0835
G01 X44.4431 Y30.0936
G01 X44.4316 Y30.1713
G01 X44.4296 Y30.1812
G01 X44.4105 Y30.2574
G01 X44.4076 Y30.2671
G01 X44.3811 Y30.3410
G01 X44.3772 Y30.3504
G01 X44.3437 Y30.4214
G01 X44.3389 Y30.4304
G01 X44.2985 Y30.4977
G01 X44.2929 Y30.5062
G01 X44.2461 Y30.5692
G01 X44.2396 Y30.5771
G01 X44.1869 Y30.6353
G01 X44.1797 Y30.6424
G01 X44.1216 Y30.6952
G01 X44.1137 Y30.7016
G01 X44.0506 Y30.7484
G01 X44.0422 Y30.7540
G01 X43.9748 Y30.7944
G01 X43.9659 Y30.7992
G01 X43.8949 Y30.8328
G01 X43.8855 Y30.8366
G01 X43.8116 Y30.8631
G01 X43.8019 Y30.8660
G01 X43.7257 Y30.8851
G01 X43.7157 Y30.8871
G01 X43.6381 Y30.8986
G01 X43.6280 Y30.8996
G01 X43.5495 Y30.9035
G01 X43.5394 Y30.9035
G01 X43.4610 Y30.8996
G01 X43.4509 Y30.8986
G01 X43.3732 Y30.8871
G01 X43.3632 Y30.8851
G01 X43.2865 Y30.8659
G01 X43.2773 Y30.8631
G01 X43.2034 Y30.8366
G01 X43.1940 Y30.8328
G01 X43.1231 Y30.7992
G01 X43.1141 Y30.7944
G01 X43.0467 Y30.7540
G01 X43.0383 Y30.7484
G01 X42.9752 Y30.7016
G01 X42.9674 Y30.6952
G01 X42.9092 Y30.6424
G01 X42.9020 Y30.6353
G01 X42.8493 Y30.5771
G01 X42.8428 Y30.5692
G01 X42.8017 Y30.5138
G01 X40.6273 Y30.5138
G01 X36.9278 Y34.2133
G01 X36.8943 Y34.2439
G01 X36.8864 Y34.2503
G01 X36.8541 Y34.2743
G01 X36.8456 Y34.2799
G01 X36.8111 Y34.3006
G01 X36.8021 Y34.3054
G01 X36.7657 Y34.3226
G01 X36.7563 Y34.3265
G01 X36.7184 Y34.3401
G01 X36.7087 Y34.3430
G01 X36.6697 Y34.3528
G01 X36.6597 Y34.3548
G01 X36.6199 Y34.3607
G01 X36.6098 Y34.3617
G01 X36.5645 Y34.3638
G01 X26.1645 Y34.3638
G01 X26.1192 Y34.3617
G01 X26.1091 Y34.3607
G01 X26.0692 Y34.3548
G01 X26.0593 Y34.3528
G01 X26.0202 Y34.3430
G01 X26.0105 Y34.3401
G01 X25.9726 Y34.3265
G01 X25.9632 Y34.3226
G01 X25.9268 Y34.3054
G01 X25.9178 Y34.3006
G01 X25.8833 Y34.2799
G01 X25.8749 Y34.2743
G01 X25.8425 Y34.2503
G01 X25.8347 Y34.2439
G01 X25.8048 Y34.2168
G01 X23.7938 Y32.2059
G01 X23.7494 Y32.2461
G01 X23.7416 Y32.2525
G01 X23.6754 Y32.3016
G01 X23.6669 Y32.3073
G01 X23.5962 Y32.3497
G01 X23.5872 Y32.3545
G01 X23.5127 Y32.3897
G01 X23.5033 Y32.3936
G01 X23.4257 Y32.4214
G01 X23.4160 Y32.4243
G01 X23.3360 Y32.4444
G01 X23.3260 Y32.4463
G01 X23.2445 Y32.4584
G01 X23.2344 Y32.4594
G01 X23.1520 Y32.4635
G01 X23.1419 Y32.4635
G01 X23.0595 Y32.4594
G01 X23.0494 Y32.4584
G01 X22.9679 Y32.4463
G01 X22.9579 Y32.4444
G01 X22.8780 Y32.4243
G01 X22.8682 Y32.4214
G01 X22.7906 Y32.3936
G01 X22.7812 Y32.3897
G01 X22.7067 Y32.3545
G01 X22.6977 Y32.3497
G01 X22.6270 Y32.3073
G01 X22.6186 Y32.3016
G01 X22.5524 Y32.2525
G01 X22.5445 Y32.2461
G01 X22.4834 Y32.1907
G01 X22.4762 Y32.1835
G01 X22.4209 Y32.1225
G01 X22.4144 Y32.1146
G01 X22.3653 Y32.0484
G01 X22.3560 Y32.0338
G01 X19.1345 Y32.0338
G01 X19.0892 Y32.0317
G01 X19.0791 Y32.0307
G01 X19.0392 Y32.0248
G01 X19.0293 Y32.0228
G01 X18.9902 Y32.0130
G01 X18.9805 Y32.0101
G01 X18.9426 Y31.9965
G01 X18.9332 Y31.9926
G01 X18.8968 Y31.9754
G01 X18.8878 Y31.9706
G01 X18.8533 Y31.9499
G01 X18.8449 Y31.9443
G01 X18.8125 Y31.9203
G01 X18.8047 Y31.9139
G01 X18.7712 Y31.8833
G01 X16.3816 Y29.4938
G01 X15.9979 Y29.4938
G01 X15.9886 Y29.5084
G01 X15.9395 Y29.5746
G01 X15.9331 Y29.5825
G01 X15.8777 Y29.6435
G01 X15.8705 Y29.6507
G01 X15.8094 Y29.7061
G01 X15.8016 Y29.7125
G01 X15.7354 Y29.7616
G01 X15.7269 Y29.7673
G01 X15.6562 Y29.8097
G01 X15.6472 Y29.8145
G01 X15.5727 Y29.8497
G01 X15.5633 Y29.8536
G01 X15.4857 Y29.8814
G01 X15.4760 Y29.8843
G01 X15.3960 Y29.9044
G01 X15.3860 Y29.9063
G01 X15.3045 Y29.9184
G01 X15.2944 Y29.9194
G01 X15.2120 Y29.9235
G01 X15.2019 Y29.9235
G01 X15.1195 Y29.9194
G01 X15.1094 Y29.9184
G01 X15.0279 Y29.9063
G01 X15.0179 Y29.9044
G01 X14.9380 Y29.8843
G01 X14.9282 Y29.8814
G01 X14.8506 Y29.8536
G01 X14.8412 Y29.8497
G01 X14.7667 Y29.8145
G01 X14.7577 Y29.8097
G01 X14.6870 Y29.7673
G01 X14.6786 Y29.7616
G01 X14.6124 Y29.7125
G01 X14.6045 Y29.7061
G01 X14.5434 Y29.6507
G01 X14.5362 Y29.6435
G01 X14.4809 Y29.5825
G01 X14.4744 Y29.5746
G01 X14.4253 Y29.5084
G01 X14.4197 Y29.4999
G01 X14.3773 Y29.4292
G01 X14.3725 Y29.4203
G01 X14.3373 Y29.3457
G01 X14.3334 Y29.3364
G01 X14.3056 Y29.2587
G01 X14.3026 Y29.2490
G01 X14.2826 Y29.1690
G01 X14.2806 Y29.1591
G01 X14.2685 Y29.0775
G01 X14.2675 Y29.0674
G01 X14.2635 Y28.9851
G01 X14.2635 Y28.9749
G01 X14.2675 Y28.8926
G01 X14.2685 Y28.8825
G01 X14.2806 Y28.8009
G01 X14.2826 Y28.7910
G01 X14.3026 Y28.7110
G01 X14.3056 Y28.7013
G01 X14.3334 Y28.6236
G01 X14.3373 Y28.6143
G01 X14.3725 Y28.5397
G01 X14.3773 Y28.5308
G01 X14.4197 Y28.4601
G01 X14.4253 Y28.4516
G01 X14.4744 Y28.3854
G00 Z3.0000
G00 X16.0470 Y25.5214
G01 F60.00
G01 Z-0.2000
G01 F120.00
G01 X16.0571 Y25.5219
G01 X16.0672 Y25.5234
G01 X16.0770 Y25.5259
G01 X16.0866 Y25.5293
G01 X16.0958 Y25.5336
G01 X16.1045 Y25.5389
G01 X16.1127 Y25.5449
G01 X16.1202 Y25.5517
G01 X16.1270 Y25.5593
G01 X16.1331 Y25.5674
G01 X16.1383 Y25.5762
G01 X16.1427 Y25.5854
G01 X16.1461 Y25.5949
G01 X16.1486 Y25.6048
G01 X16.1501 Y25.6148
G01 X16.1506 Y25.6250
G01 X16.1506 Y27.2550
G01 X16.1501 Y27.2652
G01 X16.1486 Y27.2752
G01 X16.1461 Y27.2851
G01 X16.1427 Y27.2946
G01 X16.1383 Y27.3038
G01 X16.1331 Y27.3126
G01 X16.1270 Y27.3207
G01 X16.1202 Y27.3283
G01 X16.1127 Y27.3351
G01 X16.1045 Y27.3411
G01 X16.0958 Y27.3464
G01 X16.0866 Y27.3507
G01 X16.0770 Y27.3541
G01 X16.0672 Y27.3566
G01 X16.0571 Y27.3581
G01 X16.0470 Y27.3586
G01 X14.3670 Y27.3586
G01 X14.3568 Y27.3581
G01 X14.3468 Y27.3566
G01 X14.3369 Y27.3541
G01 X14.3273 Y27.3507
G01 X14.3181 Y27.3464
G01 X14.3094 Y27.3411
G01 X14.3012 Y27.3351
G01 X14.2937 Y27.3283
G01 X14.2869 Y27.3207
G01 X14.2808 Y27.3126
G01 X14.2756 Y27.3038
G01 X14.2713 Y27.2946
G01 X14.2678 Y27.2851
G01 X14.2654 Y27.2752
G01 X14.2639 Y27.2652
G01 X14.2634 Y27.2550
G01 X14.2634 Y25.6250
G01 X14.2639 Y25.6148
G01 X14.2654 Y25.6048
G01 X14.2678 Y25.5949
G01 X14.2713 Y25.5854
G01 X14.2756 Y25.5762
G01 X14.2808 Y25.5674
G01 X14.2869 Y25.5593
G01 X14.2937 Y25.5517
G01 X14.3012 Y25.5449
G01 X14.3094 Y25.5389
G01 X14.3181 Y25.5336
G01 X14.3273 Y25.5293
G01 X14.3369 Y25.5259
G01 X14.3468 Y25.5234
G01 X14.3568 Y25.5219
G01 X14.3670 Y25.5214
G01 X16.0470 Y25.5214
G00 Z3.0000
G00 X14.5119 Y20.4654
G01 F60.00
G01 Z-0.2000
G01 F120.00
G01 X14.5184 Y20.4575
G01 X14.5737 Y20.3965
G01 X14.5809 Y20.3893
G01 X14.6420 Y20.3339
G01 X14.6499 Y20.3275
G01 X14.7161 Y20.2784
G01 X14.7245 Y20.2727
G01 X14.7952 Y20.2303
G01 X14.8042 Y20.2255
G01 X14.8787 Y20.1903
G01 X14.8881 Y20.1864
G01 X14.9657 Y20.1586
G01 X14.9755 Y20.1557
G01 X15.0554 Y20.1356
G01 X15.0654 Y20.1337
G01 X15.1469 Y20.1216
G01 X15.1570 Y20.1206
G01 X15.2394 Y20.1165
G01 X15.2495 Y20.1165
G01 X15.3319 Y20.1206
G01 X15.3420 Y20.1216
G01 X15.4235 Y20.1337
G01 X15.4335 Y20.1356
G01 X15.5135 Y20.1557
G01 X15.5232 Y20.1586
G01 X15.6008 Y20.1864
G01 X15.6102 Y20.1903
G01 X15.6847 Y20.2255
G01 X15.6937 Y20.2303
G01 X15.7644 Y20.2727
G01 X15.7729 Y20.2784
G01 X15.8391 Y20.3275
G01 X15.8469 Y20.3339
G01 X15.9080 Y20.3893
G01 X15.9152 Y20.3965
G01 X15.9706 Y20.4575
G01 X15.9770 Y20.4654
G01 X16.0261 Y20.5316
G01 X16.0318 Y20.5401
G01 X16.0741 Y20.6108
G01 X16.0789 Y20.6197
G01 X16.1142 Y20.6943
G01 X16.1181 Y20.7036
G01 X16.1458 Y20.7813
G01 X16.1488 Y20.7910
G01 X16.1688 Y20.8710
G01 X16.1708 Y20.8809
G01 X16.1829 Y20.9625
G01 X16.1839 Y20.9726
G01 X16.1879 Y21.0549
G01 X16.1879 Y21.0651
G01 X16.1839 Y21.1474
G01 X16.1829 Y21.1575
G01 X16.1708 Y21.2391
G01 X16.1688 Y21.2490
G01 X16.1488 Y21.3290
G01 X16.1458 Y21.3387
G01 X16.1181 Y21.4164
G01 X16.1142 Y21.4257
G01 X16.0789 Y21.5003
G01 X16.0741 Y21.5092
G01 X16.0318 Y21.5799
G01 X16.0261 Y21.5884
G01 X15.9770 Y21.6546
G01 X15.9706 Y21.6625
G01 X15.9152 Y21.7235
G01 X15.9080 Y21.7307
G01 X15.8469 Y21.7861
G01 X15.8391 Y21.7925
G01 X15.7729 Y21.8416
G01 X15.7644 Y21.8473
G01 X15.6937 Y21.8897
G01 X15.6847 Y21.8945
G01 X15.6102 Y21.9297
G01 X15.6008 Y21.9336
G01 X15.5232 Y21.9614
G01 X15.5135 Y21.9643
G01 X15.4335 Y21.9844
G01 X15.4235 Y21.9863
G01 X15.3420 Y21.9984
G01 X15.3319 Y21.9994
G01 X15.2495 Y22.0035
G01 X15.2394 Y22.0035
G01 X15.1570 Y21.9994
G01 X15.1469 Y21.9984
G01 X15.0654 Y21.9863
G01 X15.0554 Y21.9844
G01 X14.9755 Y21.9643
G01 X14.9657 Y21.9614
G01 X14.8881 Y21.9336
G01 X14.8787 Y21.9297
G01 X14.8042 Y21.8945
G01 X14.7952 Y21.8897
G01 X14.7245 Y21.8473
G01 X14.7161 Y21.8416
G01 X14.6499 Y21.7925
G01 X14.6420 Y21.7861
G01 X14.5809 Y21.7307
G01 X14.5737 Y21.7235
G01 X14.5184 Y21.6625
G01 X14.5119 Y21.6546
G01 X14.4628 Y21.5884
G01 X14.4572 Y21.5799
G01 X14.4148 Y21.5092
G01 X14.4100 Y21.5003
G01 X14.3748 Y21.4257
G01 X14.3709 Y21.4164
G01 X14.3431 Y21.3387
G01 X14.3401 Y21.3290
G01 X14.3201 Y21.2490
G01 X14.3181 Y21.2391
G01 X14.3060 Y21.1575
G01 X14.3050 Y21.1474
G01 X14.3010 Y21.0651
G01 X14.3010 Y21.0549
G01 X14.3050 Y20.9726
G01 X14.3060 Y20.9625
G01 X14.3181 Y20.8809
G01 X14.3201 Y20.8710
G01 X14.3401 Y20.7910
G01 X14.3431 Y20.7813
G01 X14.3709 Y20.7036
G01 X14.3748 Y20.6943
G01 X14.4100 Y20.6197
G01 X14.4148 Y20.6108
G01 X14.4572 Y20.5401
G01 X14.4628 Y20.5316
G01 X14.5119 Y20.4654
G00 Z3.0000
G00 X14.5119 Y17.9254
G01 F60.00
G01 Z-0.2000
G01 F120.00
G01 X14.5184 Y17.9175
G01 X14.5737 Y17.8565
G01 X14.5809 Y17.8493
G01 X14.6420 Y17.7939
G01 X14.6499 Y17.7875
G01 X14.7161 Y17.7384
G01 X14.7245 Y17.7327
G01 X14.7952 Y17.6903
G01 X14.8042 Y17.6855
G01 X14.8787 Y17.6503
G01 X14.8881 Y17.6464
G01 X14.9657 Y17.6186
G01 X14.9755 Y17.6157
G01 X15.0554 Y17.5956
G01 X15.0654 Y17.5937
G01 X15.1469 Y17.5816
G01 X15.1570 Y17.5806
G01 X15.2394 Y17.5765
G01 X15.2495 Y17.5765
G01 X15.3319 Y17.5806
G01 X15.3420 Y17.5816
G01 X15.4235 Y17.5937
G01 X15.4335 Y17.5956
G01 X15.5135 Y17.6157
G01 X15.5232 Y17.6186
G01 X15.6008 Y17.6464
G01 X15.6102 Y17.6503
G01 X15.6847 Y17.6855
G01 X15.6937 Y17.6903
G01 X15.7644 Y17.7327
G01 X15.7729 Y17.7384
G01 X15.8391 Y17.7875
G01 X15.8469 Y17.7939
G01 X15.9080 Y17.8493
G01 X15.9152 Y17.8565
G01 X15.9706 Y17.9175
G01 X15.9770 Y17.9254
G01 X16.0261 Y17.9916
G01 X16.0354 Y18.0062
G01 X17.9840 Y18.0062
G01 X18.0293 Y18.0083
G01 X18.0395 Y18.0093
G01 X18.0793 Y18.0152
G01 X18.0892 Y18.0172
G01 X18.1283 Y18.0270
G01 X18.1380 Y18.0299
G01 X18.1759 Y18.0435
G01 X18.1853 Y18.0474
G01 X18.2217 Y18.0646
G01 X18.2307 Y18.0694
G01 X18.2652 Y18.0901
G01 X18.2737 Y18.0957
G01 X18.3060 Y18.1197
G01 X18.3139 Y18.1261
G01 X18.3474 Y18.1567
G01 X19.9778 Y19.7871
G01 X20.0083 Y19.8206
G01 X20.0148 Y19.8285
G01 X20.0388 Y19.8608
G01 X20.0444 Y19.8693
G01 X20.0651 Y19.9038
G01 X20.0699 Y19.9128
G01 X20.0871 Y19.9491
G01 X20.0910 Y19.9585
G01 X20.1046 Y19.9964
G01 X20.1075 Y20.0062
G01 X20.1173 Y20.0452
G01 X20.1193 Y20.0552
G01 X20.1252 Y20.0950
G01 X20.1262 Y20.1051
G01 X20.1283 Y20.1504
G01 X20.1283 Y27.0872
G01 X21.5073 Y28.4662
G01 X22.3560 Y28.4662
G01 X22.3653 Y28.4516
G01 X22.4144 Y28.3854
G01 X22.4209 Y28.3775
G01 X22.4762 Y28.3165
G01 X22.4834 Y28.3093
G01 X22.5445 Y28.2539
G01 X22.5524 Y28.2475
G01 X22.6186 Y28.1984
G01 X22.6270 Y28.1927
G01 X22.6977 Y28.1503
G01 X22.7067 Y28.1455
G01 X22.7812 Y28.1103
G01 X22.7906 Y28.1064
G01 X22.8682 Y28.0786
G01 X22.8780 Y28.0757
G01 X22.9579 Y28.0556
G01 X22.9679 Y28.0537
G01 X23.0494 Y28.0416
G01 X23.0595 Y28.0406
G01 X23.1419 Y28.0365
G01 X23.1520 Y28.0365
G01 X23.2344 Y28.0406
G01 X23.2445 Y28.0416
G01 X23.3260 Y28.0537
G01 X23.3360 Y28.0556
G01 X23.4160 Y28.0757
G01 X23.4257 Y28.0786
G01 X23.5033 Y28.1064
G01 X23.5127 Y28.1103
G01 X23.5872 Y28.1455
G01 X23.5962 Y28.1503
G01 X23.6669 Y28.1927
G01 X23.6754 Y28.1984
G01 X23.7416 Y28.2475
G01 X23.7494 Y28.2539
G01 X23.8105 Y28.3093
G01 X23.8177 Y28.3165
G01 X23.8731 Y28.3775
G01 X23.8795 Y28.3854
G01 X23.9286 Y28.4516
G01 X23.9343 Y28.4601
G01 X23.9766 Y28.5308
G01 X23.9814 Y28.5397
G01 X23.9916 Y28.5613
G01 X24.0164 Y28.5797
G01 X24.0243 Y28.5861
G01 X24.0578 Y28.6167
G01 X26.9273 Y31.4862
G01 X35.1016 Y31.4862
G01 X37.0474 Y29.5404
G01 X37.0474 Y18.5858
G01 X37.0079 Y18.5622
G01 X36.9995 Y18.5565
G01 X36.9285 Y18.5039
G01 X36.9207 Y18.4975
G01 X36.8552 Y18.4382
G01 X36.8481 Y18.4310
G01 X36.7887 Y18.3655
G01 X36.7823 Y18.3577
G01 X36.7297 Y18.2867
G01 X36.7240 Y18.2783
G01 X36.6786 Y18.2025
G01 X36.6738 Y18.1936
G01 X36.6361 Y18.1137
G01 X36.6322 Y18.1043
G01 X36.6024 Y18.0212
G01 X36.5995 Y18.0114
G01 X36.5780 Y17.9258
G01 X36.5760 Y17.9158
G01 X36.5631 Y17.8284
G01 X36.5621 Y17.8183
G01 X36.5577 Y17.7301
G01 X36.5577 Y17.7199
G01 X36.5621 Y17.6317
G01 X36.5631 Y17.6216
G01 X36.5760 Y17.5342
G01 X36.5780 Y17.5242
G01 X36.5995 Y17.4386
G01 X36.6024 Y17.4288
G01 X36.6322 Y17.3457
G01 X36.6361 Y17.3363
G01 X36.6738 Y17.2564
G01 X36.6786 Y17.2475
G01 X36.7240 Y17.1717
G01 X36.7297 Y17.1633
G01 X36.7823 Y17.0923
G01 X36.7887 Y17.0845
G01 X36.8481 Y17.0190
G01 X36.8552 Y17.0118
G01 X36.9218 Y16.9516
G01 X36.9285 Y16.9461
G01 X36.9995 Y16.8935
G01 X37.0079 Y16.8878
G01 X37.0837 Y16.8424
G01 X37.0927 Y16.8376
G01 X37.1725 Y16.7999
G01 X37.1819 Y16.7960
G01 X37.2651 Y16.7662
G01 X37.2748 Y16.7633
G01 X37.3605 Y16.7418
G01 X37.3704 Y16.7398
G01 X37.4578 Y16.7269
G01 X37.4679 Y16.7259
G01 X37.5561 Y16.7215
G01 X37.5663 Y16.7215
G01 X37.6545 Y16.7259
G01 X37.6646 Y16.7269
G01 X37.7520 Y16.7398
G01 X37.7620 Y16.7418
G01 X37.8066 Y16.7530
G01 X40.0266 Y14.5332
G01 X40.0564 Y14.5061
G01 X40.0643 Y14.4997
G01 X40.0966 Y14.4757
G01 X40.1051 Y14.4701
G01 X40.1396 Y14.4494
G01 X40.1486 Y14.4446
G01 X40.1849 Y14.4274
G01 X40.1943 Y14.4235
G01 X40.2322 Y14.4099
G01 X40.2420 Y14.4070
G01 X40.2810 Y14.3972
G01 X40.2910 Y14.3952
G01 X40.3308 Y14.3893
G01 X40.3409 Y14.3883
G01 X40.3862 Y14.3862
G01 X55.1145 Y14.3862
G01 X55.1598 Y14.3883
G01 X55.1699 Y14.3893
G01 X55.2097 Y14.3952
G01 X55.2197 Y14.3972
G01 X55.2587 Y14.4070
G01 X55.2684 Y14.4099
G01 X55.3063 Y14.4235
G01 X55.3157 Y14.4274
G01 X55.3521 Y14.4446
G01 X55.3611 Y14.4494
G01 X55.3956 Y14.4701
G01 X55.4041 Y14.4757
G01 X55.4364 Y14.4997
G01 X55.4443 Y14.5061
G01 X55.4778 Y14.5367
G01 X63.4251 Y22.4840
G01 X63.4557 Y22.5175
G01 X63.4621 Y22.5254
G01 X63.4861 Y22.5577
G01 X63.4917 Y22.5662
G01 X63.5124 Y22.6007
G01 X63.5172 Y22.6097
G01 X63.5344 Y22.6461
G01 X63.5383 Y22.6555
G01 X63.5519 Y22.6934
G01 X63.5549 Y22.7031
G01 X63.5646 Y22.7421
G01 X63.5666 Y22.7521
G01 X63.5725 Y22.7919
G01 X63.5735 Y22.8021
G01 X63.5756 Y22.8473
G01 X63.5756 Y29.8162
G01 X73.8536 Y29.8162
G01 X73.8773 Y29.7767
G01 X73.8829 Y29.7683
G01 X73.9355 Y29.6973
G01 X73.9420 Y29.6895
G01 X74.0013 Y29.6240
G01 X74.0085 Y29.6168
G01 X74.0750 Y29.5566
G01 X74.0818 Y29.5511
G01 X74.1527 Y29.4985
G01 X74.1612 Y29.4928
G01 X74.2369 Y29.4474
G01 X74.2459 Y29.4426
G01 X74.3258 Y29.4049
G01 X74.3351 Y29.4010
G01 X74.4183 Y29.3712
G01 X74.4280 Y29.3683
G01 X74.5137 Y29.3468
G01 X74.5237 Y29.3448
G01 X74.6110 Y29.3319
G01 X74.6212 Y29.3309
G01 X74.7094 Y29.3265
G01 X74.7195 Y29.3265
G01 X74.8078 Y29.3309
G01 X74.8179 Y29.3319
G01 X74.9052 Y29.3448
G01 X74.9152 Y29.3468
G01 X75.0009 Y29.3683
G01 X75.0106 Y29.3712
G01 X75.0938 Y29.4010
G01 X75.1032 Y29.4049
G01 X75.1830 Y29.4426
G01 X75.1920 Y29.4474
G01 X75.2677 Y29.4928
G01 X75.2762 Y29.4985
G01 X75.3471 Y29.5511
G01 X75.3550 Y29.5575
G01 X75.4204 Y29.6168
G01 X75.4276 Y29.6240
G01 X75.4879 Y29.6906
G01 X75.4934 Y29.6973
G01 X75.5460 Y29.7683
G01 X75.5516 Y29.7767
G01 X75.5971 Y29.8525
G01 X75.6018 Y29.8614
G01 X75.6396 Y29.9413
G01 X75.6435 Y29.9507
G01 X75.6733 Y30.0338
G01 X75.6762 Y30.0436
G01 X75.6977 Y30.1292
G01 X75.6997 Y30.1392
G01 X75.7126 Y30.2266
G01 X75.7136 Y30.2367
G01 X75.7179 Y30.3249
G01 X75.7179 Y30.3351
G01 X75.7136 Y30.4233
G01 X75.7126 Y30.4334
G01 X75.6997 Y30.5208
G01 X75.6977 Y30.5308
G01 X75.6762 Y30.6164
G01 X75.6733 Y30.6262
G01 X75.6435 Y30.7093
G01 X75.6396 Y30.7187
G01 X75.6018 Y30.7986
G01 X75.5971 Y30.8075
G01 X75.5516 Y30.8833
G01 X75.5460 Y30.8917
G01 X75.4934 Y30.9627
G01 X75.4869 Y30.9705
G01 X75.4276 Y31.0360
G01 X75.4204 Y31.0432
G01 X75.3550 Y31.1025
G01 X75.3471 Y31.1089
G01 X75.2762 Y31.1615
G01 X75.2677 Y31.1672
G01 X75.1920 Y31.2126
G01 X75.1830 Y31.2174
G01 X75.1032 Y31.2551
G01 X75.0938 Y31.2590
G01 X75.0106 Y31.2888
G01 X75.0009 Y31.2917
G01 X74.9152 Y31.3132
G01 X74.9052 Y31.3152
G01 X74.8179 Y31.3281
G01 X74.8078 Y31.3291
G01 X74.7195 Y31.3335
G01 X74.7094 Y31.3335
G01 X74.6212 Y31.3291
G01 X74.6110 Y31.3281
G01 X74.5237 Y31.3152
G01 X74.5137 Y31.3132
G01 X74.4280 Y31.2917
G01 X74.4183 Y31.2888
G01 X74.3351 Y31.2590
G01 X74.3258 Y31.2551
G01 X74.2459 Y31.2174
G01 X74.2369 Y31.2126
G01 X74.1612 Y31.1672
G01 X74.1527 Y31.1615
G01 X74.0818 Y31.1089
G01 X74.0739 Y31.1025
G01 X74.0085 Y31.0432
G01 X74.0013 Y31.0360
G01 X73.9420 Y30.9705
G01 X73.9355 Y30.9627
G01 X73.8829 Y30.8917
G01 X73.8773 Y30.8833
G01 X73.8536 Y30.8438
G01 X63.5756 Y30.8438
G01 X63.5756 Y39.7464
G01 X63.9618 Y39.7464
G01 X63.9720 Y39.7469
G01 X63.9820 Y39.7484
G01 X63.9919 Y39.7509
G01 X64.0015 Y39.7543
G01 X64.0107 Y39.7586
G01 X64.0194 Y39.7639
G01 X64.0275 Y39.7699
G01 X64.0351 Y39.7767
G01 X64.0419 Y39.7843
G01 X64.0480 Y39.7924
G01 X64.0532 Y39.8012
G01 X64.0575 Y39.8104
G01 X64.0610 Y39.8199
G01 X64.0634 Y39.8298
G01 X64.0649 Y39.8398
G01 X64.0654 Y39.8500
G01 X64.0654 Y41.6500
G01 X64.0649 Y41.6602
G01 X64.0634 Y41.6702
G01 X64.0610 Y41.6801
G01 X64.0575 Y41.6896
G01 X64.0532 Y41.6988
G01 X64.0480 Y41.7076
G01 X64.0419 Y41.7157
G01 X64.0351 Y41.7233
G01 X64.0275 Y41.7301
G01 X64.0194 Y41.7361
G01 X64.0107 Y41.7414
G01 X64.0015 Y41.7457
G01 X63.9919 Y41.7491
G01 X63.9820 Y41.7516
G01 X63.9720 Y41.7531
G01 X63.9618 Y41.7536
G01 X63.5756 Y41.7536
G01 X63.5756 Y45.8527
G01 X63.5735 Y45.8979
G01 X63.5725 Y45.9081
G01 X63.5666 Y45.9479
G01 X63.5646 Y45.9579
G01 X63.5549 Y45.9969
G01 X63.5519 Y46.0066
G01 X63.5383 Y46.0445
G01 X63.5344 Y46.0539
G01 X63.5172 Y46.0903
G01 X63.5124 Y46.0993
G01 X63.4917 Y46.1338
G01 X63.4861 Y46.1423
G01 X63.4621 Y46.1746
G01 X63.4557 Y46.1825
G01 X63.4251 Y46.2160
G01 X59.4383 Y50.2028
G01 X59.4383 Y50.4442
G01 X59.4777 Y50.4678
G01 X59.4862 Y50.4735
G01 X59.5571 Y50.5261
G01 X59.5650 Y50.5325
G01 X59.6304 Y50.5918
G01 X59.6376 Y50.5990
G01 X59.6979 Y50.6656
G01 X59.7034 Y50.6723
G01 X59.7560 Y50.7433
G01 X59.7616 Y50.7517
G01 X59.8071 Y50.8275
G01 X59.8118 Y50.8364
G01 X59.8496 Y50.9163
G01 X59.8535 Y50.9257
G01 X59.8833 Y51.0088
G01 X59.8862 Y51.0186
G01 X59.9077 Y51.1042
G01 X59.9097 Y51.1142
G01 X59.9226 Y51.2016
G01 X59.9236 Y51.2117
G01 X59.9279 Y51.2999
G01 X59.9279 Y51.3101
G01 X59.9236 Y51.3983
G01 X59.9226 Y51.4084
G01 X59.9097 Y51.4958
G01 X59.9077 Y51.5058
G01 X59.8862 Y51.5914
G01 X59.8833 Y51.6012
G01 X59.8535 Y51.6843
G01 X59.8496 Y51.6937
G01 X59.8118 Y51.7736
G01 X59.8071 Y51.7825
G01 X59.7616 Y51.8583
G01 X59.7560 Y51.8667
G01 X59.7034 Y51.9377
G01 X59.6969 Y51.9455
G01 X59.6376 Y52.0110
G01 X59.6304 Y52.0182
G01 X59.5650 Y52.0775
G01 X59.5571 Y52.0839
G01 X59.4862 Y52.1365
G01 X59.4777 Y52.1422
G01 X59.4020 Y52.1876
G01 X59.3930 Y52.1924
G01 X59.3132 Y52.2301
G01 X59.3038 Y52.2340
G01 X59.2206 Y52.2638
G01 X59.2109 Y52.2667
G01 X59.1252 Y52.2882
G01 X59.1152 Y52.2902
G01 X59.0279 Y52.3031
G01 X59.0178 Y52.3041
G01 X58.9295 Y52.3085
G01 X58.9194 Y52.3085
G01 X58.8312 Y52.3041
G01 X58.8210 Y52.3031
G01 X58.7337 Y52.2902
G01 X58.7237 Y52.2882
G01 X58.6791 Y52.2770
G01 X55.5428 Y55.4133
G01 X55.5093 Y55.4439
G01 X55.5014 Y55.4503
G01 X55.4691 Y55.4743
G01 X55.4606 Y55.4799
G01 X55.4261 Y55.5006
G01 X55.4171 Y55.5054
G01 X55.3807 Y55.5226
G01 X55.3713 Y55.5265
G01 X55.3334 Y55.5401
G01 X55.3237 Y55.5430
G01 X55.2847 Y55.5528
G01 X55.2747 Y55.5548
G01 X55.2349 Y55.5607
G01 X55.2248 Y55.5617
G01 X55.1795 Y55.5638
G01 X46.7145 Y55.5638
G01 X46.6692 Y55.5617
G01 X46.6591 Y55.5607
G01 X46.6192 Y55.5548
G01 X46.6093 Y55.5528
G01 X46.5702 Y55.5430
G01 X46.5605 Y55.5401
G01 X46.5226 Y55.5265
G01 X46.5132 Y55.5226
G01 X46.4768 Y55.5054
G01 X46.4678 Y55.5006
G01 X46.4333 Y55.4799
G01 X46.4249 Y55.4743
G01 X46.3925 Y55.4503
G01 X46.3847 Y55.4439
G01 X46.3512 Y55.4133
G01 X42.8012 Y51.8633
G01 X42.7706 Y51.8298
G01 X42.7642 Y51.8219
G01 X42.7402 Y51.7896
G01 X42.7345 Y51.7812
G01 X42.7138 Y51.7466
G01 X42.7090 Y51.7377
G01 X42.6918 Y51.7013
G01 X42.6879 Y51.6919
G01 X42.6744 Y51.6540
G01 X42.6714 Y51.6442
G01 X42.6616 Y51.6052
G01 X42.6597 Y51.5952
G01 X42.6538 Y51.5554
G01 X42.6528 Y51.5453
G01 X42.6507 Y51.5000
G01 X42.6507 Y40.0128
G01 X41.5516 Y38.9138
G01 X38.6773 Y38.9138
G01 X31.7478 Y45.8433
G01 X31.7143 Y45.8739
G01 X31.7064 Y45.8803
G01 X31.6741 Y45.9043
G01 X31.6656 Y45.9099
G01 X31.6311 Y45.9306
G01 X31.6221 Y45.9354
G01 X31.5857 Y45.9526
G01 X31.5763 Y45.9565
G01 X31.5384 Y45.9701
G01 X31.5287 Y45.9730
G01 X31.4897 Y45.9828
G01 X31.4797 Y45.9848
G01 X31.4399 Y45.9907
G01 X31.4298 Y45.9917
G01 X31.3845 Y45.9938
G01 X26.6704 Y45.9938
G01 X26.6611 Y46.0084
G01 X26.6120 Y46.0746
G01 X26.6056 Y46.0825
G01 X26.5502 Y46.1435
G01 X26.5430 Y46.1507
G01 X26.4819 Y46.2061
G01 X26.4741 Y46.2125
G01 X26.4079 Y46.2616
G01 X26.3994 Y46.2673
G01 X26.3287 Y46.3097
G01 X26.3197 Y46.3145
G01 X26.2452 Y46.3497
G01 X26.2358 Y46.3536
G01 X26.1582 Y46.3814
G01 X26.1485 Y46.3843
G01 X26.0685 Y46.4044
G01 X26.0585 Y46.4063
G01 X25.9770 Y46.4184
G01 X25.9669 Y46.4194
G01 X25.8845 Y46.4235
G01 X25.8744 Y46.4235
G01 X25.7920 Y46.4194
G01 X25.7819 Y46.4184
G01 X25.7004 Y46.4063
G01 X25.6904 Y46.4044
G01 X25.6105 Y46.3843
G01 X25.6007 Y46.3814
G01 X25.5231 Y46.3536
G01 X25.5137 Y46.3497
G01 X25.4392 Y46.3145
G01 X25.4302 Y46.3097
G01 X25.3595 Y46.2673
G01 X25.3511 Y46.2616
G01 X25.2849 Y46.2125
G01 X25.2770 Y46.2061
G01 X25.2159 Y46.1507
G01 X25.2087 Y46.1435
G01 X25.1534 Y46.0825
G01 X25.1469 Y46.0746
G01 X25.0978 Y46.0084
G01 X25.0922 Y45.9999
G01 X25.0498 Y45.9292
G01 X25.0450 Y45.9203
G01 X25.0098 Y45.8457
G01 X25.0059 Y45.8364
G01 X24.9781 Y45.7587
G01 X24.9751 Y45.7490
G01 X24.9551 Y45.6690
G01 X24.9531 Y45.6591
G01 X24.9410 Y45.5775
G01 X24.9400 Y45.5674
G01 X24.9360 Y45.4851
G01 X24.9360 Y45.4749
G01 X24.9400 Y45.3926
G01 X24.9410 Y45.3825
G01 X24.9531 Y45.3009
G01 X24.9551 Y45.2910
G01 X24.9751 Y45.2110
G01 X24.9781 Y45.2013
G01 X25.0059 Y45.1236
G01 X25.0098 Y45.1143
G01 X25.0450 Y45.0397
G01 X25.0498 Y45.0308
G01 X25.0922 Y44.9601
G01 X25.0978 Y44.9516
G01 X25.1469 Y44.8854
G01 X25.1534 Y44.8775
G01 X25.2087 Y44.8165
G01 X25.2159 Y44.8093
G01 X25.2770 Y44.7539
G01 X25.2849 Y44.7475
G01 X25.3511 Y44.6984
G01 X25.3595 Y44.6927
G01 X25.4302 Y44.6503
G01 X25.4392 Y44.6455
G01 X25.5137 Y44.6103
G01 X25.5231 Y44.6064
G01 X25.6007 Y44.5786
G01 X25.6105 Y44.5757
G01 X25.6904 Y44.5556
G01 X25.7004 Y44.5537
G01 X25.7819 Y44.5416
G01 X25.7920 Y44.5406
G01 X25.8744 Y44.5365
G01 X25.8845 Y44.5365
G01 X25.9669 Y44.5406
G01 X25.9770 Y44.5416
G01 X26.0585 Y44.5537
G01 X26.0685 Y44.5556
G01 X26.1485 Y44.5757
G01 X26.1582 Y44.5786
G01 X26.2358 Y44.6064
G01 X26.2452 Y44.6103
G01 X26.3197 Y44.6455
G01 X26.3287 Y44.6503
G01 X26.3994 Y44.6927
G01 X26.4079 Y44.6984
G01 X26.4741 Y44.7475
G01 X26.4819 Y44.7539
G01 X26.5430 Y44.8093
G01 X26.5502 Y44.8165
G01 X26.6056 Y44.8775
G01 X26.6120 Y44.8854
G01 X26.6611 Y44.9516
G01 X26.6704 Y44.9662
G01 X31.1716 Y44.9662
G01 X38.1012 Y38.0367
G01 X38.1347 Y38.0061
G01 X38.1425 Y37.9997
G01 X38.1749 Y37.9757
G01 X38.1833 Y37.9701
G01 X38.2178 Y37.9494
G01 X38.2268 Y37.9446
G01 X38.2632 Y37.9274
G01 X38.2726 Y37.9235
G01 X38.3105 Y37.9099
G01 X38.3202 Y37.9070
G01 X38.3593 Y37.8972
G01 X38.3692 Y37.8952
G01 X38.4091 Y37.8893
G01 X38.4192 Y37.8883
G01 X38.4645 Y37.8862
G01 X41.7645 Y37.8862
G01 X41.8098 Y37.8883
G01 X41.8199 Y37.8893
G01 X41.8597 Y37.8952
G01 X41.8697 Y37.8972
G01 X41.9087 Y37.9070
G01 X41.9184 Y37.9099
G01 X41.9563 Y37.9235
G01 X41.9657 Y37.9274
G01 X42.0021 Y37.9446
G01 X42.0111 Y37.9494
G01 X42.0456 Y37.9701
G01 X42.0541 Y37.9757
G01 X42.0864 Y37.9997
G01 X42.0943 Y38.0061
G01 X42.1241 Y38.0332
G01 X43.5278 Y39.4367
G01 X43.5583 Y39.4702
G01 X43.5648 Y39.4781
G01 X43.5888 Y39.5104
G01 X43.5944 Y39.5188
G01 X43.6151 Y39.5534
G01 X43.6199 Y39.5623
G01 X43.6371 Y39.5987
G01 X43.6410 Y39.6081
G01 X43.6546 Y39.6460
G01 X43.6575 Y39.6558
G01 X43.6673 Y39.6948
G01 X43.6693 Y39.7048
G01 X43.6752 Y39.7446
G01 X43.6762 Y39.7547
G01 X43.6783 Y39.8000
G01 X43.6783 Y51.2872
G01 X46.9273 Y54.5362
G01 X54.9666 Y54.5362
G01 X57.9524 Y51.5504
G01 X57.9413 Y51.5058
G01 X57.9393 Y51.4958
G01 X57.9263 Y51.4084
G01 X57.9253 Y51.3983
G01 X57.9210 Y51.3101
G01 X57.9210 Y51.2999
G01 X57.9253 Y51.2117
G01 X57.9263 Y51.2016
G01 X57.9393 Y51.1142
G01 X57.9413 Y51.1042
G01 X57.9627 Y51.0186
G01 X57.9657 Y51.0088
G01 X57.9954 Y50.9257
G01 X57.9993 Y50.9163
G01 X58.0371 Y50.8364
G01 X58.0419 Y50.8275
G01 X58.0873 Y50.7517
G01 X58.0929 Y50.7433
G01 X58.1455 Y50.6723
G01 X58.1520 Y50.6645
G01 X58.2113 Y50.5990
G01 X58.2185 Y50.5918
G01 X58.2850 Y50.5316
G01 X58.2918 Y50.5261
G01 X58.3627 Y50.4735
G01 X58.3712 Y50.4678
G01 X58.4107 Y50.4442
G01 X58.4107 Y49.9900
G01 X58.4128 Y49.9447
G01 X58.4138 Y49.9346
G01 X58.4197 Y49.8948
G01 X58.4216 Y49.8848
G01 X58.4314 Y49.8458
G01 X58.4344 Y49.8360
G01 X58.4479 Y49.7981
G01 X58.4518 Y49.7887
G01 X58.4690 Y49.7523
G01 X58.4738 Y49.7434
G01 X58.4945 Y49.7088
G01 X58.5002 Y49.7004
G01 X58.5242 Y49.6681
G01 X58.5306 Y49.6602
G01 X58.5612 Y49.6267
G01 X62.5480 Y45.6398
G01 X62.5480 Y44.3108
G01 X62.5149 Y44.3157
G01 X62.5048 Y44.3167
G01 X62.4595 Y44.3188
G01 X58.5172 Y44.3188
G01 X58.4761 Y44.3742
G01 X58.4696 Y44.3821
G01 X58.4169 Y44.4403
G01 X58.4097 Y44.4474
G01 X58.3516 Y44.5002
G01 X58.3437 Y44.5066
G01 X58.2806 Y44.5534
G01 X58.2722 Y44.5590
G01 X58.2048 Y44.5994
G01 X58.1959 Y44.6042
G01 X58.1249 Y44.6378
G01 X58.1155 Y44.6416
G01 X58.0416 Y44.6681
G01 X58.0319 Y44.6710
G01 X57.9557 Y44.6901
G01 X57.9457 Y44.6921
G01 X57.8681 Y44.7036
G01 X57.8580 Y44.7046
G01 X57.7795 Y44.7085
G01 X57.7694 Y44.7085
G01 X57.6910 Y44.7046
G01 X57.6809 Y44.7036
G01 X57.6032 Y44.6921
G01 X57.5932 Y44.6901
G01 X57.5162 Y44.6708
G01 X57.5073 Y44.6681
G01 X57.4334 Y44.6416
G01 X57.4240 Y44.6378
G01 X57.3531 Y44.6042
G01 X57.3441 Y44.5994
G01 X57.2767 Y44.5590
G01 X57.2683 Y44.5534
G01 X57.2052 Y44.5066
G01 X57.1974 Y44.5002
G01 X57.1392 Y44.4474
G01 X57.1320 Y44.4403
G01 X57.0793 Y44.3821
G01 X57.0728 Y44.3742
G01 X57.0261 Y44.3112
G01 X57.0204 Y44.3027
G01 X56.9801 Y44.2354
G01 X56.9753 Y44.2264
G01 X56.9417 Y44.1554
G01 X56.9378 Y44.1460
G01 X56.9114 Y44.0721
G01 X56.9084 Y44.0624
G01 X56.8893 Y43.9862
G01 X56.8874 Y43.9763
G01 X56.8758 Y43.8986
G01 X56.8748 Y43.8885
G01 X56.8710 Y43.8101
G01 X56.8710 Y43.7999
G01 X56.8748 Y43.7215
G01 X56.8758 Y43.7114
G01 X56.8874 Y43.6337
G01 X56.8893 Y43.6238
G01 X56.9084 Y43.5476
G01 X56.9114 Y43.5379
G01 X56.9378 Y43.4640
G01 X56.9417 Y43.4546
G01 X56.9753 Y43.3836
G01 X56.9801 Y43.3746
G01 X57.0204 Y43.3073
G01 X57.0261 Y43.2988
G01 X57.0728 Y43.2358
G01 X57.0793 Y43.2279
G01 X57.1320 Y43.1697
G01 X57.1392 Y43.1626
G01 X57.1974 Y43.1098
G01 X57.2052 Y43.1034
G01 X57.2683 Y43.0566
G01 X57.2767 Y43.0510
G01 X57.3441 Y43.0106
G01 X57.3531 Y43.0058
G01 X57.4240 Y42.9722
G01 X57.4334 Y42.9684
G01 X57.5073 Y42.9419
G01 X57.5171 Y42.9390
G01 X57.5932 Y42.9199
G01 X57.6032 Y42.9179
G01 X57.6809 Y42.9064
G01 X57.6910 Y42.9054
G01 X57.7694 Y42.9015
G01 X57.7795 Y42.9015
G01 X57.8580 Y42.9054
G01 X57.8681 Y42.9064
G01 X57.9457 Y42.9179
G01 X57.9557 Y42.9199
G01 X58.0319 Y42.9390
G01 X58.0416 Y42.9419
G01 X58.1155 Y42.9684
G01 X58.1249 Y42.9722
G01 X58.1959 Y43.0058
G01 X58.2048 Y43.0106
G01 X58.2722 Y43.0510
G01 X58.2806 Y43.0566
G01 X58.3437 Y43.1034
G01 X58.3516 Y43.1098
G01 X58.4097 Y43.1626
G01 X58.4169 Y43.1697
G01 X58.4696 Y43.2279
G01 X58.4761 Y43.2358
G01 X58.5172 Y43.2912
G01 X62.2466 Y43.2912
G01 X62.5480 Y42.9898
G01 X62.5480 Y41.7536
G01 X62.1618 Y41.7536
G01 X62.1517 Y41.7531
G01 X62.1416 Y41.7516
G01 X62.1317 Y41.7491
G01 X62.1222 Y41.7457
G01 X62.1130 Y41.7414
G01 X62.1043 Y41.7361
G01 X62.0961 Y41.7301
G01 X62.0886 Y41.7233
G01 X62.0817 Y41.7157
G01 X62.0757 Y41.7076
G01 X62.0704 Y41.6988
G01 X62.0661 Y41.6896
G01 X62.0627 Y41.6801
G01 X62.0602 Y41.6702
G01 X62.0587 Y41.6602
G01 X62.0582 Y41.6500
G01 X62.0582 Y39.8500
G01 X62.0587 Y39.8398
G01 X62.0602 Y39.8298
G01 X62.0627 Y39.8199
G01 X62.0661 Y39.8104
G01 X62.0704 Y39.8012
G01 X62.0757 Y39.7924
G01 X62.0817 Y39.7843
G01 X62.0886 Y39.7767
G01 X62.0961 Y39.7699
G01 X62.1043 Y39.7639
G01 X62.1130 Y39.7586
G01 X62.1222 Y39.7543
G01 X62.1317 Y39.7509
G01 X62.1416 Y39.7484
G01 X62.1517 Y39.7469
G01 X62.1618 Y39.7464
G01 X62.5480 Y39.7464
G01 X62.5480 Y23.0602
G01 X57.6345 Y18.1466
G01 X53.0783 Y22.7028
G01 X53.0783 Y33.7750
G01 X53.0762 Y33.8203
G01 X53.0752 Y33.8304
G01 X53.0693 Y33.8702
G01 X53.0673 Y33.8802
G01 X53.0575 Y33.9192
G01 X53.0546 Y33.9290
G01 X53.0410 Y33.9669
G01 X53.0371 Y33.9763
G01 X53.0199 Y34.0127
G01 X53.0151 Y34.0216
G01 X52.9944 Y34.0562
G01 X52.9888 Y34.0646
G01 X52.9648 Y34.0969
G01 X52.9583 Y34.1048
G01 X52.9313 Y34.1346
G01 X51.0430 Y36.0231
G01 X51.0531 Y36.0914
G01 X51.0541 Y36.1015
G01 X51.0579 Y36.1799
G01 X51.0579 Y36.1901
G01 X51.0541 Y36.2685
G01 X51.0531 Y36.2786
G01 X51.0416 Y36.3563
G01 X51.0396 Y36.3662
G01 X51.0203 Y36.4432
G01 X51.0176 Y36.4521
G01 X50.9911 Y36.5260
G01 X50.9872 Y36.5354
G01 X50.9537 Y36.6064
G01 X50.9489 Y36.6154
G01 X50.9085 Y36.6827
G01 X50.9029 Y36.6912
G01 X50.8561 Y36.7542
G01 X50.8496 Y36.7621
G01 X50.7969 Y36.8203
G01 X50.7897 Y36.8274
G01 X50.7316 Y36.8802
G01 X50.7237 Y36.8866
G01 X50.6606 Y36.9334
G01 X50.6522 Y36.9390
G01 X50.5848 Y36.9794
G01 X50.5759 Y36.9842
G01 X50.5049 Y37.0178
G01 X50.4955 Y37.0216
G01 X50.4216 Y37.0481
G01 X50.4119 Y37.0510
G01 X50.3357 Y37.0701
G01 X50.3257 Y37.0721
G01 X50.2481 Y37.0836
G01 X50.2380 Y37.0846
G01 X50.1595 Y37.0885
G01 X50.1494 Y37.0885
G01 X50.0710 Y37.0846
G01 X50.0609 Y37.0836
G01 X49.9832 Y37.0721
G01 X49.9732 Y37.0701
G01 X49.8971 Y37.0510
G01 X49.8873 Y37.0481
G01 X49.8134 Y37.0216
G01 X49.8040 Y37.0178
G01 X49.7331 Y36.9842
G01 X49.7241 Y36.9794
G01 X49.6567 Y36.9390
G01 X49.6483 Y36.9334
G01 X49.5852 Y36.8866
G01 X49.5774 Y36.8802
G01 X49.5192 Y36.8274
G01 X49.5120 Y36.8203
G01 X49.4593 Y36.7621
G01 X49.4528 Y36.7542
G01 X49.4061 Y36.6912
G01 X49.4004 Y36.6827
G01 X49.3601 Y36.6154
G01 X49.3553 Y36.6064
G01 X49.3217 Y36.5354
G01 X49.3178 Y36.5260
G01 X49.2914 Y36.4521
G01 X49.2884 Y36.4424
G01 X49.2693 Y36.3662
G01 X49.2674 Y36.3563
G01 X49.2558 Y36.2786
G01 X49.2548 Y36.2685
G01 X49.2510 Y36.1901
G01 X49.2510 Y36.1799
G01 X49.2548 Y36.1015
G01 X49.2558 Y36.0914
G01 X49.2674 Y36.0137
G01 X49.2693 Y36.0038
G01 X49.2884 Y35.9276
G01 X49.2914 Y35.9179
G01 X49.3178 Y35.8440
G01 X49.3217 Y35.8346
G01 X49.3553 Y35.7636
G01 X49.3601 Y35.7546
G01 X49.4004 Y35.6873
G01 X49.4061 Y35.6788
G01 X49.4528 Y35.6158
G01 X49.4593 Y35.6079
G01 X49.5120 Y35.5497
G01 X49.5192 Y35.5426
G01 X49.5774 Y35.4898
G01 X49.5852 Y35.4834
G01 X49.6483 Y35.4366
G01 X49.6567 Y35.4310
G01 X49.7241 Y35.3906
G01 X49.7331 Y35.3858
G01 X49.8040 Y35.3522
G01 X49.8134 Y35.3484
G01 X49.8873 Y35.3219
G01 X49.8971 Y35.3190
G01 X49.9732 Y35.2999
G01 X49.9832 Y35.2979
G01 X50.0609 Y35.2864
G01 X50.0710 Y35.2854
G01 X50.1494 Y35.2815
G01 X50.1595 Y35.2815
G01 X50.2380 Y35.2854
G01 X50.2481 Y35.2864
G01 X50.3163 Y35.2965
G01 X52.0507 Y33.5622
G01 X52.0507 Y22.4900
G01 X52.0528 Y22.4447
G01 X52.0538 Y22.4346
G01 X52.0597 Y22.3948
G01 X52.0616 Y22.3848
G01 X52.0714 Y22.3458
G01 X52.0744 Y22.3360
G01 X52.0879 Y22.2981
G01 X52.0918 Y22.2887
G01 X52.1090 Y22.2523
G01 X52.1138 Y22.2434
G01 X52.1345 Y22.2088
G01 X52.1402 Y22.2004
G01 X52.1642 Y22.1681
G01 X52.1706 Y22.1602
G01 X52.2012 Y22.1267
G01 X56.9078 Y17.4200
G01 X54.9016 Y15.4138
G01 X40.5990 Y15.4138
G01 X38.5332 Y17.4796
G01 X38.5444 Y17.5242
G01 X38.5464 Y17.5342
G01 X38.5594 Y17.6216
G01 X38.5604 Y17.6317
G01 X38.5647 Y17.7199
G01 X38.5647 Y17.7301
G01 X38.5604 Y17.8183
G01 X38.5594 Y17.8284
G01 X38.5464 Y17.9158
G01 X38.5444 Y17.9258
G01 X38.5230 Y18.0114
G01 X38.5200 Y18.0212
G01 X38.4903 Y18.1043
G01 X38.4864 Y18.1137
G01 X38.4486 Y18.1936
G01 X38.4438 Y18.2025
G01 X38.3984 Y18.2783
G01 X38.3928 Y18.2867
G01 X38.3401 Y18.3577
G01 X38.3337 Y18.3655
G01 X38.2744 Y18.4310
G01 X38.2672 Y18.4382
G01 X38.2017 Y18.4975
G01 X38.1939 Y18.5039
G01 X38.1229 Y18.5565
G01 X38.1145 Y18.5622
G01 X38.0750 Y18.5858
G01 X38.0750 Y29.7532
G01 X38.0729 Y29.7985
G01 X38.0719 Y29.8087
G01 X38.0660 Y29.8485
G01 X38.0640 Y29.8584
G01 X38.0543 Y29.8975
G01 X38.0513 Y29.9072
G01 X38.0377 Y29.9451
G01 X38.0338 Y29.9545
G01 X38.0166 Y29.9909
G01 X38.0118 Y29.9999
G01 X37.9911 Y30.0344
G01 X37.9855 Y30.0429
G01 X37.9615 Y30.0752
G01 X37.9551 Y30.0831
G01 X37.9245 Y30.1166
G01 X35.6778 Y32.3633
G01 X35.6443 Y32.3939
G01 X35.6364 Y32.4003
G01 X35.6041 Y32.4243
G01 X35.5956 Y32.4299
G01 X35.5611 Y32.4506
G01 X35.5521 Y32.4554
G01 X35.5157 Y32.4726
G01 X35.5063 Y32.4765
G01 X35.4684 Y32.4901
G01 X35.4587 Y32.4930
G01 X35.4197 Y32.5028
G01 X35.4097 Y32.5048
G01 X35.3699 Y32.5107
G01 X35.3598 Y32.5117
G01 X35.3145 Y32.5138
G01 X26.7145 Y32.5138
G01 X26.6692 Y32.5117
G01 X26.6591 Y32.5107
G01 X26.6192 Y32.5048
G01 X26.6093 Y32.5028
G01 X26.5702 Y32.4930
G01 X26.5605 Y32.4901
G01 X26.5226 Y32.4765
G01 X26.5132 Y32.4726
G01 X26.4768 Y32.4554
G01 X26.4678 Y32.4506
G01 X26.4333 Y32.4299
G01 X26.4249 Y32.4243
G01 X26.3925 Y32.4003
G01 X26.3847 Y32.3939
G01 X26.3512 Y32.3633
G01 X23.7179 Y29.7301
G01 X23.6754 Y29.7616
G01 X23.6669 Y29.7673
G01 X23.5962 Y29.8097
G01 X23.5872 Y29.8145
G01 X23.5127 Y29.8497
G01 X23.5033 Y29.8536
G01 X23.4257 Y29.8814
G01 X23.4160 Y29.8843
G01 X23.3360 Y29.9044
G01 X23.3260 Y29.9063
G01 X23.2445 Y29.9184
G01 X23.2344 Y29.9194
G01 X23.1520 Y29.9235
G01 X23.1419 Y29.9235
G01 X23.0595 Y29.9194
G01 X23.0494 Y29.9184
G01 X22.9679 Y29.9063
G01 X22.9579 Y29.9044
G01 X22.8780 Y29.8843
G01 X22.8682 Y29.8814
G01 X22.7906 Y29.8536
G01 X22.7812 Y29.8497
G01 X22.7067 Y29.8145
G01 X22.6977 Y29.8097
G01 X22.6270 Y29.7673
G01 X22.6186 Y29.7616
G01 X22.5524 Y29.7125
G01 X22.5445 Y29.7061
G01 X22.4834 Y29.6507
G01 X22.4762 Y29.6435
G01 X22.4209 Y29.5825
G01 X22.4144 Y29.5746
G01 X22.3653 Y29.5084
G01 X22.3560 Y29.4938
G01 X21.2945 Y29.4938
G01 X21.2492 Y29.4917
G01 X21.2391 Y29.4907
G01 X21.1992 Y29.4848
G01 X21.1893 Y29.4828
G01 X21.1502 Y29.4730
G01 X21.1405 Y29.4701
G01 X21.1026 Y29.4565
G01 X21.0932 Y29.4526
G01 X21.0568 Y29.4354
G01 X21.0478 Y29.4306
G01 X21.0133 Y29.4099
G01 X21.0049 Y29.4043
G01 X20.9725 Y29.3803
G01 X20.9647 Y29.3739
G01 X20.9312 Y29.3433
G01 X19.2476 Y27.6596
G01 X19.2206 Y27.6298
G01 X19.2142 Y27.6219
G01 X19.1902 Y27.5896
G01 X19.1845 Y27.5812
G01 X19.1638 Y27.5466
G01 X19.1590 Y27.5377
G01 X19.1418 Y27.5013
G01 X19.1379 Y27.4919
G01 X19.1244 Y27.4540
G01 X19.1214 Y27.4442
G01 X19.1116 Y27.4052
G01 X19.1097 Y27.3952
G01 X19.1038 Y27.3554
G01 X19.1028 Y27.3453
G01 X19.1007 Y27.3000
G01 X19.1007 Y20.3632
G01 X17.7712 Y19.0338
G01 X16.0354 Y19.0338
G01 X16.0261 Y19.0484
G01 X15.9770 Y19.1146
G01 X15.9706 Y19.1225
G01 X15.9152 Y19.1835
G01 X15.9080 Y19.1907
G01 X15.8469 Y19.2461
G01 X15.8391 Y19.2525
G01 X15.7729 Y19.3016
G01 X15.7644 Y19.3073
G01 X15.6937 Y19.3497
G01 X15.6847 Y19.3545
G01 X15.6102 Y19.3897
G01 X15.6008 Y19.3936
G01 X15.5232 Y19.4214
G01 X15.5135 Y19.4243
G01 X15.4335 Y19.4444
G01 X15.4235 Y19.4463
G01 X15.3420 Y19.4584
G01 X15.3319 Y19.4594
G01 X15.2495 Y19.4635
G01 X15.2394 Y19.4635
G01 X15.1570 Y19.4594
G01 X15.1469 Y19.4584
G01 X15.0654 Y19.4463
G01 X15.0554 Y19.4444
G01 X14.9755 Y19.4243
G01 X14.9657 Y19.4214
G01 X14.8881 Y19.3936
G01 X14.8787 Y19.3897
G01 X14.8042 Y19.3545
G01 X14.7952 Y19.3497
G01 X14.7245 Y19.3073
G01 X14.7161 Y19.3016
G01 X14.6499 Y19.2525
G01 X14.6420 Y19.2461
G01 X14.5809 Y19.1907
G01 X14.5737 Y19.1835
G01 X14.5184 Y19.1225
G01 X14.5119 Y19.1146
G01 X14.4628 Y19.0484
G01 X14.4572 Y19.0399
G01 X14.4148 Y18.9692
G01 X14.4100 Y18.9603
G01 X14.3748 Y18.8857
G01 X14.3709 Y18.8764
G01 X14.3431 Y18.7987
G01 X14.3401 Y18.7890
G01 X14.3201 Y18.7090
G01 X14.3181 Y18.6991
G01 X14.3060 Y18.6175
G01 X14.3050 Y18.6074
G01 X14.3010 Y18.5251
G01 X14.3010 Y18.5149
G01 X14.3050 Y18.4326
G01 X14.3060 Y18.4225
G01 X14.3181 Y18.3409
G01 X14.3201 Y18.3310
G01 X14.3401 Y18.2510
G01 X14.3431 Y18.2413
G01 X14.3709 Y18.1636
G01 X14.3748 Y18.1543
G01 X14.4100 Y18.0797
G01 X14.4148 Y18.0708
G01 X14.4572 Y18.0001
G01 X14.4628 Y17.9916
G01 X14.5119 Y17.9254
G00 Z3.0000
G00 X14.3084 Y13.2590
G01 F60.00
G01 Z-0.2000
G01 F120.00
G01 X14.3103 Y13.2490
G01 X14.3306 Y13.1681
G01 X14.3335 Y13.1584
G01 X14.3616 Y13.0798
G01 X14.3655 Y13.0704
G01 X14.4012 Y12.9950
G01 X14.4060 Y12.9861
G01 X14.4489 Y12.9145
G01 X14.4545 Y12.9061
G01 X14.5042 Y12.8391
G01 X14.5106 Y12.8312
G01 X14.5667 Y12.7694
G01 X14.5739 Y12.7622
G01 X14.6357 Y12.7062
G01 X14.6435 Y12.6997
G01 X14.7105 Y12.6500
G01 X14.7190 Y12.6444
G01 X14.7905 Y12.6015
G01 X14.7995 Y12.5967
G01 X14.8749 Y12.5610
G01 X14.8843 Y12.5572
G01 X14.9628 Y12.5291
G01 X14.9726 Y12.5261
G01 X15.0535 Y12.5058
G01 X15.0634 Y12.5039
G01 X15.1460 Y12.4916
G01 X15.1561 Y12.4906
G01 X15.2394 Y12.4865
G01 X15.2495 Y12.4865
G01 X15.3329 Y12.4906
G01 X15.3430 Y12.4916
G01 X15.4272 Y12.5041
G01 X15.4355 Y12.5058
G01 X15.5164 Y12.5261
G01 X15.5261 Y12.5291
G01 X15.6046 Y12.5572
G01 X15.6140 Y12.5610
G01 X15.6894 Y12.5967
G01 X15.6984 Y12.6015
G01 X15.7700 Y12.6444
G01 X15.7784 Y12.6500
G01 X15.8454 Y12.6997
G01 X15.8533 Y12.7062
G01 X15.9151 Y12.7622
G01 X15.9223 Y12.7694
G01 X15.9783 Y12.8312
G01 X15.9847 Y12.8391
G01 X16.0344 Y12.9061
G01 X16.0401 Y12.9145
G01 X16.0830 Y12.9861
G01 X16.0878 Y12.9950
G01 X16.1234 Y13.0704
G01 X16.1273 Y13.0798
G01 X16.1554 Y13.1584
G01 X16.1584 Y13.1681
G01 X16.1786 Y13.2490
G01 X16.1806 Y13.2590
G01 X16.1929 Y13.3415
G01 X16.1938 Y13.3516
G01 X16.1979 Y13.4349
G01 X16.1979 Y13.4451
G01 X16.1938 Y13.5284
G01 X16.1929 Y13.5385
G01 X16.1806 Y13.6210
G01 X16.1786 Y13.6310
G01 X16.1584 Y13.7119
G01 X16.1554 Y13.7216
G01 X16.1273 Y13.8002
G01 X16.1234 Y13.8096
G01 X16.0878 Y13.8850
G01 X16.0830 Y13.8939
G01 X16.0401 Y13.9655
G01 X16.0344 Y13.9739
G01 X15.9847 Y14.0409
G01 X15.9783 Y14.0488
G01 X15.9223 Y14.1106
G01 X15.9151 Y14.1178
G01 X15.8533 Y14.1738
G01 X15.8454 Y14.1803
G01 X15.7784 Y14.2300
G01 X15.7700 Y14.2356
G01 X15.6984 Y14.2785
G01 X15.6894 Y14.2833
G01 X15.6140 Y14.3190
G01 X15.6046 Y14.3228
G01 X15.5261 Y14.3509
G01 X15.5164 Y14.3539
G01 X15.4355 Y14.3742
G01 X15.4255 Y14.3761
G01 X15.3430 Y14.3884
G01 X15.3329 Y14.3894
G01 X15.2495 Y14.3935
G01 X15.2394 Y14.3935
G01 X15.1561 Y14.3894
G01 X15.1460 Y14.3884
G01 X15.0634 Y14.3761
G01 X15.0535 Y14.3742
G01 X14.9726 Y14.3539
G01 X14.9628 Y14.3509
G01 X14.8843 Y14.3228
G01 X14.8749 Y14.3190
G01 X14.7995 Y14.2833
G01 X14.7905 Y14.2785
G01 X14.7190 Y14.2356
G01 X14.7105 Y14.2300
G01 X14.6435 Y14.1803
G01 X14.6357 Y14.1738
G01 X14.5739 Y14.1178
G01 X14.5667 Y14.1106
G01 X14.5106 Y14.0488
G01 X14.5042 Y14.0409
G01 X14.4545 Y13.9739
G01 X14.4489 Y13.9655
G01 X14.4060 Y13.8939
G01 X14.4012 Y13.8850
G01 X14.3655 Y13.8096
G01 X14.3616 Y13.8002
G01 X14.3335 Y13.7216
G01 X14.3306 Y13.7119
G01 X14.3103 Y13.6310
G01 X14.3083 Y13.6210
G01 X14.2961 Y13.5385
G01 X14.2951 Y13.5284
G01 X14.2910 Y13.4451
G01 X14.2910 Y13.4349
G01 X14.2951 Y13.3516
G01 X14.2961 Y13.3415
G01 X14.3084 Y13.2590
G00 Z3.0000
G00 X22.4519 Y15.3854
G01 F60.00
G01 Z-0.2000
G01 F120.00
G01 X22.4584 Y15.3775
G01 X22.5137 Y15.3165
G01 X22.5209 Y15.3093
G01 X22.5820 Y15.2539
G01 X22.5899 Y15.2475
G01 X22.6561 Y15.1984
G01 X22.6645 Y15.1927
G01 X22.7352 Y15.1503
G01 X22.7442 Y15.1455
G01 X22.8187 Y15.1103
G01 X22.8281 Y15.1064
G01 X22.9057 Y15.0786
G01 X22.9155 Y15.0757
G01 X22.9954 Y15.0556
G01 X23.0054 Y15.0537
G01 X23.0869 Y15.0416
G01 X23.0970 Y15.0406
G01 X23.1794 Y15.0365
G01 X23.1895 Y15.0365
G01 X23.2719 Y15.0406
G01 X23.2820 Y15.0416
G01 X23.3635 Y15.0537
G01 X23.3735 Y15.0556
G01 X23.4535 Y15.0757
G01 X23.4632 Y15.0786
G01 X23.5408 Y15.1064
G01 X23.5502 Y15.1103
G01 X23.6247 Y15.1455
G01 X23.6337 Y15.1503
G01 X23.7044 Y15.1927
G01 X23.7129 Y15.1984
G01 X23.7791 Y15.2475
G01 X23.7869 Y15.2539
G01 X23.8480 Y15.3093
G01 X23.8552 Y15.3165
G01 X23.9106 Y15.3775
G01 X23.9170 Y15.3854
G01 X23.9661 Y15.4516
G01 X23.9718 Y15.4601
G01 X24.0141 Y15.5308
G01 X24.0189 Y15.5397
G01 X24.0542 Y15.6143
G01 X24.0581 Y15.6236
G01 X24.0858 Y15.7013
G01 X24.0888 Y15.7110
G01 X24.1088 Y15.7910
G01 X24.1108 Y15.8009
G01 X24.1229 Y15.8825
G01 X24.1239 Y15.8926
G01 X24.1279 Y15.9749
G01 X24.1279 Y15.9851
G01 X24.1239 Y16.0674
G01 X24.1229 Y16.0775
G01 X24.1108 Y16.1591
G01 X24.1071 Y16.1760
G01 X26.3278 Y18.3967
G01 X26.3583 Y18.4302
G01 X26.3648 Y18.4381
G01 X26.3888 Y18.4704
G01 X26.3944 Y18.4788
G01 X26.4151 Y18.5134
G01 X26.4199 Y18.5223
G01 X26.4371 Y18.5587
G01 X26.4410 Y18.5681
G01 X26.4546 Y18.6060
G01 X26.4575 Y18.6158
G01 X26.4673 Y18.6548
G01 X26.4693 Y18.6648
G01 X26.4752 Y18.7046
G01 X26.4762 Y18.7147
G01 X26.4783 Y18.7600
G01 X26.4783 Y27.2872
G01 X28.3026 Y29.1115
G01 X28.3709 Y29.1014
G01 X28.3810 Y29.1004
G01 X28.4594 Y29.0965
G01 X28.4695 Y29.0965
G01 X28.5480 Y29.1004
G01 X28.5581 Y29.1014
G01 X28.6357 Y29.1129
G01 X28.6457 Y29.1149
G01 X28.7219 Y29.1340
G01 X28.7316 Y29.1369
G01 X28.8055 Y29.1634
G01 X28.8149 Y29.1672
G01 X28.8859 Y29.2008
G01 X28.8948 Y29.2056
G01 X28.9622 Y29.2460
G01 X28.9706 Y29.2516
G01 X29.0337 Y29.2984
G01 X29.0416 Y29.3048
G01 X29.0997 Y29.3576
G01 X29.1069 Y29.3647
G01 X29.1596 Y29.4229
G01 X29.1661 Y29.4308
G01 X29.2072 Y29.4862
G01 X32.6417 Y29.4862
G01 X32.6828 Y29.4308
G01 X32.6893 Y29.4229
G01 X32.7420 Y29.3647
G01 X32.7492 Y29.3576
G01 X32.8074 Y29.3048
G01 X32.8152 Y29.2984
G01 X32.8783 Y29.2516
G01 X32.8867 Y29.2460
G01 X32.9541 Y29.2056
G01 X32.9631 Y29.2008
G01 X33.0340 Y29.1672
G01 X33.0434 Y29.1634
G01 X33.1173 Y29.1369
G01 X33.1271 Y29.1340
G01 X33.2032 Y29.1149
G01 X33.2132 Y29.1129
G01 X33.2909 Y29.1014
G01 X33.3010 Y29.1004
G01 X33.3794 Y29.0965
G01 X33.3895 Y29.0965
G01 X33.4680 Y29.1004
G01 X33.4781 Y29.1014
G01 X33.5557 Y29.1129
G01 X33.5657 Y29.1149
G01 X33.6419 Y29.1340
G01 X33.6516 Y29.1369
G01 X33.7255 Y29.1634
G01 X33.7349 Y29.1672
G01 X33.8059 Y29.2008
G01 X33.8148 Y29.2056
G01 X33.8822 Y29.2460
G01 X33.8906 Y29.2516
G01 X33.9537 Y29.2984
G01 X33.9616 Y29.3048
G01 X34.0197 Y29.3576
G01 X34.0269 Y29.3647
G01 X34.0796 Y29.4229
G01 X34.0861 Y29.4308
G01 X34.1329 Y29.4938
G01 X34.1385 Y29.5023
G01 X34.1789 Y29.5696
G01 X34.1837 Y29.5786
G01 X34.2172 Y29.6496
G01 X34.2211 Y29.6590
G01 X34.2476 Y29.7329
G01 X34.2505 Y29.7426
G01 X34.2696 Y29.8188
G01 X34.2716 Y29.8287
G01 X34.2831 Y29.9064
G01 X34.2841 Y29.9165
G01 X34.2879 Y29.9949
G01 X34.2879 Y30.0051
G01 X34.2841 Y30.0835
G01 X34.2831 Y30.0936
G01 X34.2716 Y30.1713
G01 X34.2696 Y30.1812
G01 X34.2505 Y30.2574
G01 X34.2476 Y30.2671
G01 X34.2211 Y30.3410
G01 X34.2172 Y30.3504
G01 X34.1837 Y30.4214
G01 X34.1789 Y30.4304
G01 X34.1385 Y30.4977
G01 X34.1329 Y30.5062
G01 X34.0861 Y30.5692
G01 X34.0796 Y30.5771
G01 X34.0269 Y30.6353
G01 X34.0197 Y30.6424
G01 X33.9616 Y30.6952
G01 X33.9537 Y30.7016
G01 X33.8906 Y30.7484
G01 X33.8822 Y30.7540
G01 X33.8148 Y30.7944
G01 X33.8059 Y30.7992
G01 X33.7349 Y30.8328
G01 X33.7255 Y30.8366
G01 X33.6516 Y30.8631
G01 X33.6419 Y30.8660
G01 X33.5657 Y30.8851
G01 X33.5557 Y30.8871
G01 X33.4781 Y30.8986
G01 X33.4680 Y30.8996
G01 X33.3895 Y30.9035
G01 X33.3794 Y30.9035
G01 X33.3010 Y30.8996
G01 X33.2909 Y30.8986
G01 X33.2132 Y30.8871
G01 X33.2032 Y30.8851
G01 X33.1271 Y30.8660
G01 X33.1173 Y30.8631
G01 X33.0434 Y30.8366
G01 X33.0340 Y30.8328
G01 X32.9631 Y30.7992
G01 X32.9541 Y30.7944
G01 X32.8867 Y30.7540
G01 X32.8783 Y30.7484
G01 X32.8152 Y30.7016
G01 X32.8074 Y30.6952
G01 X32.7492 Y30.6424
G01 X32.7420 Y30.6353
G01 X32.6893 Y30.5771
G01 X32.6828 Y30.5692
G01 X32.6417 Y30.5138
G01 X29.2072 Y30.5138
G01 X29.1661 Y30.5692
G01 X29.1596 Y30.5771
G01 X29.1069 Y30.6353
G01 X29.0997 Y30.6424
G01 X29.0416 Y30.6952
G01 X29.0337 Y30.7016
G01 X28.9706 Y30.7484
G01 X28.9622 Y30.7540
G01 X28.8948 Y30.7944
G01 X28.8859 Y30.7992
G01 X28.8149 Y30.8328
G01 X28.8055 Y30.8366
G01 X28.7316 Y30.8631
G01 X28.7219 Y30.8660
G01 X28.6457 Y30.8851
G01 X28.6357 Y30.8871
G01 X28.5581 Y30.8986
G01 X28.5480 Y30.8996
G01 X28.4695 Y30.9035
G01 X28.4594 Y30.9035
G01 X28.3810 Y30.8996
G01 X28.3709 Y30.8986
G01 X28.2932 Y30.8871
G01 X28.2832 Y30.8851
G01 X28.2071 Y30.8660
G01 X28.1973 Y30.8631
G01 X28.1234 Y30.8366
G01 X28.1140 Y30.8328
G01 X28.0431 Y30.7992
G01 X28.0341 Y30.7944
G01 X27.9667 Y30.7540
G01 X27.9583 Y30.7484
G01 X27.8952 Y30.7016
G01 X27.8874 Y30.6952
G01 X27.8292 Y30.6424
G01 X27.8220 Y30.6353
G01 X27.7693 Y30.5771
G01 X27.7628 Y30.5692
G01 X27.7161 Y30.5062
G01 X27.7104 Y30.4977
G01 X27.6701 Y30.4304
G01 X27.6653 Y30.4214
G01 X27.6317 Y30.3504
G01 X27.6278 Y30.3410
G01 X27.6014 Y30.2671
G01 X27.5984 Y30.2574
G01 X27.5793 Y30.1812
G01 X27.5774 Y30.1713
G01 X27.5658 Y30.0936
G01 X27.5648 Y30.0835
G01 X27.5610 Y30.0051
G01 X27.5610 Y29.9949
G01 X27.5648 Y29.9165
G01 X27.5658 Y29.9064
G01 X27.5760 Y29.8381
G01 X25.6012 Y27.8633
G01 X25.5706 Y27.8298
G01 X25.5642 Y27.8219
G01 X25.5402 Y27.7896
G01 X25.5345 Y27.7812
G01 X25.5138 Y27.7466
G01 X25.5090 Y27.7377
G01 X25.4918 Y27.7013
G01 X25.4879 Y27.6919
G01 X25.4744 Y27.6540
G01 X25.4714 Y27.6442
G01 X25.4616 Y27.6052
G01 X25.4597 Y27.5952
G01 X25.4538 Y27.5554
G01 X25.4528 Y27.5453
G01 X25.4507 Y27.5000
G01 X25.4507 Y18.9728
G01 X23.3805 Y16.9026
G01 X23.3635 Y16.9063
G01 X23.2820 Y16.9184
G01 X23.2719 Y16.9194
G01 X23.1895 Y16.9235
G01 X23.1794 Y16.9235
G01 X23.0970 Y16.9194
G01 X23.0869 Y16.9184
G01 X23.0054 Y16.9063
G01 X22.9954 Y16.9044
G01 X22.9155 Y16.8843
G01 X22.9057 Y16.8814
G01 X22.8281 Y16.8536
G01 X22.8187 Y16.8497
G01 X22.7442 Y16.8145
G01 X22.7352 Y16.8097
G01 X22.6645 Y16.7673
G01 X22.6561 Y16.7616
G01 X22.5899 Y16.7125
G01 X22.5820 Y16.7061
G01 X22.5209 Y16.6507
G01 X22.5137 Y16.6435
G01 X22.4584 Y16.5825
G01 X22.4519 Y16.5746
G01 X22.4028 Y16.5084
G01 X22.3972 Y16.4999
G01 X22.3548 Y16.4292
G01 X22.3500 Y16.4203
G01 X22.3148 Y16.3457
G01 X22.3109 Y16.3364
G01 X22.2831 Y16.2587
G01 X22.2801 Y16.2490
G01 X22.2601 Y16.1690
G01 X22.2581 Y16.1591
G01 X22.2460 Y16.0775
G01 X22.2450 Y16.0674
G01 X22.2410 Y15.9851
G01 X22.2410 Y15.9749
G01 X22.2450 Y15.8926
G01 X22.2460 Y15.8825
G01 X22.2581 Y15.8009
G01 X22.2601 Y15.7910
G01 X22.2801 Y15.7110
G01 X22.2831 Y15.7013
G01 X22.3109 Y15.6236
G01 X22.3148 Y15.6143
G01 X22.3500 Y15.5397
G01 X22.3548 Y15.5308
G01 X22.3972 Y15.4601
G01 X22.4028 Y15.4516
G01 X22.4519 Y15.3854
G00 Z3.0000
G00 X22.2409 Y20.2450
G01 F60.00
G01 Z-0.2000
G01 F120.00
G01 X22.2414 Y20.2348
G01 X22.2429 Y20.2248
G01 X22.2453 Y20.2149
G01 X22.2488 Y20.2054
G01 X22.2531 Y20.1962
G01 X22.2583 Y20.1874
G01 X22.2644 Y20.1793
G01 X22.2712 Y20.1717
G01 X22.2787 Y20.1649
G01 X22.2869 Y20.1589
G01 X22.2956 Y20.1536
G01 X22.3048 Y20.1493
G01 X22.3144 Y20.1459
G01 X22.3243 Y20.1434
G01 X22.3343 Y20.1419
G01 X22.3445 Y20.1414
G01 X24.0245 Y20.1414
G01 X24.0346 Y20.1419
G01 X24.0447 Y20.1434
G01 X24.0545 Y20.1459
G01 X24.0641 Y20.1493
G01 X24.0733 Y20.1536
G01 X24.0820 Y20.1589
G01 X24.0902 Y20.1649
G01 X24.0977 Y20.1717
G01 X24.1045 Y20.1793
G01 X24.1106 Y20.1874
G01 X24.1158 Y20.1962
G01 X24.1202 Y20.2054
G01 X24.1236 Y20.2149
G01 X24.1261 Y20.2248
G01 X24.1276 Y20.2348
G01 X24.1281 Y20.2450
G01 X24.1281 Y21.8750
G01 X24.1276 Y21.8852
G01 X24.1261 Y21.8952
G01 X24.1236 Y21.9051
G01 X24.1202 Y21.9146
G01 X24.1158 Y21.9238
G01 X24.1106 Y21.9326
G01 X24.1045 Y21.9407
G01 X24.0977 Y21.9483
G01 X24.0902 Y21.9551
G01 X24.0820 Y21.9611
G01 X24.0733 Y21.9664
G01 X24.0641 Y21.9707
G01 X24.0545 Y21.9741
G01 X24.0447 Y21.9766
G01 X24.0346 Y21.9781
G01 X24.0245 Y21.9786
G01 X22.3445 Y21.9786
G01 X22.3343 Y21.9781
G01 X22.3243 Y21.9766
G01 X22.3144 Y21.9741
G01 X22.3048 Y21.9707
G01 X22.2956 Y21.9664
G01 X22.2869 Y21.9611
G01 X22.2787 Y21.9551
G01 X22.2712 Y21.9483
G01 X22.2644 Y21.9407
G01 X22.2583 Y21.9326
G01 X22.2531 Y21.9238
G01 X22.2488 Y21.9146
G01 X22.2453 Y21.9051
G01 X22.2429 Y21.8952
G01 X22.2414 Y21.8852
G01 X22.2409 Y21.8750
G01 X22.2409 Y20.2450
G00 Z3.0000
G00 X22.4144 Y25.8454
G01 F60.00
G01 Z-0.2000
G01 F120.00
G01 X22.4209 Y25.8375
G01 X22.4762 Y25.7765
G01 X22.4834 Y25.7693
G01 X22.5445 Y25.7139
G01 X22.5524 Y25.7075
G01 X22.6186 Y25.6584
G01 X22.6270 Y25.6527
G01 X22.6977 Y25.6103
G01 X22.7067 Y25.6055
G01 X22.7812 Y25.5703
G01 X22.7906 Y25.5664
G01 X22.8682 Y25.5386
G01 X22.8780 Y25.5357
G01 X22.9579 Y25.5156
G01 X22.9679 Y25.5137
G01 X23.0494 Y25.5016
G01 X23.0595 Y25.5006
G01 X23.1419 Y25.4965
G01 X23.1520 Y25.4965
G01 X23.2344 Y25.5006
G01 X23.2445 Y25.5016
G01 X23.3260 Y25.5137
G01 X23.3360 Y25.5156
G01 X23.4160 Y25.5357
G01 X23.4257 Y25.5386
G01 X23.5033 Y25.5664
G01 X23.5127 Y25.5703
G01 X23.5872 Y25.6055
G01 X23.5962 Y25.6103
G01 X23.6669 Y25.6527
G01 X23.6754 Y25.6584
G01 X23.7416 Y25.7075
G01 X23.7494 Y25.7139
G01 X23.8105 Y25.7693
G01 X23.8177 Y25.7765
G01 X23.8731 Y25.8375
G01 X23.8795 Y25.8454
G01 X23.9286 Y25.9116
G01 X23.9343 Y25.9201
G01 X23.9766 Y25.9908
G01 X23.9814 Y25.9997
G01 X24.0167 Y26.0743
G01 X24.0206 Y26.0836
G01 X24.0483 Y26.1613
G01 X24.0513 Y26.1710
G01 X24.0713 Y26.2510
G01 X24.0733 Y26.2609
G01 X24.0854 Y26.3425
G01 X24.0864 Y26.3526
G01 X24.0904 Y26.4349
G01 X24.0904 Y26.4451
G01 X24.0864 Y26.5274
G01 X24.0854 Y26.5375
G01 X24.0733 Y26.6191
G01 X24.0713 Y26.6290
G01 X24.0513 Y26.7090
G01 X24.0483 Y26.7187
G01 X24.0206 Y26.7964
G01 X24.0167 Y26.8057
G01 X23.9814 Y26.8803
G01 X23.9766 Y26.8892
G01 X23.9343 Y26.9599
G01 X23.9286 Y26.9684
G01 X23.8795 Y27.0346
G01 X23.8731 Y27.0425
G01 X23.8177 Y27.1035
G01 X23.8105 Y27.1107
G01 X23.7494 Y27.1661
G01 X23.7416 Y27.1725
G01 X23.6754 Y27.2216
G01 X23.6669 Y27.2273
G01 X23.5962 Y27.2697
G01 X23.5872 Y27.2745
G01 X23.5127 Y27.3097
G01 X23.5033 Y27.3136
G01 X23.4257 Y27.3414
G01 X23.4160 Y27.3443
G01 X23.3360 Y27.3644
G01 X23.3260 Y27.3663
G01 X23.2445 Y27.3784
G01 X23.2344 Y27.3794
G01 X23.1520 Y27.3835
G01 X23.1419 Y27.3835
G01 X23.0595 Y27.3794
G01 X23.0494 Y27.3784
G01 X22.9679 Y27.3663
G01 X22.9579 Y27.3644
G01 X22.8780 Y27.3443
G01 X22.8682 Y27.3414
G01 X22.7906 Y27.3136
G01 X22.7812 Y27.3097
G01 X22.7067 Y27.2745
G01 X22.6977 Y27.2697
G01 X22.6270 Y27.2273
G01 X22.6186 Y27.2216
G01 X22.5524 Y27.1725
G01 X22.5445 Y27.1661
G01 X22.4834 Y27.1107
G01 X22.4762 Y27.1035
G01 X22.4209 Y27.0425
G01 X22.4144 Y27.0346
G01 X22.3653 Y26.9684
G01 X22.3597 Y26.9599
G01 X22.3173 Y26.8892
G01 X22.3125 Y26.8803
G01 X22.2773 Y26.8057
G01 X22.2734 Y26.7964
G01 X22.2456 Y26.7187
G01 X22.2426 Y26.7090
G01 X22.2226 Y26.6290
G01 X22.2206 Y26.6191
G01 X22.2085 Y26.5375
G01 X22.2075 Y26.5274
G01 X22.2035 Y26.4451
G01 X22.2035 Y26.4349
G01 X22.2075 Y26.3526
G01 X22.2085 Y26.3425
G01 X22.2206 Y26.2609
G01 X22.2226 Y26.2510
G01 X22.2426 Y26.1710
G01 X22.2456 Y26.1613
G01 X22.2734 Y26.0836
G01 X22.2773 Y26.0743
G01 X22.3125 Y25.9997
G01 X22.3173 Y25.9908
G01 X22.3597 Y25.9201
G01 X22.3653 Y25.9116
G01 X22.4144 Y25.8454
G00 Z3.0000
G00 X22.4144 Y33.4654
G01 F60.00
G01 Z-0.2000
G01 F120.00
G01 X22.4209 Y33.4575
G01 X22.4762 Y33.3965
G01 X22.4834 Y33.3893
G01 X22.5445 Y33.3339
G01 X22.5524 Y33.3275
G01 X22.6186 Y33.2784
G01 X22.6270 Y33.2727
G01 X22.6977 Y33.2303
G01 X22.7067 Y33.2255
G01 X22.7812 Y33.1903
G01 X22.7906 Y33.1864
G01 X22.8682 Y33.1586
G01 X22.8780 Y33.1557
G01 X22.9579 Y33.1356
G01 X22.9679 Y33.1337
G01 X23.0494 Y33.1216
G01 X23.0595 Y33.1206
G01 X23.1419 Y33.1165
G01 X23.1520 Y33.1165
G01 X23.2344 Y33.1206
G01 X23.2445 Y33.1216
G01 X23.3260 Y33.1337
G01 X23.3360 Y33.1356
G01 X23.4160 Y33.1557
G01 X23.4257 Y33.1586
G01 X23.5033 Y33.1864
G01 X23.5127 Y33.1903
