(G-CODE GENERATED BY FLATCAM v8.991 - www.flatcam.org - Version Date: 2019/12/27)

(Name: Function_Generator-PTH.drl_cnc)
(Type: G-code from Excellon)
(Units: MM)

(Created on Wednesday, 13 August 2025 at 12:42)

(Feedrate: 300.0 mm/min)
(Feedrate rapids 1500.0 mm/min)

(Z_Cut: -1.8 mm)
(Z_Move: 3.0 mm)
(Z Toolchange: 15.0 mm)
(X,Y Toolchange: 0.0000, 0.0000 mm)
(Z Start: None mm)
(Z End: 0.5 mm)
(Steps per circle: 64)
(Preprocessor Excellon: default)

(X range:    5.7045 ...   85.3745  mm)
(Y range:    8.8950 ...   58.9000  mm)

(Spindle Speed: None RPM)
G21
G90
G94




G01 F300.00
G00 Z3.0000

M03
G00 X57.7745 Y43.8050
G01 Z-1.8000
G01 Z0
G00 Z3.0000
G00 X55.2345 Y43.8050
G01 Z-1.8000
G01 Z0
G00 Z3.0000
G00 X52.6945 Y43.8050
G01 Z-1.8000
G01 Z0
G00 Z3.0000
G00 X50.1545 Y43.8050
G01 Z-1.8000
G01 Z0
G00 Z3.0000
G00 X39.9645 Y40.1700
G01 Z-1.8000
G01 Z0
G00 Z3.0000
G00 X39.9645 Y50.3300
G01 Z-1.8000
G01 Z0
G00 Z3.0000
G00 X36.7145 Y53.5000
G01 Z-1.8000
G01 Z0
G00 Z3.0000
G00 X36.7145 Y58.5000
G01 Z-1.8000
G01 Z0
G00 Z3.0000
G00 X30.4645 Y58.5000
G01 Z-1.8000
G01 Z0
G00 Z3.0000
G00 X30.4645 Y53.5000
G01 Z-1.8000
G01 Z0
G00 Z3.0000
G00 X30.7145 Y50.0800
G01 Z-1.8000
G01 Z0
G00 Z3.0000
G00 X30.7145 Y39.9200
G01 Z-1.8000
G01 Z0
G00 Z3.0000
G00 X6.4645 Y34.5000
G01 Z-1.8000
G01 Z0
G00 Z3.0000
G00 X6.4645 Y32.5000
G01 Z-1.8000
G01 Z0
G00 Z3.0000
G00 X6.4645 Y30.5000
G01 Z-1.8000
G01 Z0
G00 Z3.0000
G00 X6.4645 Y28.5000
G01 Z-1.8000
G01 Z0
G00 Z3.0000
G00 X6.2145 Y24.7500
G01 Z-1.8000
G01 Z0
G00 Z3.0000
G00 X11.2145 Y24.7500
G01 Z-1.8000
G01 Z0
G00 Z3.0000
G00 X28.4645 Y25.0000
G01 Z-1.8000
G01 Z0
G00 Z3.0000
G00 X28.4645 Y30.0000
G01 Z-1.8000
G01 Z0
G00 Z3.0000
G00 X33.3845 Y30.0000
G01 Z-1.8000
G01 Z0
G00 Z3.0000
G00 X43.5445 Y30.0000
G01 Z-1.8000
G01 Z0
G00 Z3.0000
G00 X57.4645 Y22.9200
G01 Z-1.8000
G01 Z0
G00 Z3.0000
G00 X57.4645 Y33.0800
G01 Z-1.8000
G01 Z0
G00 Z3.0000
G00 X57.7745 Y36.1850
G01 Z-1.8000
G01 Z0
G00 Z3.0000
G00 X55.2345 Y36.1850
G01 Z-1.8000
G01 Z0
G00 Z3.0000
G00 X52.6945 Y36.1850
G01 Z-1.8000
G01 Z0
G00 Z3.0000
G00 X50.1545 Y36.1850
G01 Z-1.8000
G01 Z0
G00 Z3.0000
M03
G00 X51.7045 Y12.5700
G01 Z-1.8000
G01 Z0
G00 Z3.0000
G00 X51.6645 Y18.1000
G01 Z-1.8000
G01 Z0
G00 Z3.0000
G00 X6.1645 Y47.3500
G01 Z-1.8000
G01 Z0
G00 Z3.0000
G00 X12.0645 Y34.6000
G01 Z-1.8000
G01 Z0
G00 Z3.0000
G00 X6.1145 Y13.3500
G01 Z-1.8000
G01 Z0
G00 Z3.0000
G00 X11.2145 Y17.2000
G01 Z-1.8000
G01 Z0
G00 Z3.0000
M03
G00 X84.9645 Y47.0000
G01 Z-1.8000
G01 Z0
G00 Z3.0000
G00 X84.9645 Y43.5000
G01 Z-1.8000
G01 Z0
G00 Z3.0000
G00 X84.9645 Y35.7500
G01 Z-1.8000
G01 Z0
G00 Z3.0000
G00 X84.9645 Y30.7500
G01 Z-1.8000
G01 Z0
G00 Z3.0000
G00 X84.9645 Y25.7500
G01 Z-1.8000
G01 Z0
G00 Z3.0000
G00 X84.9645 Y18.5970
G01 Z-1.8000
G01 Z0
G00 Z3.0000
G00 X84.9645 Y15.0970
G01 Z-1.8000
G01 Z0
G00 Z3.0000
G00 X74.7145 Y9.8470
G01 Z-1.8000
G01 Z0
G00 Z3.0000
G00 X74.7145 Y13.3470
G01 Z-1.8000
G01 Z0
G00 Z3.0000
G00 X74.7145 Y20.1700
G01 Z-1.8000
G01 Z0
G00 Z3.0000
G00 X66.4645 Y19.3470
G01 Z-1.8000
G01 Z0
G00 Z3.0000
G00 X66.4645 Y15.8470
G01 Z-1.8000
G01 Z0
G00 Z3.0000
G00 X64.0045 Y9.3050
G01 Z-1.8000
G01 Z0
G00 Z3.0000
G00 X61.4645 Y9.3050
G01 Z-1.8000
G01 Z0
G00 Z3.0000
G00 X58.9245 Y9.3050
G01 Z-1.8000
G01 Z0
G00 Z3.0000
G00 X48.1615 Y17.7250
G01 Z-1.8000
G01 Z0
G00 Z3.0000
G00 X42.8615 Y17.7250
G01 Z-1.8000
G01 Z0
G00 Z3.0000
G00 X37.5615 Y17.7250
G01 Z-1.8000
G01 Z0
G00 Z3.0000
G00 X23.1475 Y34.0600
G01 Z-1.8000
G01 Z0
G00 Z3.0000
G00 X23.1475 Y31.5200
G01 Z-1.8000
G01 Z0
G00 Z3.0000
G00 X23.1475 Y28.9800
G01 Z-1.8000
G01 Z0
G00 Z3.0000
G00 X23.1475 Y26.4400
G01 Z-1.8000
G01 Z0
G00 Z3.0000
G00 X23.1845 Y21.0600
G01 Z-1.8000
G01 Z0
G00 Z3.0000
G00 X23.1845 Y18.5200
G01 Z-1.8000
G01 Z0
G00 Z3.0000
G00 X23.1845 Y15.9800
G01 Z-1.8000
G01 Z0
G00 Z3.0000
G00 X23.1845 Y13.4400
G01 Z-1.8000
G01 Z0
G00 Z3.0000
G00 X15.2445 Y13.4400
G01 Z-1.8000
G01 Z0
G00 Z3.0000
G00 X15.2445 Y15.9800
G01 Z-1.8000
G01 Z0
G00 Z3.0000
G00 X15.2445 Y18.5200
G01 Z-1.8000
G01 Z0
G00 Z3.0000
G00 X15.2445 Y21.0600
G01 Z-1.8000
G01 Z0
G00 Z3.0000
G00 X15.2075 Y26.4400
G01 Z-1.8000
G01 Z0
G00 Z3.0000
G00 X15.2075 Y28.9800
G01 Z-1.8000
G01 Z0
G00 Z3.0000
G00 X15.2075 Y31.5200
G01 Z-1.8000
G01 Z0
G00 Z3.0000
G00 X15.2075 Y34.0600
G01 Z-1.8000
G01 Z0
G00 Z3.0000
G00 X17.9395 Y42.9400
G01 Z-1.8000
G01 Z0
G00 Z3.0000
G00 X17.9395 Y45.4800
G01 Z-1.8000
G01 Z0
G00 Z3.0000
G00 X17.9395 Y48.0200
G01 Z-1.8000
G01 Z0
G00 Z3.0000
G00 X17.9395 Y50.5600
G01 Z-1.8000
G01 Z0
G00 Z3.0000
G00 X25.8795 Y50.5600
G01 Z-1.8000
G01 Z0
G00 Z3.0000
G00 X25.8795 Y48.0200
G01 Z-1.8000
G01 Z0
G00 Z3.0000
G00 X25.8795 Y45.4800
G01 Z-1.8000
G01 Z0
G00 Z3.0000
G00 X25.8795 Y42.9400
G01 Z-1.8000
G01 Z0
G00 Z3.0000
G00 X40.6345 Y53.0000
G01 Z-1.8000
G01 Z0
G00 Z3.0000
G00 X50.7945 Y53.0000
G01 Z-1.8000
G01 Z0
G00 Z3.0000
G00 X58.9245 Y51.3050
G01 Z-1.8000
G01 Z0
G00 Z3.0000
G00 X61.4645 Y51.3050
G01 Z-1.8000
G01 Z0
G00 Z3.0000
G00 X64.0045 Y51.3050
G01 Z-1.8000
G01 Z0
G00 Z3.0000
G00 X66.5615 Y40.7500
G01 Z-1.8000
G01 Z0
G00 Z3.0000
G00 X63.0615 Y40.7500
G01 Z-1.8000
G01 Z0
G00 Z3.0000
G00 X60.4645 Y33.0000
G01 Z-1.8000
G01 Z0
G00 Z3.0000
G00 X65.4645 Y33.0000
G01 Z-1.8000
G01 Z0
G00 Z3.0000
G00 X74.7145 Y30.3300
G01 Z-1.8000
G01 Z0
G00 Z3.0000
G00 X74.7145 Y50.0970
G01 Z-1.8000
G01 Z0
G00 Z3.0000
G00 X74.7145 Y53.5970
G01 Z-1.8000
G01 Z0
G00 Z3.0000
M03
G00 X78.7945 Y35.2500
G01 Z-1.8000
G01 Z0
G00 Z3.0000
G00 X68.6345 Y35.2500
G01 Z-1.8000
G01 Z0
G00 Z3.0000
G00 X67.7145 Y27.0200
G01 Z-1.8000
G01 Z0
G00 Z3.0000
G00 X67.7145 Y24.4800
G01 Z-1.8000
G01 Z0
G00 Z3.0000
M05
G00 Z0.50
G00 X0.0 Y0.0

