(G-CODE GENERATED BY FLATCAM v8.991 - www.flatcam.org - Version Date: 2019/12/27)

(Name: Function_Generator-Edge_Cuts.gbr_iso_cnc)
(Type: G-code from Geometry)
(Units: MM)

(Created on Wednesday, 13 August 2025 at 12:42)

(TOOL DIAMETER: 0.1268 mm)
(Feedrate: 120.0 mm/min)
(Feedrate_Z: 60.0 mm/min)
(Feedrate rapids 1500.0 mm/min)

(Z_Cut: -0.05 mm)
(Z_Move: 2.0 mm)
(Z Toolchange: 15.0 mm)
(X,Y Toolchange: 0.0000, 0.0000 mm)
(Z Start: None mm)
(Z End: 15.0 mm)
(Steps per circle: 64)
(Preprocessor Geometry: default)

(X range:    1.7010 ...   91.2635  mm)
(Y range:    1.2367 ...   60.8433  mm)

(Spindle Speed: None RPM)
G21
G90
G94




G01 F120.00
G00 Z2.0000

M03
G00 X3.4968 Y8.1183
G01 F60.00
G01 Z-0.0500
G01 F120.00
G01 X3.6969 Y8.0367
G01 X3.9040 Y7.9750
G01 X4.1161 Y7.9340
G01 X4.3323 Y7.9139
G01 X24.8260 Y7.9139
G01 X24.8350 Y7.9158
G01 X24.8545 Y7.9186
G01 X24.8607 Y7.9192
G01 X24.8865 Y7.9201
G01 X24.9092 Y7.9189
G01 X25.0748 Y7.9022
G01 X25.0973 Y7.8989
G01 X25.2635 Y7.8655
G01 X25.2856 Y7.8600
G01 X25.4477 Y7.8105
G01 X25.4692 Y7.8028
G01 X25.6257 Y7.7377
G01 X25.6490 Y7.7266
G01 X25.7983 Y7.6462
G01 X25.8178 Y7.6344
G01 X25.9559 Y7.5417
G01 X25.9767 Y7.5262
G01 X26.1051 Y7.4203
G01 X26.1242 Y7.4029
G01 X26.2437 Y7.2827
G01 X26.2589 Y7.2658
G01 X26.3661 Y7.1344
G01 X26.3795 Y7.1161
G01 X26.4717 Y6.9775
G01 X26.4834 Y6.9580
G01 X26.5630 Y6.8083
G01 X26.5740 Y6.7849
G01 X26.6374 Y6.6310
G01 X26.6451 Y6.6096
G01 X26.6940 Y6.4473
G01 X26.6995 Y6.4252
G01 X26.7328 Y6.2558
G01 X26.7360 Y6.2333
G01 X26.7522 Y6.0645
G01 X26.7532 Y6.0418
G01 X26.7528 Y5.8757
G01 X26.7527 Y2.9683
G01 X26.7581 Y2.8516
G01 X26.7734 Y2.7420
G01 X26.7988 Y2.6343
G01 X26.8339 Y2.5293
G01 X26.8787 Y2.4281
G01 X26.9325 Y2.3314
G01 X26.9951 Y2.2400
G01 X27.0658 Y2.1549
G01 X27.1441 Y2.0766
G01 X27.2292 Y2.0059
G01 X27.3206 Y1.9434
G01 X27.4173 Y1.8895
G01 X27.5185 Y1.8448
G01 X27.6235 Y1.8097
G01 X27.7312 Y1.7843
G01 X27.8409 Y1.7690
G01 X27.9576 Y1.7637
G01 X87.4241 Y1.7637
G01 X87.7516 Y1.7746
G01 X88.0680 Y1.8164
G01 X88.3787 Y1.8890
G01 X88.6809 Y1.9917
G01 X88.9715 Y2.1235
G01 X89.2478 Y2.2832
G01 X89.5071 Y2.4693
G01 X89.7469 Y2.6798
G01 X89.9650 Y2.9128
G01 X90.1591 Y3.1661
G01 X90.3275 Y3.4372
G01 X90.4685 Y3.7235
G01 X90.5808 Y4.0222
G01 X90.6633 Y4.3305
G01 X90.7151 Y4.6454
G01 X90.7361 Y4.9682
G01 X90.7365 Y57.0381
G01 X90.7223 Y57.3461
G01 X90.6805 Y57.6454
G01 X90.6113 Y57.9396
G01 X90.5153 Y58.2261
G01 X90.3932 Y58.5026
G01 X90.2461 Y58.7666
G01 X90.0754 Y59.0159
G01 X89.8823 Y59.2484
G01 X89.6686 Y59.4621
G01 X89.4361 Y59.6551
G01 X89.1868 Y59.8259
G01 X88.9228 Y59.9730
G01 X88.6463 Y60.0950
G01 X88.3598 Y60.1911
G01 X88.0656 Y60.2603
G01 X87.7663 Y60.3020
G01 X87.4576 Y60.3163
G01 X5.4548 Y60.3163
G01 X5.1533 Y60.3054
G01 X4.8614 Y60.2678
G01 X4.5742 Y60.2034
G01 X4.2942 Y60.1127
G01 X4.0238 Y59.9967
G01 X3.7652 Y59.8561
G01 X3.5207 Y59.6923
G01 X3.2923 Y59.5066
G01 X3.0821 Y59.3007
G01 X2.8917 Y59.0762
G01 X2.7229 Y58.8351
G01 X2.5771 Y58.5795
G01 X2.4554 Y58.3115
G01 X2.3590 Y58.0335
G01 X2.2887 Y57.7477
G01 X2.2450 Y57.4566
G01 X2.2280 Y57.1557
G01 X2.2280 Y10.2222
G01 X2.2292 Y9.9939
G01 X2.2515 Y9.7790
G01 X2.2948 Y9.5673
G01 X2.3586 Y9.3609
G01 X2.4423 Y9.1617
G01 X2.5452 Y8.9717
G01 X2.6662 Y8.7927
G01 X2.8041 Y8.6264
G01 X2.9577 Y8.4744
G01 X3.1254 Y8.3382
G01 X3.3057 Y8.2191
G01 X3.4968 Y8.1183
G00 Z2.0000
G00 X91.2633 Y57.0503
G01 F60.00
G01 Z-0.0500
G01 F120.00
G01 X91.2481 Y57.3826
G01 X91.2462 Y57.4039
G01 X91.2008 Y57.7303
G01 X91.1969 Y57.7514
G01 X91.1215 Y58.0721
G01 X91.1157 Y58.0927
G01 X91.0111 Y58.4052
G01 X91.0034 Y58.4251
G01 X90.8704 Y58.7266
G01 X90.8609 Y58.7458
G01 X90.7006 Y59.0337
G01 X90.6894 Y59.0519
G01 X90.5032 Y59.3238
G01 X90.4904 Y59.3409
G01 X90.2800 Y59.5944
G01 X90.2636 Y59.6124
G01 X90.0326 Y59.8433
G01 X90.0169 Y59.8578
G01 X89.7634 Y60.0684
G01 X89.7464 Y60.0813
G01 X89.4746 Y60.2676
G01 X89.4564 Y60.2789
G01 X89.1686 Y60.4393
G01 X89.1468 Y60.4501
G01 X88.8480 Y60.5820
G01 X88.8281 Y60.5898
G01 X88.5157 Y60.6946
G01 X88.4923 Y60.7013
G01 X88.1744 Y60.7760
G01 X88.1505 Y60.7805
G01 X87.8271 Y60.8256
G01 X87.8057 Y60.8277
G01 X87.4766 Y60.8430
G01 X87.4661 Y60.8433
G01 X5.4501 Y60.8433
G01 X5.1222 Y60.8317
G01 X5.0979 Y60.8297
G01 X4.7819 Y60.7889
G01 X4.7608 Y60.7853
G01 X4.4470 Y60.7149
G01 X4.4235 Y60.7085
G01 X4.1203 Y60.6104
G01 X4.1002 Y60.6029
G01 X3.8047 Y60.4761
G01 X3.7828 Y60.4655
G01 X3.5028 Y60.3133
G01 X3.4845 Y60.3023
G01 X3.2172 Y60.1233
G01 X3.1977 Y60.1089
G01 X2.9504 Y59.9078
G01 X2.9344 Y59.8936
G01 X2.7026 Y59.6665
G01 X2.6880 Y59.6508
G01 X2.4819 Y59.4078
G01 X2.4670 Y59.3885
G01 X2.2842 Y59.1275
G01 X2.2727 Y59.1094
G01 X2.1119 Y58.8275
G01 X2.1022 Y58.8084
G01 X1.9705 Y58.5183
G01 X1.9615 Y58.4957
G01 X1.8571 Y58.1946
G01 X1.8509 Y58.1741
G01 X1.7734 Y57.8589
G01 X1.7693 Y57.8379
G01 X1.7220 Y57.5228
G01 X1.7195 Y57.4986
G01 X1.7010 Y57.1686
G01 X1.7010 Y10.2215
G01 X1.7023 Y9.9782
G01 X1.7037 Y9.9524
G01 X1.7290 Y9.7086
G01 X1.7326 Y9.6861
G01 X1.7810 Y9.4491
G01 X1.7866 Y9.4270
G01 X1.8589 Y9.1929
G01 X1.8666 Y9.1715
G01 X1.9615 Y8.9455
G01 X1.9727 Y8.9222
G01 X2.0879 Y8.7094
G01 X2.0996 Y8.6900
G01 X2.2368 Y8.4869
G01 X2.2523 Y8.4662
G01 X2.4068 Y8.2800
G01 X2.4221 Y8.2631
G01 X2.5962 Y8.0907
G01 X2.6155 Y8.0734
G01 X2.8033 Y7.9209
G01 X2.8216 Y7.9074
G01 X3.0261 Y7.7723
G01 X3.0483 Y7.7591
G01 X3.2623 Y7.6462
G01 X3.2829 Y7.6365
G01 X3.5098 Y7.5438
G01 X3.5341 Y7.5353
G01 X3.7660 Y7.4662
G01 X3.7881 Y7.4608
G01 X4.0287 Y7.4141
G01 X4.0543 Y7.4105
G01 X4.2983 Y7.3878
G01 X4.3205 Y7.3869
G01 X24.8828 Y7.3869
G01 X24.9055 Y7.3879
G01 X24.9135 Y7.3888
G01 X25.0091 Y7.3792
G01 X25.1468 Y7.3514
G01 X25.2812 Y7.3103
G01 X25.4109 Y7.2562
G01 X25.5347 Y7.1897
G01 X25.6514 Y7.1114
G01 X25.7598 Y7.0220
G01 X25.8590 Y6.9224
G01 X25.9479 Y6.8135
G01 X26.0257 Y6.6965
G01 X26.0916 Y6.5724
G01 X26.1451 Y6.4424
G01 X26.1856 Y6.3079
G01 X26.2127 Y6.1700
G01 X26.2261 Y6.0301
G01 X26.2258 Y5.8760
G01 X26.2257 Y2.9620
G01 X26.2260 Y2.9500
G01 X26.2323 Y2.8151
G01 X26.2342 Y2.7938
G01 X26.2532 Y2.6571
G01 X26.2570 Y2.6361
G01 X26.2886 Y2.5017
G01 X26.2943 Y2.4811
G01 X26.3381 Y2.3503
G01 X26.3469 Y2.3276
G01 X26.4015 Y2.2040
G01 X26.4110 Y2.1848
G01 X26.4781 Y2.0643
G01 X26.4909 Y2.0436
G01 X26.5672 Y1.9321
G01 X26.5801 Y1.9150
G01 X26.6701 Y1.8066
G01 X26.6846 Y1.7908
G01 X26.7801 Y1.6953
G01 X26.7981 Y1.6789
G01 X26.9020 Y1.5927
G01 X26.9190 Y1.5797
G01 X27.0353 Y1.5001
G01 X27.0535 Y1.4889
G01 X27.1715 Y1.4232
G01 X27.1933 Y1.4123
G01 X27.3169 Y1.3578
G01 X27.3368 Y1.3500
G01 X27.4704 Y1.3052
G01 X27.4910 Y1.2994
G01 X27.6225 Y1.2685
G01 X27.6464 Y1.2640
G01 X27.7802 Y1.2454
G01 X27.8015 Y1.2434
G01 X27.9393 Y1.2369
G01 X27.9561 Y1.2367
G01 X87.4285 Y1.2367
G01 X87.7820 Y1.2483
G01 X87.8078 Y1.2504
G01 X88.1498 Y1.2956
G01 X88.1722 Y1.2996
G01 X88.5112 Y1.3787
G01 X88.5361 Y1.3859
G01 X88.8657 Y1.4980
G01 X88.8868 Y1.5064
G01 X89.2010 Y1.6490
G01 X89.2213 Y1.6593
G01 X89.5227 Y1.8335
G01 X89.5444 Y1.8475
G01 X89.8248 Y2.0486
G01 X89.8426 Y2.0627
G01 X90.1043 Y2.2923
G01 X90.1229 Y2.3103
G01 X90.3586 Y2.5622
G01 X90.3734 Y2.5795
G01 X90.5853 Y2.8558
G01 X90.6000 Y2.8770
G01 X90.7820 Y3.1701
G01 X90.7931 Y3.1900
G01 X90.9470 Y3.5022
G01 X90.9573 Y3.5260
G01 X91.0787 Y3.8489
G01 X91.0857 Y3.8706
G01 X91.1757 Y4.2069
G01 X91.1812 Y4.2321
G01 X91.2372 Y4.5726
G01 X91.2399 Y4.5952
G01 X91.2627 Y4.9457
G01 X91.2631 Y4.9597
G01 X91.2633 Y57.0503
G00 Z2.0000
M05
G00 Z2.0000
G00 Z15.00
G00 X0.0 Y0.0

