(G-CODE GENERATED BY FLATCAM v8.993 - www.flatcam.org - Version Date: 2020/06/05)

(Name: Function_Generator-B_Cu.gbr_0.1000_iso_1_cnc)
(Type: G-code from Geometry)
(Units: MM)

(Created on Monday, 25 August 2025 at 14:23)

(This preprocessor is the default preprocessor used by FlatCAM.)
(It is made to work with MACH3 compatible motion controllers.)

(TOOL DIAMETER: 0.1536 mm)
(Feedrate_XY: 120.0 mm/min)
(Feedrate_Z: 60.0 mm/min)
(Feedrate rapids 1500.0 mm/min)

(Z_Cut: -0.1 mm)
(Z_Move: 2.0 mm)
(Z Start: None mm)
(Z End: 15.0 mm)
(Steps per circle: 64)
(Preprocessor Geometry: default)

(X range:   58.5145 ...   86.3247  mm)
(Y range:    4.4898 ...   29.7000  mm)

(Spindle Speed: None RPM)
G21
G90
G94



G01 F120.00
G00 Z2.0000

M03
G00 X60.1263 Y6.5206
G01 F60.00
G01 Z-0.1000
G01 F120.00
G01 X61.1599 Y5.4870
G01 X66.0947 Y5.4870
G01 X71.7167 Y11.1091
G01 X71.7086 Y11.1414
G01 X71.7068 Y11.1501
G01 X71.6933 Y11.2410
G01 X71.6923 Y11.2498
G01 X71.6877 Y11.3473
G01 X71.6923 Y11.4449
G01 X71.6933 Y11.4537
G01 X71.7064 Y11.5420
G01 X71.7086 Y11.5533
G01 X71.7319 Y11.6454
G01 X71.7637 Y11.7349
G01 X71.7670 Y11.7432
G01 X71.8089 Y11.8314
G01 X71.8576 Y11.9130
G01 X71.8640 Y11.9225
G01 X71.9172 Y11.9942
G01 X71.9245 Y12.0031
G01 X71.9884 Y12.0734
G01 X72.0631 Y12.1411
G01 X72.1440 Y12.2011
G01 X72.2277 Y12.2514
G01 X72.2356 Y12.2555
G01 X72.3215 Y12.2960
G01 X72.4164 Y12.3299
G01 X72.5141 Y12.3544
G01 X72.6138 Y12.3692
G01 X72.7145 Y12.3742
G01 X72.8151 Y12.3692
G01 X72.9148 Y12.3544
G01 X73.0095 Y12.3308
G01 X73.0180 Y12.3281
G01 X73.1074 Y12.2960
G01 X73.1985 Y12.2529
G01 X73.2849 Y12.2011
G01 X73.3634 Y12.1430
G01 X73.3702 Y12.1373
G01 X73.4405 Y12.0734
G01 X73.5062 Y12.0011
G01 X73.5117 Y11.9942
G01 X73.5665 Y11.9204
G01 X73.5713 Y11.9130
G01 X73.5884 Y11.8844
G01 X77.6394 Y11.8844
G01 X82.0008 Y16.2458
G01 X81.9837 Y16.2938
G01 X81.9810 Y16.3023
G01 X81.9580 Y16.3940
G01 X81.9564 Y16.4027
G01 X81.9433 Y16.4910
G01 X81.9423 Y16.4998
G01 X81.9377 Y16.5973
G01 X81.9422 Y16.6923
G01 X81.9433 Y16.7037
G01 X81.9564 Y16.7920
G01 X81.9580 Y16.8007
G01 X81.9819 Y16.8954
G01 X82.0137 Y16.9849
G01 X82.0181 Y16.9956
G01 X82.0589 Y17.0814
G01 X82.1107 Y17.1678
G01 X82.1672 Y17.2442
G01 X82.1745 Y17.2531
G01 X82.2384 Y17.3234
G01 X82.3087 Y17.3873
G01 X82.3176 Y17.3946
G01 X82.3940 Y17.4511
G01 X82.4754 Y17.5001
G01 X82.4856 Y17.5055
G01 X82.5715 Y17.5460
G01 X82.6609 Y17.5781
G01 X82.6694 Y17.5808
G01 X82.7585 Y17.6032
G01 X82.7698 Y17.6054
G01 X82.8638 Y17.6192
G01 X82.9614 Y17.6241
G01 X82.9702 Y17.6240
G01 X83.0594 Y17.6196
G01 X83.0682 Y17.6189
G01 X83.1617 Y17.6050
G01 X83.1704 Y17.6032
G01 X83.2027 Y17.5951
G01 X85.3275 Y19.7198
G01 X85.3275 Y25.6276
G01 X83.2027 Y27.7523
G01 X83.1704 Y27.7442
G01 X83.1617 Y27.7424
G01 X83.0682 Y27.7285
G01 X83.0594 Y27.7277
G01 X82.9676 Y27.7232
G01 X82.9587 Y27.7233
G01 X82.8638 Y27.7281
G01 X82.7698 Y27.7419
G01 X82.7611 Y27.7436
G01 X82.6719 Y27.7659
G01 X82.6609 Y27.7692
G01 X82.5715 Y27.8014
G01 X82.4856 Y27.8418
G01 X82.4754 Y27.8473
G01 X82.3940 Y27.8962
G01 X82.3176 Y27.9527
G01 X82.3105 Y27.9584
G01 X82.2384 Y28.0239
G01 X82.1707 Y28.0986
G01 X82.1107 Y28.1796
G01 X82.0617 Y28.2610
G01 X82.0563 Y28.2711
G01 X82.0181 Y28.3518
G01 X82.0137 Y28.3624
G01 X81.9819 Y28.4519
G01 X81.9586 Y28.5441
G01 X81.9568 Y28.5527
G01 X81.9426 Y28.6494
G01 X81.9378 Y28.7442
G01 X81.9378 Y28.7558
G01 X81.9422 Y28.8449
G01 X81.9433 Y28.8564
G01 X81.9574 Y28.9503
G01 X81.9819 Y29.0481
G01 X82.0158 Y29.1429
G01 X82.0563 Y29.2289
G01 X82.0617 Y29.2390
G01 X82.1076 Y29.3156
G01 X82.1140 Y29.3252
G01 X82.1707 Y29.4014
G01 X82.2384 Y29.4761
G01 X82.3087 Y29.5400
G01 X82.3176 Y29.5473
G01 X82.3940 Y29.6038
G01 X82.4804 Y29.6556
G01 X82.5715 Y29.6986
G01 X82.6609 Y29.7308
G01 X82.6719 Y29.7341
G01 X82.7585 Y29.7558
G01 X82.7698 Y29.7581
G01 X82.8638 Y29.7719
G01 X82.9645 Y29.7768
G01 X83.0651 Y29.7719
G01 X83.1591 Y29.7581
G01 X83.1704 Y29.7558
G01 X83.2570 Y29.7341
G01 X83.2680 Y29.7308
G01 X83.3574 Y29.6986
G01 X83.4485 Y29.6556
G01 X83.5349 Y29.6038
G01 X83.6113 Y29.5473
G01 X83.6202 Y29.5400
G01 X83.6864 Y29.4800
G01 X83.6927 Y29.4738
G01 X83.7544 Y29.4058
G01 X83.7617 Y29.3969
G01 X83.8182 Y29.3205
G01 X83.8672 Y29.2390
G01 X83.8726 Y29.2289
G01 X83.9131 Y29.1429
G01 X83.9453 Y29.0535
G01 X83.9479 Y29.0451
G01 X83.9703 Y28.9559
G01 X83.9725 Y28.9447
G01 X83.9863 Y28.8506
G01 X83.9912 Y28.7531
G01 X83.9911 Y28.7442
G01 X83.9868 Y28.6551
G01 X83.9860 Y28.6463
G01 X83.9721 Y28.5527
G01 X83.9703 Y28.5441
G01 X83.9622 Y28.5117
G01 X86.2464 Y26.2275
G01 X86.2758 Y26.1950
G01 X86.2831 Y26.1861
G01 X86.3110 Y26.1483
G01 X86.3352 Y26.1082
G01 X86.3407 Y26.0980
G01 X86.3606 Y26.0555
G01 X86.3766 Y26.0114
G01 X86.3792 Y26.0029
G01 X86.3912 Y25.9548
G01 X86.3982 Y25.9083
G01 X86.3993 Y25.8969
G01 X86.4015 Y25.8505
G01 X86.4015 Y19.4969
G01 X86.3989 Y19.4447
G01 X86.3912 Y19.3926
G01 X86.3784 Y19.3415
G01 X86.3606 Y19.2918
G01 X86.3381 Y19.2442
G01 X86.3110 Y19.1990
G01 X86.2796 Y19.1567
G01 X86.2482 Y19.1218
G01 X83.9622 Y16.8356
G01 X83.9703 Y16.8033
G01 X83.9721 Y16.7946
G01 X83.9860 Y16.7011
G01 X83.9868 Y16.6923
G01 X83.9911 Y16.6031
G01 X83.9912 Y16.5942
G01 X83.9863 Y16.4967
G01 X83.9725 Y16.4027
G01 X83.9703 Y16.3914
G01 X83.9479 Y16.3023
G01 X83.9453 Y16.2938
G01 X83.9131 Y16.2044
G01 X83.8726 Y16.1185
G01 X83.8672 Y16.1083
G01 X83.8182 Y16.0269
G01 X83.7617 Y15.9505
G01 X83.7544 Y15.9416
G01 X83.6945 Y15.8755
G01 X83.6883 Y15.8691
G01 X83.6159 Y15.8036
G01 X83.5396 Y15.7469
G01 X83.5301 Y15.7405
G01 X83.4485 Y15.6918
G01 X83.3627 Y15.6510
G01 X83.3520 Y15.6466
G01 X83.2680 Y15.6166
G01 X83.2570 Y15.6132
G01 X83.1648 Y15.5903
G01 X83.0651 Y15.5755
G01 X82.9645 Y15.5705
G01 X82.8696 Y15.5751
G01 X82.8607 Y15.5758
G01 X82.8511 Y15.5772
G01 X78.2412 Y10.9673
G01 X78.2025 Y10.9322
G01 X78.1649 Y10.9041
G01 X78.1553 Y10.8978
G01 X78.1200 Y10.8766
G01 X78.1122 Y10.8723
G01 X78.0726 Y10.8535
G01 X78.0620 Y10.8491
G01 X78.0177 Y10.8335
G01 X77.9722 Y10.8219
G01 X77.9609 Y10.8197
G01 X77.9145 Y10.8129
G01 X77.8649 Y10.8104
G01 X73.5884 Y10.8103
G01 X73.5713 Y10.7817
G01 X73.5665 Y10.7743
G01 X73.5117 Y10.7005
G01 X73.5061 Y10.6934
G01 X73.4405 Y10.6213
G01 X73.3682 Y10.5556
G01 X73.3613 Y10.5501
G01 X73.2896 Y10.4969
G01 X73.2801 Y10.4905
G01 X73.1985 Y10.4418
G01 X73.1074 Y10.3987
G01 X73.0125 Y10.3648
G01 X72.9204 Y10.3415
G01 X72.9091 Y10.3393
G01 X72.8208 Y10.3262
G01 X72.8120 Y10.3252
G01 X72.7145 Y10.3205
G01 X72.6169 Y10.3252
G01 X72.6081 Y10.3262
G01 X72.5172 Y10.3397
G01 X72.5085 Y10.3415
G01 X72.4762 Y10.3496
G01 X66.6965 Y4.5699
G01 X66.6578 Y4.5349
G01 X66.6155 Y4.5035
G01 X66.5703 Y4.4764
G01 X66.5279 Y4.4562
G01 X66.5197 Y4.4527
G01 X66.4730 Y4.4361
G01 X66.4219 Y4.4233
G01 X66.3698 Y4.4156
G01 X66.3176 Y4.4130
G01 X60.9370 Y4.4130
G01 X60.8848 Y4.4156
G01 X60.8384 Y4.4223
G01 X60.8271 Y4.4246
G01 X60.7816 Y4.4361
G01 X60.7373 Y4.4518
G01 X60.7267 Y4.4562
G01 X60.6895 Y4.4738
G01 X60.6793 Y4.4792
G01 X60.6440 Y4.5004
G01 X60.6344 Y4.5068
G01 X60.5968 Y4.5349
G01 X60.5581 Y4.5699
G01 X59.0808 Y6.0474
G01 X59.0494 Y6.0823
G01 X59.0180 Y6.1247
G01 X58.9909 Y6.1699
G01 X58.9707 Y6.2122
G01 X58.9672 Y6.2204
G01 X58.9506 Y6.2671
G01 X58.9378 Y6.3182
G01 X58.9300 Y6.3704
G01 X58.9276 Y6.4172
G01 X58.9275 Y6.4310
G01 X58.8989 Y6.4482
G01 X58.8914 Y6.4530
G01 X58.8154 Y6.5094
G01 X58.8087 Y6.5150
G01 X58.7426 Y6.5750
G01 X58.7362 Y6.5812
G01 X58.6707 Y6.6536
G01 X58.6140 Y6.7298
G01 X58.6076 Y6.7394
G01 X58.5617 Y6.8160
G01 X58.5575 Y6.8237
G01 X58.5158 Y6.9121
G01 X58.4819 Y7.0069
G01 X58.4574 Y7.1047
G01 X58.4433 Y7.1986
G01 X58.4422 Y7.2101
G01 X58.4378 Y7.2992
G01 X58.4378 Y7.3108
G01 X58.4426 Y7.4056
G01 X58.4574 Y7.5053
G01 X58.4819 Y7.6031
G01 X58.5137 Y7.6926
G01 X58.5181 Y7.7032
G01 X58.5563 Y7.7839
G01 X58.5617 Y7.7940
G01 X58.6107 Y7.8755
G01 X58.6707 Y7.9564
G01 X58.7384 Y8.0311
G01 X58.8131 Y8.0987
G01 X58.8940 Y8.1588
G01 X58.9804 Y8.2106
G01 X59.0715 Y8.2536
G01 X59.1664 Y8.2876
G01 X59.2641 Y8.3121
G01 X59.3638 Y8.3269
G01 X59.4645 Y8.3318
G01 X59.5651 Y8.3269
G01 X59.6648 Y8.3121
G01 X59.7625 Y8.2876
G01 X59.8574 Y8.2536
G01 X59.9485 Y8.2106
G01 X60.0349 Y8.1588
G01 X60.1159 Y8.0987
G01 X60.1905 Y8.0311
G01 X60.2582 Y7.9564
G01 X60.3182 Y7.8755
G01 X60.3700 Y7.7890
G01 X60.4131 Y7.6979
G01 X60.4471 Y7.6031
G01 X60.4715 Y7.5053
G01 X60.4863 Y7.4056
G01 X60.4913 Y7.3050
G01 X60.4863 Y7.2044
G01 X60.4715 Y7.1047
G01 X60.4471 Y7.0069
G01 X60.4131 Y6.9121
G01 X60.3700 Y6.8210
G01 X60.3182 Y6.7345
G01 X60.2581 Y6.6535
G01 X60.1905 Y6.5789
G01 X60.1263 Y6.5206
G00 Z2.0000
M05
G00 Z2.0000
G00 Z15.00

