(G-CODE GENERATED BY FLATCAM v8.993 - www.flatcam.org - Version Date: 2020/06/05)

(Name: Function_Generator-B_Cu.gbr_iso_combined_cnc)
(Type: G-code from Geometry)
(Units: MM)

(Created on Saturday, 16 August 2025 at 13:36)

(This preprocessor is the default preprocessor used by FlatCAM.)
(It is made to work with MACH3 compatible motion controllers.)

(TOOL DIAMETER: 0.1536 mm)
(Feedrate_XY: 120.0 mm/min)
(Feedrate_Z: 60.0 mm/min)
(Feedrate rapids 1500.0 mm/min)

(Z_Cut: -0.1 mm)
(Z_Move: 2.0 mm)
(Z Start: None mm)
(Z End: 15.0 mm)
(Steps per circle: 64)
(Preprocessor Geometry: default)

(X range:    3.2040 ...   88.7250  mm)
(Y range:    6.0895 ...   57.7495  mm)

(Spindle Speed: None RPM)
G21
G90
G94



G01 F120.00
G00 Z2.0000

M03
G00 X14.2854 Y13.2555
G01 F60.00
G01 Z-0.1000
G01 F120.00
G01 X14.2724 Y13.3443
G01 X14.2677 Y13.4400
G01 X14.2724 Y13.5357
G01 X14.2864 Y13.6306
G01 X14.3096 Y13.7233
G01 X14.3420 Y13.8138
G01 X14.3830 Y13.9005
G01 X14.4323 Y13.9827
G01 X14.4894 Y14.0597
G01 X14.5538 Y14.1307
G01 X14.6248 Y14.1951
G01 X14.7018 Y14.2522
G01 X14.7840 Y14.3015
G01 X14.8707 Y14.3425
G01 X14.9609 Y14.3747
G01 X15.0539 Y14.3980
G01 X15.1487 Y14.4121
G01 X15.2445 Y14.4168
G01 X15.3402 Y14.4121
G01 X15.4350 Y14.3980
G01 X15.5278 Y14.3748
G01 X15.6183 Y14.3425
G01 X15.7049 Y14.3015
G01 X15.7872 Y14.2522
G01 X15.8641 Y14.1951
G01 X15.9352 Y14.1307
G01 X15.9995 Y14.0597
G01 X16.0567 Y13.9827
G01 X16.1059 Y13.9005
G01 X16.1469 Y13.8138
G01 X16.1792 Y13.7236
G01 X16.2025 Y13.6306
G01 X16.2166 Y13.5357
G01 X16.2213 Y13.4400
G01 X16.2166 Y13.3443
G01 X16.2024 Y13.2491
G01 X16.1793 Y13.1567
G01 X16.1469 Y13.0662
G01 X16.1059 Y12.9795
G01 X16.0567 Y12.8973
G01 X15.9995 Y12.8203
G01 X15.9352 Y12.7493
G01 X15.8641 Y12.6849
G01 X15.7872 Y12.6278
G01 X15.7049 Y12.5785
G01 X15.6183 Y12.5375
G01 X15.5280 Y12.5053
G01 X15.4353 Y12.4820
G01 X15.3402 Y12.4679
G01 X15.2445 Y12.4632
G01 X15.1487 Y12.4679
G01 X15.0539 Y12.4820
G01 X14.9609 Y12.5053
G01 X14.8707 Y12.5375
G01 X14.7840 Y12.5785
G01 X14.7018 Y12.6278
G01 X14.6248 Y12.6849
G01 X14.5538 Y12.7493
G01 X14.4894 Y12.8203
G01 X14.4323 Y12.8973
G01 X14.3830 Y12.9795
G01 X14.3420 Y13.0662
G01 X14.3107 Y13.1535
G01 X14.3035 Y13.1806
G01 X14.2966 Y13.1796
G01 X14.2854 Y13.2555
G00 Z2.0000
G00 X14.4931 Y17.9118
G01 F60.00
G01 Z-0.1000
G01 F120.00
G01 X14.4406 Y17.9829
G01 X14.3946 Y18.0592
G01 X14.3892 Y18.0694
G01 X14.3536 Y18.1448
G01 X14.3492 Y18.1554
G01 X14.3193 Y18.2394
G01 X14.2975 Y18.3258
G01 X14.2952 Y18.3371
G01 X14.2823 Y18.4252
G01 X14.2777 Y18.5200
G01 X14.2823 Y18.6148
G01 X14.2962 Y18.7086
G01 X14.3193 Y18.8006
G01 X14.3492 Y18.8846
G01 X14.3536 Y18.8952
G01 X14.3892 Y18.9706
G01 X14.3946 Y18.9808
G01 X14.4406 Y19.0571
G01 X14.4936 Y19.1288
G01 X14.5009 Y19.1377
G01 X14.5608 Y19.2036
G01 X14.6311 Y19.2674
G01 X14.7073 Y19.3239
G01 X14.7887 Y19.3726
G01 X14.8745 Y19.4132
G01 X14.9638 Y19.4452
G01 X15.0559 Y19.4682
G01 X15.1497 Y19.4822
G01 X15.2445 Y19.4868
G01 X15.3392 Y19.4822
G01 X15.4331 Y19.4682
G01 X15.5196 Y19.4467
G01 X15.5306 Y19.4434
G01 X15.6091 Y19.4153
G01 X15.6197 Y19.4109
G01 X15.7002 Y19.3726
G01 X15.7767 Y19.3270
G01 X15.7863 Y19.3206
G01 X15.8578 Y19.2674
G01 X15.9281 Y19.2036
G01 X15.9918 Y19.1333
G01 X16.0484 Y19.0570
G01 X17.7616 Y19.0570
G01 X19.0775 Y20.3729
G01 X19.0775 Y27.3005
G01 X19.0800 Y27.3526
G01 X19.0878 Y27.4048
G01 X19.1006 Y27.4559
G01 X19.1163 Y27.5001
G01 X19.1207 Y27.5108
G01 X19.1409 Y27.5531
G01 X19.1649 Y27.5935
G01 X19.1713 Y27.6031
G01 X19.1994 Y27.6407
G01 X19.2326 Y27.6775
G01 X20.9151 Y29.3601
G01 X20.9538 Y29.3951
G01 X20.9936 Y29.4247
G01 X21.0010 Y29.4296
G01 X21.0363 Y29.4508
G01 X21.0465 Y29.4562
G01 X21.0890 Y29.4761
G01 X21.1331 Y29.4921
G01 X21.1441 Y29.4954
G01 X21.1897 Y29.5067
G01 X21.2361 Y29.5137
G01 X21.2449 Y29.5147
G01 X21.2940 Y29.5170
G01 X22.3430 Y29.5170
G01 X22.3996 Y29.5933
G01 X22.4633 Y29.6636
G01 X22.5336 Y29.7274
G01 X22.6051 Y29.7806
G01 X22.6147 Y29.7870
G01 X22.6912 Y29.8326
G01 X22.7717 Y29.8709
G01 X22.7824 Y29.8753
G01 X22.8609 Y29.9034
G01 X22.8719 Y29.9067
G01 X22.9584 Y29.9282
G01 X23.0491 Y29.9418
G01 X23.0579 Y29.9426
G01 X23.1470 Y29.9468
G01 X23.2417 Y29.9422
G01 X23.3356 Y29.9282
G01 X23.4246 Y29.9060
G01 X23.4331 Y29.9034
G01 X23.5169 Y29.8732
G01 X23.6000 Y29.8341
G01 X23.6077 Y29.8298
G01 X23.6815 Y29.7856
G01 X23.6888 Y29.7806
G01 X23.7157 Y29.7606
G01 X26.3370 Y32.3819
G01 X26.3738 Y32.4151
G01 X26.4114 Y32.4432
G01 X26.4210 Y32.4496
G01 X26.4613 Y32.4736
G01 X26.5037 Y32.4938
G01 X26.5143 Y32.4982
G01 X26.5586 Y32.5139
G01 X26.6067 Y32.5260
G01 X26.6154 Y32.5277
G01 X26.6618 Y32.5344
G01 X26.7140 Y32.5370
G01 X35.3149 Y32.5370
G01 X35.3614 Y32.5349
G01 X35.3728 Y32.5337
G01 X35.4136 Y32.5277
G01 X35.4248 Y32.5254
G01 X35.4704 Y32.5139
G01 X35.5146 Y32.4982
G01 X35.5252 Y32.4938
G01 X35.5676 Y32.4736
G01 X35.6128 Y32.4465
G01 X35.6551 Y32.4151
G01 X35.6920 Y32.3819
G01 X37.9431 Y30.1307
G01 X37.9726 Y30.0983
G01 X37.9799 Y30.0894
G01 X38.0077 Y30.0516
G01 X38.0320 Y30.0114
G01 X38.0374 Y30.0013
G01 X38.0573 Y29.9588
G01 X38.0751 Y29.9091
G01 X38.0867 Y29.8636
G01 X38.0889 Y29.8523
G01 X38.0956 Y29.8059
G01 X38.0982 Y29.7537
G01 X38.0982 Y18.5990
G01 X38.1268 Y18.5818
G01 X38.1342 Y18.5770
G01 X38.2081 Y18.5223
G01 X38.2150 Y18.5167
G01 X38.2873 Y18.4511
G01 X38.3529 Y18.3788
G01 X38.3585 Y18.3719
G01 X38.4117 Y18.3002
G01 X38.4181 Y18.2906
G01 X38.4668 Y18.2090
G01 X38.5099 Y18.1179
G01 X38.5438 Y18.0231
G01 X38.5670 Y17.9309
G01 X38.5693 Y17.9197
G01 X38.5824 Y17.8314
G01 X38.5833 Y17.8225
G01 X38.5880 Y17.7250
G01 X38.5833 Y17.6275
G01 X38.5824 Y17.6186
G01 X38.5689 Y17.5277
G01 X38.5670 Y17.5191
G01 X38.5589 Y17.4867
G01 X40.6087 Y15.4370
G01 X54.8920 Y15.4370
G01 X56.8750 Y17.4200
G01 X52.1844 Y22.1106
G01 X52.1494 Y22.1493
G01 X52.1213 Y22.1869
G01 X52.1149 Y22.1965
G01 X52.0909 Y22.2369
G01 X52.0707 Y22.2792
G01 X52.0663 Y22.2899
G01 X52.0524 Y22.3286
G01 X52.0490 Y22.3397
G01 X52.0390 Y22.3796
G01 X52.0368 Y22.3909
G01 X52.0300 Y22.4374
G01 X52.0275 Y22.4895
G01 X52.0275 Y33.5526
G01 X50.3082 Y35.2718
G01 X50.2453 Y35.2627
G01 X50.1545 Y35.2582
G01 X50.0636 Y35.2627
G01 X49.9793 Y35.2750
G01 X49.9680 Y35.2773
G01 X49.8910 Y35.2966
G01 X49.8800 Y35.2999
G01 X49.7998 Y35.3287
G01 X49.7203 Y35.3662
G01 X49.7126 Y35.3705
G01 X49.6444 Y35.4113
G01 X49.6349 Y35.4177
G01 X49.5665 Y35.4686
G01 X49.4991 Y35.5296
G01 X49.4418 Y35.5927
G01 X49.4345 Y35.6016
G01 X49.3839 Y35.6701
G01 X49.3386 Y35.7454
G01 X49.3345 Y35.7532
G01 X49.2982 Y35.8303
G01 X49.2694 Y35.9105
G01 X49.2660 Y35.9215
G01 X49.2455 Y36.0042
G01 X49.2328 Y36.0884
G01 X49.2317 Y36.0999
G01 X49.2277 Y36.1850
G01 X49.2317 Y36.2701
G01 X49.2328 Y36.2816
G01 X49.2455 Y36.3658
G01 X49.2660 Y36.4485
G01 X49.2694 Y36.4595
G01 X49.2982 Y36.5397
G01 X49.3371 Y36.6219
G01 X49.3808 Y36.6950
G01 X49.3872 Y36.7046
G01 X49.4380 Y36.7730
G01 X49.4951 Y36.8362
G01 X49.5033 Y36.8443
G01 X49.5665 Y36.9014
G01 X49.6396 Y36.9556
G01 X49.7176 Y37.0024
G01 X49.7945 Y37.0389
G01 X49.8052 Y37.0433
G01 X49.8851 Y37.0718
G01 X49.9680 Y37.0927
G01 X49.9793 Y37.0950
G01 X50.0636 Y37.1073
G01 X50.1545 Y37.1118
G01 X50.2396 Y37.1078
G01 X50.2510 Y37.1066
G01 X50.3353 Y37.0940
G01 X50.4180 Y37.0734
G01 X50.4290 Y37.0701
G01 X50.5038 Y37.0433
G01 X50.5144 Y37.0389
G01 X50.5914 Y37.0024
G01 X50.6694 Y36.9556
G01 X50.7424 Y36.9014
G01 X50.8057 Y36.8443
G01 X50.8120 Y36.8381
G01 X50.8671 Y36.7773
G01 X50.8744 Y36.7684
G01 X50.9251 Y36.6999
G01 X50.9690 Y36.6269
G01 X50.9744 Y36.6168
G01 X51.0107 Y36.5397
G01 X51.0405 Y36.4569
G01 X51.0429 Y36.4484
G01 X51.0635 Y36.3658
G01 X51.0761 Y36.2816
G01 X51.0771 Y36.2727
G01 X51.0811 Y36.1908
G01 X51.0811 Y36.1792
G01 X51.0768 Y36.0942
G01 X51.0676 Y36.0313
G01 X52.9464 Y34.1525
G01 X52.9796 Y34.1157
G01 X53.0077 Y34.0781
G01 X53.0141 Y34.0685
G01 X53.0381 Y34.0281
G01 X53.0583 Y33.9858
G01 X53.0627 Y33.9751
G01 X53.0784 Y33.9309
G01 X53.0912 Y33.8798
G01 X53.0989 Y33.8276
G01 X53.1015 Y33.7755
G01 X53.1015 Y22.7124
G01 X57.6345 Y18.1794
G01 X62.5248 Y23.0698
G01 X62.5248 Y39.7232
G01 X62.1613 Y39.7232
G01 X62.1463 Y39.7241
G01 X62.1310 Y39.7270
G01 X62.1191 Y39.7306
G01 X62.1104 Y39.7341
G01 X62.1020 Y39.7382
G01 X62.0914 Y39.7446
G01 X62.0814 Y39.7520
G01 X62.0744 Y39.7582
G01 X62.0679 Y39.7648
G01 X62.0618 Y39.7720
G01 X62.0547 Y39.7822
G01 X62.0500 Y39.7902
G01 X62.0459 Y39.7986
G01 X62.0424 Y39.8073
G01 X62.0388 Y39.8192
G01 X62.0369 Y39.8283
G01 X62.0356 Y39.8376
G01 X62.0350 Y39.8495
G01 X62.0350 Y41.6505
G01 X62.0354 Y41.6593
G01 X62.0364 Y41.6686
G01 X62.0381 Y41.6778
G01 X62.0405 Y41.6868
G01 X62.0435 Y41.6956
G01 X62.0472 Y41.7042
G01 X62.0515 Y41.7125
G01 X62.0564 Y41.7204
G01 X62.0618 Y41.7280
G01 X62.0700 Y41.7374
G01 X62.0767 Y41.7440
G01 X62.0838 Y41.7500
G01 X62.0914 Y41.7554
G01 X62.0993 Y41.7603
G01 X62.1076 Y41.7646
G01 X62.1162 Y41.7683
G01 X62.1250 Y41.7713
G01 X62.1340 Y41.7737
G01 X62.1463 Y41.7759
G01 X62.1613 Y41.7768
G01 X62.5248 Y41.7768
G01 X62.5248 Y42.9802
G01 X62.2370 Y43.2680
G01 X58.5289 Y43.2680
G01 X58.4909 Y43.2170
G01 X58.4338 Y43.1538
G01 X58.4257 Y43.1457
G01 X58.3624 Y43.0886
G01 X58.2941 Y43.0377
G01 X58.2845 Y43.0313
G01 X58.2114 Y42.9876
G01 X58.1320 Y42.9500
G01 X58.1238 Y42.9467
G01 X58.0490 Y42.9199
G01 X58.0380 Y42.9166
G01 X57.9553 Y42.8960
G01 X57.8710 Y42.8834
G01 X57.8596 Y42.8822
G01 X57.7745 Y42.8782
G01 X57.6894 Y42.8822
G01 X57.6779 Y42.8834
G01 X57.5937 Y42.8960
G01 X57.5054 Y42.9181
G01 X57.4198 Y42.9487
G01 X57.3376 Y42.9876
G01 X57.2596 Y43.0344
G01 X57.1865 Y43.0886
G01 X57.1191 Y43.1496
G01 X57.0618 Y43.2127
G01 X57.0545 Y43.2216
G01 X57.0072 Y43.2854
G01 X57.0008 Y43.2950
G01 X56.9571 Y43.3681
G01 X56.9205 Y43.4451
G01 X56.9161 Y43.4557
G01 X56.8876 Y43.5360
G01 X56.8655 Y43.6242
G01 X56.8521 Y43.7142
G01 X56.8477 Y43.8050
G01 X56.8521 Y43.8958
G01 X56.8655 Y43.9858
G01 X56.8876 Y44.0740
G01 X56.9182 Y44.1597
G01 X56.9571 Y44.2419
G01 X57.0039 Y44.3199
G01 X57.0580 Y44.3930
G01 X57.1151 Y44.4562
G01 X57.1233 Y44.4643
G01 X57.1865 Y44.5214
G01 X57.2549 Y44.5723
G01 X57.2644 Y44.5787
G01 X57.3326 Y44.6195
G01 X57.3427 Y44.6250
G01 X57.4198 Y44.6613
G01 X57.5057 Y44.6920
G01 X57.5937 Y44.7140
G01 X57.6836 Y44.7273
G01 X57.7687 Y44.7317
G01 X57.7802 Y44.7317
G01 X57.8653 Y44.7273
G01 X57.9496 Y44.7150
G01 X57.9609 Y44.7127
G01 X58.0435 Y44.6919
G01 X58.1238 Y44.6633
G01 X58.1320 Y44.6600
G01 X58.2114 Y44.6224
G01 X58.2845 Y44.5787
G01 X58.2941 Y44.5723
G01 X58.3624 Y44.5214
G01 X58.4257 Y44.4643
G01 X58.4338 Y44.4562
G01 X58.4909 Y44.3930
G01 X58.5289 Y44.3420
G01 X62.4599 Y44.3420
G01 X62.5090 Y44.3397
G01 X62.5248 Y44.3377
G01 X62.5248 Y45.6302
G01 X58.5444 Y49.6106
G01 X58.5114 Y49.6469
G01 X58.5058 Y49.6539
G01 X58.4813 Y49.6869
G01 X58.4749 Y49.6965
G01 X58.4509 Y49.7369
G01 X58.4307 Y49.7792
G01 X58.4263 Y49.7899
G01 X58.4106 Y49.8341
G01 X58.3990 Y49.8796
G01 X58.3968 Y49.8909
G01 X58.3900 Y49.9374
G01 X58.3875 Y49.9869
G01 X58.3875 Y50.4310
G01 X58.3589 Y50.4482
G01 X58.3514 Y50.4530
G01 X58.2776 Y50.5077
G01 X58.2705 Y50.5134
G01 X58.1984 Y50.5789
G01 X58.1345 Y50.6492
G01 X58.1288 Y50.6560
G01 X58.0707 Y50.7346
G01 X58.0189 Y50.8210
G01 X57.9758 Y50.9121
G01 X57.9419 Y51.0069
G01 X57.9186 Y51.0991
G01 X57.9164 Y51.1103
G01 X57.9026 Y51.2044
G01 X57.8977 Y51.3019
G01 X57.8978 Y51.3108
G01 X57.9022 Y51.3999
G01 X57.9029 Y51.4087
G01 X57.9168 Y51.5023
G01 X57.9186 Y51.5109
G01 X57.9267 Y51.5433
G01 X54.9570 Y54.5130
G01 X46.9369 Y54.5130
G01 X43.7015 Y51.2776
G01 X43.7015 Y39.7995
G01 X43.6993 Y39.7531
G01 X43.6985 Y39.7443
G01 X43.6912 Y39.6952
G01 X43.6799 Y39.6497
G01 X43.6766 Y39.6386
G01 X43.6627 Y39.5999
G01 X43.6583 Y39.5892
G01 X43.6381 Y39.5469
G01 X43.6110 Y39.5017
G01 X43.5796 Y39.4593
G01 X43.5464 Y39.4225
G01 X42.1420 Y38.0181
G01 X42.1051 Y37.9849
G01 X42.0675 Y37.9568
G01 X42.0580 Y37.9504
G01 X42.0176 Y37.9264
G01 X41.9752 Y37.9062
G01 X41.9646 Y37.9018
G01 X41.9233 Y37.8871
G01 X41.9148 Y37.8846
G01 X41.8748 Y37.8746
G01 X41.8636 Y37.8723
G01 X41.8171 Y37.8656
G01 X41.7649 Y37.8630
G01 X38.4614 Y37.8630
G01 X38.4118 Y37.8656
G01 X38.3654 Y37.8723
G01 X38.3541 Y37.8746
G01 X38.3086 Y37.8861
G01 X38.2643 Y37.9018
G01 X38.2537 Y37.9062
G01 X38.2113 Y37.9264
G01 X38.1661 Y37.9535
G01 X38.1238 Y37.9849
G01 X38.0851 Y38.0199
G01 X31.1620 Y44.9430
G01 X26.6834 Y44.9430
G01 X26.6268 Y44.8667
G01 X26.5671 Y44.8005
G01 X26.5589 Y44.7924
G01 X26.4929 Y44.7327
G01 X26.4213 Y44.6794
G01 X26.4117 Y44.6730
G01 X26.3352 Y44.6274
G01 X26.2547 Y44.5891
G01 X26.2441 Y44.5847
G01 X26.1601 Y44.5548
G01 X26.0737 Y44.5330
G01 X26.0624 Y44.5308
G01 X25.9742 Y44.5178
G01 X25.8852 Y44.5133
G01 X25.8764 Y44.5132
G01 X25.7847 Y44.5178
G01 X25.6965 Y44.5308
G01 X25.6852 Y44.5330
G01 X25.5988 Y44.5548
G01 X25.5149 Y44.5847
G01 X25.5042 Y44.5891
G01 X25.4237 Y44.6274
G01 X25.3472 Y44.6730
G01 X25.3376 Y44.6794
G01 X25.2661 Y44.7326
G01 X25.2000 Y44.7924
G01 X25.1919 Y44.8005
G01 X25.1322 Y44.8666
G01 X25.0789 Y44.9382
G01 X25.0725 Y44.9477
G01 X25.0296 Y45.0192
G01 X25.0254 Y45.0270
G01 X24.9886 Y45.1048
G01 X24.9842 Y45.1154
G01 X24.9543 Y45.1994
G01 X24.9325 Y45.2858
G01 X24.9302 Y45.2971
G01 X24.9173 Y45.3852
G01 X24.9127 Y45.4800
G01 X24.9173 Y45.5748
G01 X24.9302 Y45.6629
G01 X24.9325 Y45.6742
G01 X24.9543 Y45.7606
G01 X24.9842 Y45.8446
G01 X24.9886 Y45.8552
G01 X25.0268 Y45.9357
G01 X25.0756 Y46.0171
G01 X25.1286 Y46.0888
G01 X25.1359 Y46.0977
G01 X25.1958 Y46.1636
G01 X25.2618 Y46.2236
G01 X25.2707 Y46.2309
G01 X25.3423 Y46.2839
G01 X25.4237 Y46.3326
G01 X25.5042 Y46.3709
G01 X25.5149 Y46.3753
G01 X25.5988 Y46.4052
G01 X25.6852 Y46.4270
G01 X25.6965 Y46.4292
G01 X25.7790 Y46.4415
G01 X25.7904 Y46.4426
G01 X25.8737 Y46.4467
G01 X25.8852 Y46.4467
G01 X25.9742 Y46.4422
G01 X26.0624 Y46.4292
G01 X26.0737 Y46.4270
G01 X26.1601 Y46.4052
G01 X26.2441 Y46.3753
G01 X26.2547 Y46.3709
G01 X26.3352 Y46.3326
G01 X26.4117 Y46.2870
G01 X26.4213 Y46.2806
G01 X26.4928 Y46.2274
G01 X26.5631 Y46.1636
G01 X26.6231 Y46.0977
G01 X26.6304 Y46.0888
G01 X26.6834 Y46.0170
G01 X31.3849 Y46.0170
G01 X31.4371 Y46.0144
G01 X31.4892 Y46.0067
G01 X31.5404 Y45.9939
G01 X31.5846 Y45.9782
G01 X31.5952 Y45.9738
G01 X31.6376 Y45.9536
G01 X31.6828 Y45.9265
G01 X31.7251 Y45.8951
G01 X31.7639 Y45.8601
G01 X38.6869 Y38.9370
G01 X41.5420 Y38.9370
G01 X42.6275 Y40.0224
G01 X42.6275 Y51.5005
G01 X42.6300 Y51.5526
G01 X42.6368 Y51.5991
G01 X42.6390 Y51.6104
G01 X42.6506 Y51.6559
G01 X42.6683 Y51.7055
G01 X42.6883 Y51.7480
G01 X42.6937 Y51.7582
G01 X42.7180 Y51.7983
G01 X42.7458 Y51.8361
G01 X42.7531 Y51.8450
G01 X42.7844 Y51.8794
G01 X46.3351 Y55.4301
G01 X46.3738 Y55.4651
G01 X46.4114 Y55.4932
G01 X46.4210 Y55.4996
G01 X46.4613 Y55.5236
G01 X46.5037 Y55.5438
G01 X46.5143 Y55.5482
G01 X46.5586 Y55.5639
G01 X46.6097 Y55.5767
G01 X46.6618 Y55.5844
G01 X46.7140 Y55.5870
G01 X55.1799 Y55.5870
G01 X55.2264 Y55.5849
G01 X55.2378 Y55.5837
G01 X55.2842 Y55.5767
G01 X55.3324 Y55.5648
G01 X55.3408 Y55.5621
G01 X55.3850 Y55.5461
G01 X55.4275 Y55.5262
G01 X55.4376 Y55.5208
G01 X55.4778 Y55.4965
G01 X55.5156 Y55.4687
G01 X55.5245 Y55.4614
G01 X55.5570 Y55.4319
G01 X58.6862 Y52.3027
G01 X58.7185 Y52.3108
G01 X58.7272 Y52.3126
G01 X58.8181 Y52.3262
G01 X58.8269 Y52.3271
G01 X58.9245 Y52.3318
G01 X59.0220 Y52.3271
G01 X59.0308 Y52.3262
G01 X59.1191 Y52.3131
G01 X59.1304 Y52.3108
G01 X59.2225 Y52.2876
G01 X59.3145 Y52.2548
G01 X59.3227 Y52.2513
G01 X59.4034 Y52.2132
G01 X59.4135 Y52.2077
G01 X59.4949 Y52.1588
G01 X59.5759 Y52.0987
G01 X59.6464 Y52.0350
G01 X59.6545 Y52.0269
G01 X59.7182 Y51.9564
G01 X59.7765 Y51.8780
G01 X59.7813 Y51.8706
G01 X59.8300 Y51.7890
G01 X59.8731 Y51.6979
G01 X59.9071 Y51.6031
G01 X59.9315 Y51.5053
G01 X59.9463 Y51.4056
G01 X59.9513 Y51.3050
G01 X59.9463 Y51.2044
G01 X59.9315 Y51.1047
G01 X59.9071 Y51.0069
G01 X59.8731 Y50.9121
G01 X59.8300 Y50.8210
G01 X59.7813 Y50.7394
G01 X59.7765 Y50.7320
G01 X59.7181 Y50.6535
G01 X59.6545 Y50.5831
G01 X59.6483 Y50.5768
G01 X59.5802 Y50.5150
G01 X59.5734 Y50.5093
G01 X59.4975 Y50.4530
G01 X59.4901 Y50.4482
G01 X59.4615 Y50.4310
G01 X59.4615 Y50.2124
G01 X63.4437 Y46.2301
G01 X63.4769 Y46.1933
G01 X63.5050 Y46.1557
G01 X63.5114 Y46.1461
G01 X63.5354 Y46.1058
G01 X63.5579 Y46.0582
G01 X63.5739 Y46.0140
G01 X63.5772 Y46.0030
G01 X63.5873 Y45.9630
G01 X63.5891 Y45.9544
G01 X63.5962 Y45.9053
G01 X63.5988 Y45.8531
G01 X63.5988 Y41.7768
G01 X63.9623 Y41.7768
G01 X63.9773 Y41.7759
G01 X63.9926 Y41.7730
G01 X64.0016 Y41.7704
G01 X64.0132 Y41.7659
G01 X64.0216 Y41.7618
G01 X64.0297 Y41.7571
G01 X64.0398 Y41.7500
G01 X64.0470 Y41.7440
G01 X64.0537 Y41.7374
G01 X64.0618 Y41.7280
G01 X64.0673 Y41.7204
G01 X64.0721 Y41.7125
G01 X64.0764 Y41.7042
G01 X64.0812 Y41.6927
G01 X64.0840 Y41.6838
G01 X64.0868 Y41.6717
G01 X64.0880 Y41.6624
G01 X64.0886 Y41.6505
G01 X64.0886 Y39.8495
G01 X64.0877 Y39.8345
G01 X64.0848 Y39.8192
G01 X64.0822 Y39.8102
G01 X64.0790 Y39.8015
G01 X64.0721 Y39.7875
G01 X64.0673 Y39.7796
G01 X64.0618 Y39.7720
G01 X64.0558 Y39.7648
G01 X64.0493 Y39.7582
G01 X64.0423 Y39.7520
G01 X64.0348 Y39.7463
G01 X64.0216 Y39.7382
G01 X64.0132 Y39.7341
G01 X64.0045 Y39.7306
G01 X63.9956 Y39.7278
G01 X63.9866 Y39.7256
G01 X63.9742 Y39.7238
G01 X63.9623 Y39.7232
G01 X63.5988 Y39.7232
G01 X63.5988 Y30.8670
G01 X73.8405 Y30.8670
G01 X73.8576 Y30.8956
G01 X73.8625 Y30.9030
G01 X73.9188 Y30.9790
G01 X73.9245 Y30.9858
G01 X73.9844 Y31.0519
G01 X73.9906 Y31.0582
G01 X74.0587 Y31.1200
G01 X74.0676 Y31.1273
G01 X74.1440 Y31.1838
G01 X74.2277 Y31.2341
G01 X74.2356 Y31.2382
G01 X74.3215 Y31.2786
G01 X74.4109 Y31.3108
G01 X74.4219 Y31.3141
G01 X74.5141 Y31.3371
G01 X74.6081 Y31.3512
G01 X74.6196 Y31.3523
G01 X74.7087 Y31.3567
G01 X74.7176 Y31.3568
G01 X74.8151 Y31.3519
G01 X74.9148 Y31.3371
G01 X75.0125 Y31.3126
G01 X75.1020 Y31.2807
G01 X75.1127 Y31.2763
G01 X75.1934 Y31.2382
G01 X75.2035 Y31.2327
G01 X75.2849 Y31.1838
G01 X75.3659 Y31.1237
G01 X75.4405 Y31.0561
G01 X75.5082 Y30.9814
G01 X75.5682 Y30.9005
G01 X75.6172 Y30.8190
G01 X75.6226 Y30.8089
G01 X75.6608 Y30.7282
G01 X75.6652 Y30.7176
G01 X75.6971 Y30.6281
G01 X75.7215 Y30.5303
G01 X75.7363 Y30.4306
G01 X75.7413 Y30.3300
G01 X75.7363 Y30.2294
G01 X75.7225 Y30.1353
G01 X75.7203 Y30.1241
G01 X75.6971 Y30.0319
G01 X75.6652 Y29.9424
G01 X75.6608 Y29.9318
G01 X75.6226 Y29.8511
G01 X75.6172 Y29.8410
G01 X75.5681 Y29.7594
G01 X75.5117 Y29.6831
G01 X75.5044 Y29.6742
G01 X75.4405 Y29.6039
G01 X75.3659 Y29.5363
G01 X75.2849 Y29.4762
G01 X75.1985 Y29.4244
G01 X75.1074 Y29.3814
G01 X75.0125 Y29.3474
G01 X74.9148 Y29.3229
G01 X74.8208 Y29.3088
G01 X74.8094 Y29.3077
G01 X74.7145 Y29.3032
G01 X74.6196 Y29.3077
G01 X74.6081 Y29.3088
G01 X74.5141 Y29.3229
G01 X74.4219 Y29.3459
G01 X74.4109 Y29.3492
G01 X74.3215 Y29.3814
G01 X74.2332 Y29.4230
G01 X74.2254 Y29.4273
G01 X74.1489 Y29.4732
G01 X74.1393 Y29.4796
G01 X74.0629 Y29.5364
G01 X73.9906 Y29.6018
G01 X73.9844 Y29.6081
G01 X73.9245 Y29.6742
G01 X73.9188 Y29.6810
G01 X73.8625 Y29.7570
G01 X73.8576 Y29.7644
G01 X73.8405 Y29.7930
G01 X63.5988 Y29.7930
G01 X63.5988 Y22.8469
G01 X63.5967 Y22.8004
G01 X63.5955 Y22.7890
G01 X63.5885 Y22.7426
G01 X63.5772 Y22.6970
G01 X63.5739 Y22.6860
G01 X63.5579 Y22.6418
G01 X63.5354 Y22.5942
G01 X63.5114 Y22.5539
G01 X63.5050 Y22.5443
G01 X63.4769 Y22.5067
G01 X63.4419 Y22.4680
G01 X55.4939 Y14.5199
G01 X55.4551 Y14.4849
G01 X55.4175 Y14.4568
G01 X55.4080 Y14.4504
G01 X55.3676 Y14.4264
G01 X55.3252 Y14.4062
G01 X55.3146 Y14.4018
G01 X55.2704 Y14.3861
G01 X55.2192 Y14.3733
G01 X55.1671 Y14.3656
G01 X55.1149 Y14.3630
G01 X40.3857 Y14.3630
G01 X40.3393 Y14.3651
G01 X40.3279 Y14.3663
G01 X40.2815 Y14.3733
G01 X40.2303 Y14.3861
G01 X40.1807 Y14.4039
G01 X40.1382 Y14.4238
G01 X40.1281 Y14.4292
G01 X40.0927 Y14.4504
G01 X40.0832 Y14.4568
G01 X40.0455 Y14.4849
G01 X40.0087 Y14.5181
G01 X37.7995 Y16.7273
G01 X37.7672 Y16.7192
G01 X37.7585 Y16.7174
G01 X37.6650 Y16.7035
G01 X37.6561 Y16.7027
G01 X37.5643 Y16.6982
G01 X37.5555 Y16.6983
G01 X37.4606 Y16.7031
G01 X37.3666 Y16.7169
G01 X37.3579 Y16.7186
G01 X37.2687 Y16.7409
G01 X37.2577 Y16.7442
G01 X37.1683 Y16.7764
G01 X37.0823 Y16.8168
G01 X37.0722 Y16.8223
G01 X36.9908 Y16.8712
G01 X36.9143 Y16.9277
G01 X36.9073 Y16.9334
G01 X36.8352 Y16.9989
G01 X36.7712 Y17.0692
G01 X36.7639 Y17.0781
G01 X36.7074 Y17.1546
G01 X36.6585 Y17.2360
G01 X36.6531 Y17.2461
G01 X36.6149 Y17.3268
G01 X36.6105 Y17.3374
G01 X36.5786 Y17.4269
G01 X36.5541 Y17.5247
G01 X36.5394 Y17.6244
G01 X36.5344 Y17.7250
G01 X36.5389 Y17.8199
G01 X36.5401 Y17.8314
G01 X36.5541 Y17.9253
G01 X36.5771 Y18.0175
G01 X36.5804 Y18.0285
G01 X36.6126 Y18.1179
G01 X36.6531 Y18.2039
G01 X36.6572 Y18.2118
G01 X36.7075 Y18.2955
G01 X36.7639 Y18.3719
G01 X36.7712 Y18.3808
G01 X36.8330 Y18.4488
G01 X36.8393 Y18.4550
G01 X36.9055 Y18.5150
G01 X36.9122 Y18.5207
G01 X36.9882 Y18.5770
G01 X36.9956 Y18.5818
G01 X37.0242 Y18.5990
G01 X37.0242 Y29.5308
G01 X35.0920 Y31.4630
G01 X26.9369 Y31.4630
G01 X24.0739 Y28.5999
G01 X24.0375 Y28.5669
G01 X24.0306 Y28.5613
G01 X24.0101 Y28.5462
G01 X23.9981 Y28.5215
G01 X23.9539 Y28.4477
G01 X23.9491 Y28.4403
G01 X23.8943 Y28.3667
G01 X23.8306 Y28.2964
G01 X23.7647 Y28.2364
G01 X23.7559 Y28.2292
G01 X23.6841 Y28.1761
G01 X23.6054 Y28.1289
G01 X23.5976 Y28.1248
G01 X23.5169 Y28.0868
G01 X23.4331 Y28.0566
G01 X23.4221 Y28.0533
G01 X23.3412 Y28.0330
G01 X23.3299 Y28.0308
G01 X23.2417 Y28.0178
G01 X23.1470 Y28.0132
G01 X23.0522 Y28.0178
G01 X22.9640 Y28.0308
G01 X22.9527 Y28.0330
G01 X22.8663 Y28.0548
G01 X22.7770 Y28.0868
G01 X22.6912 Y28.1274
G01 X22.6098 Y28.1761
G01 X22.5336 Y28.2326
G01 X22.4633 Y28.2964
G01 X22.3997 Y28.3666
G01 X22.3430 Y28.4430
G01 X21.5169 Y28.4430
G01 X20.1515 Y27.0776
G01 X20.1514 Y20.1473
G01 X20.1489 Y20.0978
G01 X20.1421 Y20.0513
G01 X20.1399 Y20.0400
G01 X20.1284 Y19.9945
G01 X20.1127 Y19.9503
G01 X20.1083 Y19.9397
G01 X20.0881 Y19.8973
G01 X20.0610 Y19.8521
G01 X20.0296 Y19.8097
G01 X19.9945 Y19.7710
G01 X18.3615 Y18.1381
G01 X18.3247 Y18.1049
G01 X18.2871 Y18.0768
G01 X18.2775 Y18.0704
G01 X18.2372 Y18.0464
G01 X18.1948 Y18.0262
G01 X18.1842 Y18.0218
G01 X18.1454 Y18.0079
G01 X18.1344 Y18.0046
G01 X18.0944 Y17.9946
G01 X18.0831 Y17.9923
G01 X18.0367 Y17.9856
G01 X17.9845 Y17.9830
G01 X16.0484 Y17.9830
G01 X15.9918 Y17.9067
G01 X15.9321 Y17.8405
G01 X15.9239 Y17.8324
G01 X15.8579 Y17.7727
G01 X15.7863 Y17.7194
G01 X15.7767 Y17.7130
G01 X15.7002 Y17.6674
G01 X15.6144 Y17.6268
G01 X15.5306 Y17.5966
G01 X15.5196 Y17.5933
G01 X15.4331 Y17.5718
G01 X15.3449 Y17.5585
G01 X15.3335 Y17.5574
G01 X15.2476 Y17.5532
G01 X15.2387 Y17.5533
G01 X15.1497 Y17.5578
G01 X15.0615 Y17.5708
G01 X15.0502 Y17.5730
G01 X14.9638 Y17.5948
G01 X14.8799 Y17.6247
G01 X14.8692 Y17.6291
G01 X14.7939 Y17.6648
G01 X14.7837 Y17.6702
G01 X14.7073 Y17.7161
G01 X14.6311 Y17.7726
G01 X14.5631 Y17.8342
G01 X14.5446 Y17.8540
G01 X14.5390 Y17.8499
G01 X14.4931 Y17.9118
G00 Z2.0000
G00 X14.4931 Y20.4518
G01 F60.00
G01 Z-0.1000
G01 F120.00
G01 X14.4406 Y20.5229
G01 X14.3918 Y20.6043
G01 X14.3513 Y20.6900
G01 X14.3193 Y20.7794
G01 X14.2962 Y20.8714
G01 X14.2823 Y20.9652
G01 X14.2777 Y21.0600
G01 X14.2823 Y21.1548
G01 X14.2962 Y21.2486
G01 X14.3193 Y21.3406
G01 X14.3513 Y21.4300
G01 X14.3918 Y21.5157
G01 X14.4406 Y21.5971
G01 X14.4971 Y21.6733
G01 X14.5608 Y21.7436
G01 X14.6311 Y21.8074
G01 X14.7073 Y21.8639
G01 X14.7887 Y21.9126
G01 X14.8745 Y21.9532
G01 X14.9638 Y21.9852
G01 X15.0559 Y22.0082
G01 X15.1497 Y22.0222
G01 X15.2445 Y22.0268
G01 X15.3392 Y22.0222
G01 X15.4331 Y22.0082
G01 X15.5251 Y21.9852
G01 X15.6144 Y21.9532
G01 X15.7002 Y21.9126
G01 X15.7816 Y21.8639
G01 X15.8578 Y21.8074
G01 X15.9281 Y21.7436
G01 X15.9918 Y21.6733
G01 X16.0483 Y21.5971
G01 X16.0971 Y21.5157
G01 X16.1377 Y21.4300
G01 X16.1696 Y21.3406
G01 X16.1927 Y21.2486
G01 X16.2066 Y21.1548
G01 X16.2113 Y21.0600
G01 X16.2066 Y20.9652
G01 X16.1927 Y20.8714
G01 X16.1696 Y20.7794
G01 X16.1377 Y20.6900
G01 X16.0971 Y20.6043
G01 X16.0483 Y20.5229
G01 X15.9918 Y20.4466
G01 X15.9281 Y20.3764
G01 X15.8579 Y20.3127
G01 X15.7816 Y20.2561
G01 X15.7002 Y20.2074
G01 X15.6144 Y20.1668
G01 X15.5251 Y20.1348
G01 X15.4331 Y20.1118
G01 X15.3392 Y20.0978
G01 X15.2445 Y20.0932
G01 X15.1497 Y20.0978
G01 X15.0559 Y20.1118
G01 X14.9638 Y20.1348
G01 X14.8745 Y20.1668
G01 X14.7887 Y20.2074
G01 X14.7073 Y20.2561
G01 X14.6311 Y20.3126
G01 X14.5631 Y20.3742
G01 X14.5446 Y20.3940
G01 X14.5390 Y20.3899
G01 X14.4931 Y20.4518
G00 Z2.0000
G00 X16.0474 Y25.4982
G01 F60.00
G01 Z-0.1000
G01 F120.00
G01 X14.3639 Y25.4982
G01 X14.3514 Y25.4991
G01 X14.3392 Y25.5013
G01 X14.3272 Y25.5046
G01 X14.3156 Y25.5091
G01 X14.3045 Y25.5147
G01 X14.2940 Y25.5213
G01 X14.2841 Y25.5290
G01 X14.2751 Y25.5376
G01 X14.2670 Y25.5470
G01 X14.2598 Y25.5572
G01 X14.2537 Y25.5680
G01 X14.2498 Y25.5765
G01 X14.2456 Y25.5882
G01 X14.2426 Y25.6003
G01 X14.2411 Y25.6095
G01 X14.2402 Y25.6219
G01 X14.2402 Y27.2555
G01 X14.2411 Y27.2705
G01 X14.2432 Y27.2828
G01 X14.2466 Y27.2948
G01 X14.2510 Y27.3064
G01 X14.2566 Y27.3175
G01 X14.2633 Y27.3280
G01 X14.2709 Y27.3378
G01 X14.2795 Y27.3468
G01 X14.2865 Y27.3530
G01 X14.2965 Y27.3604
G01 X14.3072 Y27.3668
G01 X14.3184 Y27.3722
G01 X14.3272 Y27.3754
G01 X14.3392 Y27.3787
G01 X14.3514 Y27.3809
G01 X14.3639 Y27.3818
G01 X16.0474 Y27.3818
G01 X16.0625 Y27.3809
G01 X16.0747 Y27.3787
G01 X16.0867 Y27.3754
G01 X16.0984 Y27.3709
G01 X16.1095 Y27.3653
G01 X16.1200 Y27.3587
G01 X16.1298 Y27.3510
G01 X16.1388 Y27.3424
G01 X16.1450 Y27.3354
G01 X16.1524 Y27.3254
G01 X16.1588 Y27.3148
G01 X16.1641 Y27.3035
G01 X16.1674 Y27.2948
G01 X16.1707 Y27.2828
G01 X16.1728 Y27.2705
G01 X16.1737 Y27.2581
G01 X16.1736 Y25.6188
G01 X16.1724 Y25.6064
G01 X16.1700 Y25.5942
G01 X16.1664 Y25.5823
G01 X16.1616 Y25.5708
G01 X16.1557 Y25.5598
G01 X16.1488 Y25.5495
G01 X16.1409 Y25.5398
G01 X16.1344 Y25.5332
G01 X16.1250 Y25.5250
G01 X16.1148 Y25.5179
G01 X16.1067 Y25.5132
G01 X16.0955 Y25.5078
G01 X16.0838 Y25.5037
G01 X16.0717 Y25.5006
G01 X16.0594 Y25.4988
G01 X16.0474 Y25.4982
G00 Z2.0000
G00 X14.4556 Y28.3718
G01 F60.00
G01 Z-0.1000
G01 F120.00
G01 X14.4031 Y28.4429
G01 X14.3543 Y28.5243
G01 X14.3138 Y28.6100
G01 X14.2818 Y28.6994
G01 X14.2587 Y28.7914
G01 X14.2448 Y28.8852
G01 X14.2402 Y28.9800
G01 X14.2448 Y29.0748
G01 X14.2587 Y29.1686
G01 X14.2818 Y29.2606
G01 X14.3138 Y29.3500
G01 X14.3543 Y29.4357
G01 X14.4031 Y29.5171
G01 X14.4596 Y29.5933
G01 X14.5233 Y29.6636
G01 X14.5936 Y29.7274
G01 X14.6698 Y29.7839
G01 X14.7512 Y29.8326
G01 X14.8370 Y29.8732
G01 X14.9263 Y29.9052
G01 X15.0184 Y29.9282
G01 X15.1122 Y29.9422
G01 X15.2070 Y29.9468
G01 X15.2960 Y29.9426
G01 X15.3048 Y29.9418
G01 X15.3956 Y29.9282
G01 X15.4821 Y29.9067
G01 X15.4931 Y29.9034
G01 X15.5716 Y29.8753
G01 X15.5822 Y29.8709
G01 X15.6627 Y29.8326
G01 X15.7392 Y29.7870
G01 X15.7488 Y29.7806
G01 X15.8203 Y29.7274
G01 X15.8906 Y29.6636
G01 X15.9543 Y29.5933
G01 X16.0109 Y29.5170
G01 X16.3720 Y29.5170
G01 X18.7551 Y31.9001
G01 X18.7938 Y31.9351
G01 X18.8314 Y31.9632
G01 X18.8410 Y31.9696
G01 X18.8763 Y31.9908
G01 X18.8841 Y31.9950
G01 X18.9237 Y32.0138
G01 X18.9343 Y32.0182
G01 X18.9786 Y32.0339
G01 X19.0241 Y32.0454
G01 X19.0354 Y32.0477
G01 X19.0818 Y32.0544
G01 X19.1314 Y32.0570
G01 X22.3430 Y32.0570
G01 X22.3996 Y32.1333
G01 X22.4594 Y32.1995
G01 X22.4675 Y32.2076
G01 X22.5293 Y32.2636
G01 X22.5382 Y32.2709
G01 X22.6098 Y32.3239
G01 X22.6862 Y32.3698
G01 X22.6964 Y32.3752
G01 X22.7770 Y32.4132
G01 X22.8663 Y32.4452
G01 X22.9584 Y32.4682
G01 X23.0465 Y32.4815
G01 X23.0579 Y32.4826
G01 X23.1470 Y32.4868
G01 X23.2417 Y32.4822
G01 X23.3356 Y32.4682
G01 X23.4221 Y32.4467
G01 X23.4306 Y32.4442
G01 X23.5169 Y32.4132
G01 X23.5976 Y32.3752
G01 X23.6054 Y32.3711
G01 X23.6792 Y32.3270
G01 X23.6867 Y32.3221
G01 X23.7579 Y32.2693
G01 X23.7647 Y32.2636
G01 X23.7930 Y32.2379
G01 X25.7889 Y34.2337
G01 X25.8238 Y34.2651
G01 X25.8661 Y34.2965
G01 X25.9113 Y34.3236
G01 X25.9537 Y34.3438
G01 X25.9643 Y34.3482
G01 X26.0086 Y34.3639
G01 X26.0541 Y34.3754
G01 X26.0654 Y34.3777
G01 X26.1061 Y34.3837
G01 X26.1176 Y34.3849
G01 X26.1640 Y34.3870
G01 X36.5649 Y34.3870
G01 X36.6171 Y34.3844
G01 X36.6636 Y34.3777
G01 X36.6723 Y34.3760
G01 X36.7204 Y34.3639
G01 X36.7646 Y34.3482
G01 X36.7752 Y34.3438
G01 X36.8176 Y34.3236
G01 X36.8580 Y34.2996
G01 X36.8675 Y34.2932
G01 X36.9051 Y34.2651
G01 X36.9420 Y34.2319
G01 X40.6369 Y30.5370
G01 X42.7901 Y30.5370
G01 X42.8280 Y30.5880
G01 X42.8851 Y30.6512
G01 X42.8933 Y30.6593
G01 X42.9565 Y30.7164
G01 X43.0249 Y30.7673
G01 X43.0344 Y30.7737
G01 X43.1076 Y30.8174
G01 X43.1869 Y30.8550
G01 X43.1952 Y30.8583
G01 X43.2699 Y30.8851
G01 X43.2805 Y30.8883
G01 X43.3637 Y30.9090
G01 X43.4479 Y30.9216
G01 X43.4594 Y30.9228
G01 X43.5445 Y30.9268
G01 X43.6296 Y30.9228
G01 X43.6384 Y30.9220
G01 X43.7253 Y30.9090
G01 X43.8135 Y30.8869
G01 X43.8991 Y30.8563
G01 X43.9762 Y30.8200
G01 X43.9864 Y30.8145
G01 X44.0545 Y30.7737
G01 X44.0641 Y30.7673
G01 X44.1324 Y30.7164
G01 X44.1998 Y30.6554
G01 X44.2609 Y30.5880
G01 X44.3151 Y30.5149
G01 X44.3618 Y30.4369
G01 X44.3984 Y30.3599
G01 X44.4028 Y30.3493
G01 X44.4296 Y30.2745
G01 X44.4329 Y30.2634
G01 X44.4535 Y30.1808
G01 X44.4661 Y30.0966
G01 X44.4672 Y30.0851
G01 X44.4713 Y30.0000
G01 X44.4668 Y29.9092
G01 X44.4535 Y29.8192
G01 X44.4314 Y29.7310
G01 X44.4007 Y29.6453
G01 X44.3618 Y29.5631
G01 X44.3151 Y29.4851
G01 X44.2609 Y29.4120
G01 X44.1998 Y29.3446
G01 X44.1324 Y29.2836
G01 X44.0594 Y29.2294
G01 X43.9814 Y29.1826
G01 X43.8991 Y29.1437
G01 X43.8135 Y29.1131
G01 X43.7253 Y29.0910
G01 X43.6410 Y29.0784
G01 X43.6296 Y29.0772
G01 X43.5445 Y29.0732
G01 X43.4594 Y29.0772
G01 X43.4479 Y29.0784
G01 X43.3637 Y29.0910
G01 X43.2810 Y29.1116
G01 X43.2700 Y29.1149
G01 X43.1952 Y29.1417
G01 X43.1869 Y29.1450
G01 X43.1076 Y29.1826
G01 X43.0344 Y29.2263
G01 X43.0249 Y29.2327
G01 X42.9565 Y29.2836
G01 X42.8933 Y29.3407
G01 X42.8851 Y29.3488
G01 X42.8280 Y29.4120
G01 X42.7901 Y29.4630
G01 X40.4114 Y29.4630
G01 X40.3618 Y29.4656
G01 X40.3097 Y29.4733
G01 X40.2586 Y29.4861
G01 X40.2119 Y29.5027
G01 X40.2037 Y29.5062
G01 X40.1613 Y29.5264
G01 X40.1161 Y29.5535
G01 X40.0738 Y29.5849
G01 X40.0351 Y29.6199
G01 X36.3420 Y33.3130
G01 X26.3869 Y33.3130
G01 X24.2120 Y31.1381
G01 X24.1751 Y31.1049
G01 X24.1375 Y31.0768
G01 X24.1280 Y31.0704
G01 X24.0903 Y31.0479
G01 X24.0825 Y31.0438
G01 X24.0452 Y31.0262
G01 X24.0371 Y31.0227
G01 X23.9904 Y31.0061
G01 X23.9603 Y30.9984
G01 X23.9525 Y30.9855
G01 X23.9475 Y30.9782
G01 X23.8979 Y30.9112
G01 X23.8906 Y30.9023
G01 X23.8306 Y30.8364
G01 X23.7604 Y30.7727
G01 X23.6888 Y30.7194
G01 X23.6792 Y30.7130
G01 X23.6027 Y30.6674
G01 X23.5169 Y30.6268
G01 X23.4276 Y30.5948
G01 X23.3356 Y30.5718
G01 X23.2417 Y30.5578
G01 X23.1527 Y30.5533
G01 X23.1412 Y30.5533
G01 X23.0579 Y30.5574
G01 X23.0465 Y30.5585
G01 X22.9584 Y30.5718
G01 X22.8663 Y30.5948
G01 X22.7770 Y30.6268
G01 X22.6912 Y30.6674
G01 X22.6098 Y30.7161
G01 X22.5382 Y30.7691
G01 X22.5293 Y30.7764
G01 X22.4675 Y30.8324
G01 X22.4594 Y30.8405
G01 X22.3997 Y30.9066
G01 X22.3430 Y30.9830
G01 X19.3569 Y30.9830
G01 X16.9739 Y28.5999
G01 X16.9351 Y28.5649
G01 X16.8975 Y28.5368
G01 X16.8880 Y28.5304
G01 X16.8476 Y28.5064
G01 X16.8000 Y28.4839
G01 X16.7504 Y28.4661
G01 X16.6992 Y28.4533
G01 X16.6528 Y28.4463
G01 X16.6440 Y28.4453
G01 X16.5949 Y28.4430
G01 X16.0109 Y28.4430
G01 X15.9543 Y28.3667
G01 X15.8946 Y28.3005
G01 X15.8864 Y28.2924
G01 X15.8247 Y28.2364
G01 X15.8154 Y28.2288
G01 X15.7441 Y28.1761
G01 X15.6677 Y28.1302
G01 X15.6576 Y28.1248
G01 X15.5769 Y28.0868
G01 X15.4876 Y28.0548
G01 X15.3956 Y28.0318
G01 X15.3074 Y28.0185
G01 X15.2960 Y28.0174
G01 X15.2127 Y28.0133
G01 X15.2012 Y28.0133
G01 X15.1122 Y28.0178
G01 X15.0240 Y28.0308
G01 X15.0127 Y28.0330
G01 X14.9263 Y28.0548
G01 X14.8370 Y28.0868
G01 X14.7564 Y28.1248
G01 X14.7462 Y28.1302
G01 X14.6698 Y28.1761
G01 X14.5982 Y28.2291
G01 X14.5893 Y28.2364
G01 X14.5256 Y28.2942
G01 X14.5071 Y28.3140
G01 X14.5015 Y28.3099
G01 X14.4556 Y28.3718
G00 Z2.0000
G00 X10.6775 Y25.5044
G01 F60.00
G01 Z-0.1000
G01 F120.00
G01 X10.6775 Y28.8005
G01 X10.6800 Y28.8526
G01 X10.6878 Y28.9048
G01 X10.7006 Y28.9559
G01 X10.7163 Y29.0001
G01 X10.7196 Y29.0084
G01 X10.7409 Y29.0531
G01 X10.7680 Y29.0983
G01 X10.7994 Y29.1407
G01 X10.8344 Y29.1794
G01 X13.5551 Y31.9001
G01 X13.5938 Y31.9351
G01 X13.6336 Y31.9647
G01 X13.6410 Y31.9696
G01 X13.6813 Y31.9936
G01 X13.7237 Y32.0138
G01 X13.7343 Y32.0182
G01 X13.7786 Y32.0339
G01 X13.8241 Y32.0454
G01 X13.8354 Y32.0477
G01 X13.8787 Y32.0541
G01 X13.8876 Y32.0549
G01 X13.9340 Y32.0570
G01 X14.4030 Y32.0570
G01 X14.4596 Y32.1333
G01 X14.5194 Y32.1995
G01 X14.5275 Y32.2076
G01 X14.5936 Y32.2674
G01 X14.6651 Y32.3206
G01 X14.6747 Y32.3270
G01 X14.7512 Y32.3726
G01 X14.8370 Y32.4132
G01 X14.9209 Y32.4434
G01 X14.9319 Y32.4467
G01 X15.0184 Y32.4682
G01 X15.1065 Y32.4815
G01 X15.1179 Y32.4826
G01 X15.2039 Y32.4868
G01 X15.2127 Y32.4867
G01 X15.3017 Y32.4822
G01 X15.3899 Y32.4692
G01 X15.4012 Y32.4670
G01 X15.4876 Y32.4452
G01 X15.5716 Y32.4153
G01 X15.5822 Y32.4109
G01 X15.6627 Y32.3726
G01 X15.7392 Y32.3270
G01 X15.7488 Y32.3206
G01 X15.8203 Y32.2674
G01 X15.8864 Y32.2076
G01 X15.8946 Y32.1995
G01 X15.9543 Y32.1333
G01 X16.0109 Y32.0570
G01 X16.6120 Y32.0570
G01 X22.2851 Y37.7301
G01 X22.3238 Y37.7651
G01 X22.3614 Y37.7932
G01 X22.3710 Y37.7996
G01 X22.4063 Y37.8208
G01 X22.4165 Y37.8262
G01 X22.4537 Y37.8438
G01 X22.4643 Y37.8482
G01 X22.5086 Y37.8639
G01 X22.5541 Y37.8754
G01 X22.5654 Y37.8777
G01 X22.6118 Y37.8844
G01 X22.6640 Y37.8870
G01 X27.9220 Y37.8870
G01 X29.8013 Y39.7663
G01 X29.7921 Y39.8292
G01 X29.7877 Y39.9169
G01 X29.7878 Y39.9258
G01 X29.7917 Y40.0051
G01 X29.7925 Y40.0139
G01 X29.8055 Y40.1008
G01 X29.8260 Y40.1835
G01 X29.8294 Y40.1945
G01 X29.8561 Y40.2693
G01 X29.8594 Y40.2775
G01 X29.8971 Y40.3569
G01 X29.9408 Y40.4300
G01 X29.9472 Y40.4396
G01 X29.9980 Y40.5080
G01 X30.0551 Y40.5712
G01 X30.0633 Y40.5793
G01 X30.1265 Y40.6364
G01 X30.1970 Y40.6889
G01 X30.2044 Y40.6937
G01 X30.2776 Y40.7374
G01 X30.3598 Y40.7763
G01 X30.4454 Y40.8069
G01 X30.5337 Y40.8290
G01 X30.6236 Y40.8423
G01 X30.7145 Y40.8468
G01 X30.8053 Y40.8423
G01 X30.8953 Y40.8290
G01 X30.9835 Y40.8069
G01 X31.0691 Y40.7763
G01 X31.1514 Y40.7374
G01 X31.2294 Y40.6906
G01 X31.3024 Y40.6364
G01 X31.3698 Y40.5754
G01 X31.4309 Y40.5080
G01 X31.4833 Y40.4375
G01 X31.4882 Y40.4300
G01 X31.5290 Y40.3619
G01 X31.5344 Y40.3518
G01 X31.5707 Y40.2747
G01 X31.6014 Y40.1888
G01 X31.6235 Y40.1008
G01 X31.6361 Y40.0166
G01 X31.6372 Y40.0051
G01 X31.6411 Y39.9258
G01 X31.6411 Y39.9142
G01 X31.6368 Y39.8292
G01 X31.6235 Y39.7392
G01 X31.6014 Y39.6510
G01 X31.5728 Y39.5707
G01 X31.5684 Y39.5601
G01 X31.5344 Y39.4882
G01 X31.5290 Y39.4781
G01 X31.4851 Y39.4051
G01 X31.4344 Y39.3366
G01 X31.4289 Y39.3297
G01 X31.3738 Y39.2688
G01 X31.3657 Y39.2607
G01 X31.3024 Y39.2036
G01 X31.2341 Y39.1527
G01 X31.2245 Y39.1463
G01 X31.1514 Y39.1026
G01 X31.0744 Y39.0661
G01 X31.0662 Y39.0626
G01 X30.9835 Y39.0331
G01 X30.9009 Y39.0123
G01 X30.8896 Y39.0100
G01 X30.8053 Y38.9977
G01 X30.7202 Y38.9933
G01 X30.7087 Y38.9933
G01 X30.6236 Y38.9977
G01 X30.5607 Y39.0068
G01 X28.5239 Y36.9699
G01 X28.4851 Y36.9349
G01 X28.4475 Y36.9068
G01 X28.4380 Y36.9004
G01 X28.3976 Y36.8764
G01 X28.3500 Y36.8539
G01 X28.3058 Y36.8379
G01 X28.2948 Y36.8346
G01 X28.2492 Y36.8233
G01 X28.2028 Y36.8163
G01 X28.1914 Y36.8151
G01 X28.1449 Y36.8130
G01 X22.8869 Y36.8130
G01 X17.2139 Y31.1399
G01 X17.1751 Y31.1049
G01 X17.1328 Y31.0735
G01 X17.0926 Y31.0492
G01 X17.0825 Y31.0438
G01 X17.0400 Y31.0239
G01 X16.9958 Y31.0079
G01 X16.9848 Y31.0046
G01 X16.9392 Y30.9933
G01 X16.8928 Y30.9863
G01 X16.8840 Y30.9853
G01 X16.8349 Y30.9830
G01 X16.0109 Y30.9830
G01 X15.9543 Y30.9067
G01 X15.8946 Y30.8405
G01 X15.8864 Y30.8324
G01 X15.8204 Y30.7727
G01 X15.7488 Y30.7194
G01 X15.7392 Y30.7130
G01 X15.6627 Y30.6674
G01 X15.5769 Y30.6268
G01 X15.4931 Y30.5966
G01 X15.4821 Y30.5933
G01 X15.3956 Y30.5718
G01 X15.3074 Y30.5585
G01 X15.2960 Y30.5574
G01 X15.2101 Y30.5532
G01 X15.2012 Y30.5533
G01 X15.1122 Y30.5578
G01 X15.0240 Y30.5708
G01 X15.0127 Y30.5730
G01 X14.9263 Y30.5948
G01 X14.8424 Y30.6247
G01 X14.8317 Y30.6291
G01 X14.7512 Y30.6674
G01 X14.6747 Y30.7130
G01 X14.6651 Y30.7194
G01 X14.5936 Y30.7726
G01 X14.5275 Y30.8324
G01 X14.5194 Y30.8405
G01 X14.4597 Y30.9066
G01 X14.4030 Y30.9830
G01 X14.1569 Y30.9830
G01 X11.7515 Y28.5776
G01 X11.7515 Y25.5044
G01 X11.8024 Y25.4664
G01 X11.8676 Y25.4075
G01 X11.8738 Y25.4012
G01 X11.9271 Y25.3423
G01 X11.9328 Y25.3355
G01 X11.9818 Y25.2696
G01 X11.9882 Y25.2600
G01 X12.0290 Y25.1919
G01 X12.0333 Y25.1841
G01 X12.0695 Y25.1075
G01 X12.0776 Y25.0858
G01 X12.0844 Y25.0875
G01 X12.1222 Y24.9364
G01 X12.1240 Y24.9278
G01 X12.1368 Y24.8408
G01 X12.1413 Y24.7500
G01 X12.1372 Y24.6649
G01 X12.1361 Y24.6534
G01 X12.1235 Y24.5692
G01 X12.1029 Y24.4865
G01 X12.0996 Y24.4755
G01 X12.0707 Y24.3953
G01 X12.0318 Y24.3131
G01 X11.9851 Y24.2351
G01 X11.9344 Y24.1666
G01 X11.9271 Y24.1577
G01 X11.8698 Y24.0946
G01 X11.8068 Y24.0373
G01 X11.7979 Y24.0300
G01 X11.7319 Y23.9811
G01 X11.7245 Y23.9763
G01 X11.6514 Y23.9326
G01 X11.5691 Y23.8937
G01 X11.4835 Y23.8631
G01 X11.3953 Y23.8410
G01 X11.3053 Y23.8277
G01 X11.2145 Y23.8232
G01 X11.1236 Y23.8277
G01 X11.0337 Y23.8410
G01 X10.9454 Y23.8631
G01 X10.8598 Y23.8937
G01 X10.7776 Y23.9326
G01 X10.6996 Y23.9794
G01 X10.6265 Y24.0336
G01 X10.5591 Y24.0946
G01 X10.4980 Y24.1620
G01 X10.4456 Y24.2325
G01 X10.4408 Y24.2400
G01 X10.3971 Y24.3131
G01 X10.3582 Y24.3953
G01 X10.3276 Y24.4810
G01 X10.3055 Y24.5692
G01 X10.2921 Y24.6592
G01 X10.2877 Y24.7500
G01 X10.2921 Y24.8408
G01 X10.3049 Y24.9278
G01 X10.3067 Y24.9364
G01 X10.3276 Y25.0190
G01 X10.3582 Y25.1047
G01 X10.3971 Y25.1869
G01 X10.4422 Y25.2623
G01 X10.4472 Y25.2696
G01 X10.4980 Y25.3380
G01 X10.5569 Y25.4031
G01 X10.5633 Y25.4093
G01 X10.6265 Y25.4664
G01 X10.6775 Y25.5044
G00 Z2.0000
G00 X5.2974 Y30.2380
G01 F60.00
G01 Z-0.1000
G01 F120.00
G01 X5.3138 Y30.2433
G01 X5.3768 Y30.0495
G01 X5.4606 Y29.8848
G01 X5.5692 Y29.7354
G01 X5.6999 Y29.6047
G01 X5.8493 Y29.4962
G01 X5.9854 Y29.4268
G01 X6.9435 Y29.4268
G01 X7.0796 Y29.4962
G01 X7.2436 Y29.6153
G01 X7.2542 Y29.6218
G01 X7.2657 Y29.6275
G01 X7.2848 Y29.6387
G01 X7.2987 Y29.6453
G01 X7.3073 Y29.6485
G01 X7.3162 Y29.6510
G01 X7.3313 Y29.6537
G01 X7.4134 Y29.6596
G01 X7.4291 Y29.6590
G01 X7.4446 Y29.6564
G01 X7.4597 Y29.6519
G01 X7.4713 Y29.6470
G01 X7.5435 Y29.6076
G01 X7.5559 Y29.5990
G01 X7.5650 Y29.5911
G01 X8.4577 Y28.6985
G01 X8.4642 Y28.6914
G01 X8.4849 Y28.6657
G01 X8.4920 Y28.6554
G01 X8.4981 Y28.6445
G01 X8.5019 Y28.6360
G01 X8.5050 Y28.6272
G01 X8.5265 Y28.5543
G01 X8.5295 Y28.5395
G01 X8.5304 Y28.5305
G01 X8.5308 Y28.5220
G01 X8.5308 Y21.8328
G01 X8.5609 Y21.6814
G01 X8.6200 Y21.5388
G01 X8.7057 Y21.4104
G01 X13.9477 Y16.1685
G01 X13.9542 Y16.1614
G01 X13.9733 Y16.1377
G01 X13.9820 Y16.1254
G01 X13.9894 Y16.1117
G01 X13.9950 Y16.0972
G01 X14.0158 Y16.0268
G01 X14.0190 Y16.0125
G01 X14.0202 Y16.0036
G01 X14.0207 Y15.9945
G01 X14.0208 Y15.8837
G01 X14.0509 Y15.6934
G01 X14.1104 Y15.5103
G01 X14.1979 Y15.3386
G01 X14.3111 Y15.1828
G01 X14.4473 Y15.0466
G01 X14.6031 Y14.9334
G01 X14.6137 Y14.9274
G01 X14.6213 Y14.9221
G01 X14.6281 Y14.9166
G01 X14.6739 Y14.8770
G01 X14.6802 Y14.8710
G01 X14.6864 Y14.8644
G01 X14.6939 Y14.8548
G01 X14.7005 Y14.8445
G01 X14.7060 Y14.8337
G01 X14.7103 Y14.8228
G01 X14.7332 Y14.7558
G01 X14.7357 Y14.7472
G01 X14.7378 Y14.7379
G01 X14.7391 Y14.7286
G01 X14.7398 Y14.7192
G01 X14.7397 Y14.7097
G01 X14.7385 Y14.6972
G01 X14.7368 Y14.6879
G01 X14.7192 Y14.6165
G01 X14.7167 Y14.6079
G01 X14.7122 Y14.5962
G01 X14.7065 Y14.5849
G01 X14.6998 Y14.5743
G01 X14.6920 Y14.5644
G01 X14.6836 Y14.5556
G01 X14.6321 Y14.5070
G01 X14.6233 Y14.4995
G01 X14.6135 Y14.4925
G01 X14.6031 Y14.4866
G01 X14.4473 Y14.3734
G01 X14.3111 Y14.2372
G01 X14.1979 Y14.0814
G01 X14.1104 Y13.9097
G01 X14.0509 Y13.7266
G01 X14.0208 Y13.5363
G01 X14.0208 Y13.4068
G01 X14.0204 Y13.3937
G01 X14.0193 Y13.3816
G01 X14.0177 Y13.3724
G01 X14.0154 Y13.3633
G01 X14.0126 Y13.3548
G01 X13.9857 Y13.2830
G01 X13.9786 Y13.2690
G01 X13.9735 Y13.2610
G01 X13.9678 Y13.2535
G01 X13.9572 Y13.2419
G01 X13.9477 Y13.2336
G01 X13.8867 Y13.1880
G01 X13.8789 Y13.1828
G01 X13.8706 Y13.1782
G01 X13.8591 Y13.1731
G01 X13.8502 Y13.1700
G01 X13.8410 Y13.1676
G01 X13.8286 Y13.1654
G01 X13.7495 Y13.1597
G01 X13.7338 Y13.1599
G01 X13.7213 Y13.1615
G01 X13.7121 Y13.1635
G01 X13.7030 Y13.1662
G01 X13.6942 Y13.1696
G01 X13.6856 Y13.1736
G01 X13.6163 Y13.2115
G01 X13.6063 Y13.2183
G01 X13.5948 Y13.2280
G01 X4.9213 Y21.9015
G01 X4.9147 Y21.9086
G01 X4.8940 Y21.9343
G01 X4.8869 Y21.9446
G01 X4.8809 Y21.9555
G01 X4.8771 Y21.9640
G01 X4.8739 Y21.9728
G01 X4.8525 Y22.0457
G01 X4.8495 Y22.0605
G01 X4.8485 Y22.0695
G01 X4.8482 Y22.0780
G01 X4.8483 Y30.0991
G01 X4.8495 Y30.1115
G01 X4.8520 Y30.1238
G01 X4.8715 Y30.1938
G01 X4.8756 Y30.2053
G01 X4.8794 Y30.2137
G01 X4.8839 Y30.2218
G01 X4.8889 Y30.2295
G01 X4.8964 Y30.2392
G01 X4.9048 Y30.2482
G01 X4.9589 Y30.2978
G01 X4.9657 Y30.3036
G01 X4.9760 Y30.3109
G01 X4.9869 Y30.3172
G01 X4.9984 Y30.3223
G01 X5.0073 Y30.3254
G01 X5.0222 Y30.3289
G01 X5.0919 Y30.3410
G01 X5.1040 Y30.3425
G01 X5.1166 Y30.3427
G01 X5.1291 Y30.3418
G01 X5.1384 Y30.3402
G01 X5.1506 Y30.3371
G01 X5.1620 Y30.3330
G01 X5.2297 Y30.3043
G01 X5.2409 Y30.2986
G01 X5.2489 Y30.2936
G01 X5.2613 Y30.2839
G01 X5.2725 Y30.2728
G01 X5.2803 Y30.2629
G01 X5.2974 Y30.2380
G00 Z2.0000
G00 X6.1286 Y31.3631
G01 F60.00
G01 Z-0.1000
G01 F120.00
G01 X6.1269 Y31.3699
G01 X6.2780 Y31.4077
G01 X6.2893 Y31.4100
G01 X6.3736 Y31.4223
G01 X6.4587 Y31.4267
G01 X6.4702 Y31.4267
G01 X6.5553 Y31.4223
G01 X6.6453 Y31.4090
G01 X6.7335 Y31.3869
G01 X6.8191 Y31.3563
G01 X6.9014 Y31.3174
G01 X6.9768 Y31.2723
G01 X6.9841 Y31.2673
G01 X7.0524 Y31.2164
G01 X7.1176 Y31.1575
G01 X7.1238 Y31.1512
G01 X7.1809 Y31.0880
G01 X7.2189 Y31.0370
G01 X7.7649 Y31.0370
G01 X7.8140 Y31.0347
G01 X7.8228 Y31.0337
G01 X7.8692 Y31.0267
G01 X7.9204 Y31.0139
G01 X7.9700 Y30.9961
G01 X8.0125 Y30.9762
G01 X8.0203 Y30.9721
G01 X8.0628 Y30.9465
G01 X8.1006 Y30.9187
G01 X8.1095 Y30.9114
G01 X8.1439 Y30.8801
G01 X9.6945 Y29.3294
G01 X9.7296 Y29.2907
G01 X9.7577 Y29.2531
G01 X9.7627 Y29.2457
G01 X9.7881 Y29.2031
G01 X9.8083 Y29.1608
G01 X9.8127 Y29.1501
G01 X9.8284 Y29.1059
G01 X9.8399 Y29.0604
G01 X9.8421 Y29.0491
G01 X9.8489 Y29.0026
G01 X9.8514 Y28.9531
G01 X9.8515 Y22.1324
G01 X15.0474 Y16.9365
G01 X15.0596 Y16.9390
G01 X15.1430 Y16.9514
G01 X15.1545 Y16.9525
G01 X15.2445 Y16.9568
G01 X15.3402 Y16.9521
G01 X15.4350 Y16.9380
G01 X15.5225 Y16.9163
G01 X15.5331 Y16.9131
G01 X15.6183 Y16.8825
G01 X15.6998 Y16.8441
G01 X15.7099 Y16.8386
G01 X15.7872 Y16.7922
G01 X15.8641 Y16.7351
G01 X15.9352 Y16.6707
G01 X15.9958 Y16.6040
G01 X16.0031 Y16.5951
G01 X16.0533 Y16.5274
G01 X16.0602 Y16.5170
G01 X19.2341 Y16.5170
G01 X21.6171 Y18.9001
G01 X21.6515 Y18.9314
G01 X21.6583 Y18.9371
G01 X21.6935 Y18.9632
G01 X21.7030 Y18.9696
G01 X21.7434 Y18.9936
G01 X21.7858 Y19.0138
G01 X21.7964 Y19.0182
G01 X21.8406 Y19.0339
G01 X21.8861 Y19.0454
G01 X21.8948 Y19.0473
G01 X21.9439 Y19.0544
G01 X21.9934 Y19.0570
G01 X22.3805 Y19.0570
G01 X22.4371 Y19.1333
G01 X22.5008 Y19.2036
G01 X22.5710 Y19.2673
G01 X22.6426 Y19.3206
G01 X22.6522 Y19.3270
G01 X22.7287 Y19.3726
G01 X22.8092 Y19.4109
G01 X22.8199 Y19.4153
G01 X22.8984 Y19.4434
G01 X22.9094 Y19.4467
G01 X22.9959 Y19.4682
G01 X23.0897 Y19.4822
G01 X23.1787 Y19.4867
G01 X23.1902 Y19.4867
G01 X23.2792 Y19.4822
G01 X23.3731 Y19.4682
G01 X23.4651 Y19.4452
G01 X23.5491 Y19.4153
G01 X23.5597 Y19.4109
G01 X23.6402 Y19.3726
G01 X23.7216 Y19.3239
G01 X23.7933 Y19.2709
G01 X23.8022 Y19.2636
G01 X23.8681 Y19.2036
G01 X23.9281 Y19.1377
G01 X23.9354 Y19.1288
G01 X23.9883 Y19.0571
G01 X24.0371 Y18.9757
G01 X24.0754 Y18.8952
G01 X24.0798 Y18.8846
G01 X24.1096 Y18.8006
G01 X24.1327 Y18.7086
G01 X24.1466 Y18.6148
G01 X24.1511 Y18.5258
G01 X24.1511 Y18.5142
G01 X24.1466 Y18.4252
G01 X24.1337 Y18.3371
G01 X24.1314 Y18.3258
G01 X24.1096 Y18.2394
G01 X24.0777 Y18.1500
G01 X24.0397 Y18.0694
G01 X24.0343 Y18.0592
G01 X23.9883 Y17.9829
G01 X23.9353 Y17.9111
G01 X23.9281 Y17.9023
G01 X23.8681 Y17.8364
G01 X23.8022 Y17.7764
G01 X23.7933 Y17.7691
G01 X23.7216 Y17.7161
G01 X23.6452 Y17.6702
G01 X23.6351 Y17.6648
G01 X23.5597 Y17.6291
G01 X23.5491 Y17.6247
G01 X23.4651 Y17.5948
G01 X23.3731 Y17.5718
G01 X23.2792 Y17.5578
G01 X23.1902 Y17.5533
G01 X23.1787 Y17.5533
G01 X23.0897 Y17.5578
G01 X22.9959 Y17.5718
G01 X22.9038 Y17.5948
G01 X22.8199 Y17.6247
G01 X22.8116 Y17.6280
G01 X22.7287 Y17.6674
G01 X22.6522 Y17.7130
G01 X22.6426 Y17.7194
G01 X22.5711 Y17.7726
G01 X22.5008 Y17.8364
G01 X22.4409 Y17.9023
G01 X22.4337 Y17.9110
G01 X22.3805 Y17.9830
G01 X22.2190 Y17.9830
G01 X19.8340 Y15.5981
G01 X19.8016 Y15.5686
G01 X19.7927 Y15.5613
G01 X19.7549 Y15.5335
G01 X19.7147 Y15.5092
G01 X19.7045 Y15.5038
G01 X19.6620 Y15.4839
G01 X19.6179 Y15.4679
G01 X19.6094 Y15.4652
G01 X19.5613 Y15.4533
G01 X19.5149 Y15.4463
G01 X19.5034 Y15.4451
G01 X19.4570 Y15.4430
G01 X16.0602 Y15.4430
G01 X16.0533 Y15.4326
G01 X15.9995 Y15.3603
G01 X15.9391 Y15.2935
G01 X15.9310 Y15.2853
G01 X15.8641 Y15.2249
G01 X15.7919 Y15.1711
G01 X15.7823 Y15.1647
G01 X15.7049 Y15.1185
G01 X15.6183 Y15.0775
G01 X15.5335 Y15.0471
G01 X15.5225 Y15.0437
G01 X15.4407 Y15.0232
G01 X15.4290 Y15.0209
G01 X15.3402 Y15.0079
G01 X15.2502 Y15.0033
G01 X15.2387 Y15.0033
G01 X15.1487 Y15.0079
G01 X15.0596 Y15.0210
G01 X15.0483 Y15.0232
G01 X14.9665 Y15.0437
G01 X14.9555 Y15.0471
G01 X14.8707 Y15.0775
G01 X14.7840 Y15.1185
G01 X14.7018 Y15.1678
G01 X14.6293 Y15.2214
G01 X14.6204 Y15.2287
G01 X14.5579 Y15.2853
G01 X14.5498 Y15.2935
G01 X14.4894 Y15.3603
G01 X14.4323 Y15.4373
G01 X14.3858 Y15.5145
G01 X14.3804 Y15.5247
G01 X14.3420 Y15.6062
G01 X14.3115 Y15.6910
G01 X14.3082 Y15.7020
G01 X14.2877 Y15.7838
G01 X14.2855 Y15.7946
G01 X14.2724 Y15.8843
G01 X14.2678 Y15.9742
G01 X14.2678 Y15.9858
G01 X14.2724 Y16.0757
G01 X14.2854 Y16.1649
G01 X14.2879 Y16.1771
G01 X8.9344 Y21.5306
G01 X8.8994 Y21.5693
G01 X8.8713 Y21.6069
G01 X8.8649 Y21.6165
G01 X8.8409 Y21.6569
G01 X8.8183 Y21.7045
G01 X8.8024 Y21.7486
G01 X8.7990 Y21.7597
G01 X8.7878 Y21.8052
G01 X8.7807 Y21.8517
G01 X8.7796 Y21.8631
G01 X8.7775 Y21.9095
G01 X8.7775 Y28.7276
G01 X7.5420 Y29.9630
G01 X7.2189 Y29.9630
G01 X7.1809 Y29.9120
G01 X7.1238 Y29.8488
G01 X7.1157 Y29.8407
G01 X7.0568 Y29.7873
G01 X7.0479 Y29.7800
G01 X6.9794 Y29.7294
G01 X6.9041 Y29.6841
G01 X6.8962 Y29.6800
G01 X6.8191 Y29.6437
G01 X6.7335 Y29.6131
G01 X6.6453 Y29.5910
G01 X6.5610 Y29.5784
G01 X6.5522 Y29.5774
G01 X6.4645 Y29.5732
G01 X6.3794 Y29.5772
G01 X6.3679 Y29.5784
G01 X6.2837 Y29.5910
G01 X6.2010 Y29.6116
G01 X6.1900 Y29.6149
G01 X6.1152 Y29.6417
G01 X6.1045 Y29.6461
G01 X6.0276 Y29.6826
G01 X5.9496 Y29.7294
G01 X5.8765 Y29.7836
G01 X5.8091 Y29.8446
G01 X5.7518 Y29.9077
G01 X5.7445 Y29.9166
G01 X5.6939 Y29.9851
G01 X5.6499 Y30.0581
G01 X5.6445 Y30.0682
G01 X5.6082 Y30.1453
G01 X5.5776 Y30.2310
G01 X5.5567 Y30.3136
G01 X5.5545 Y30.3249
G01 X5.5421 Y30.4092
G01 X5.5378 Y30.4942
G01 X5.5378 Y30.5058
G01 X5.5421 Y30.5908
G01 X5.5555 Y30.6808
G01 X5.5776 Y30.7690
G01 X5.6061 Y30.8493
G01 X5.6105 Y30.8599
G01 X5.6471 Y30.9369
G01 X5.6908 Y31.0100
G01 X5.6972 Y31.0196
G01 X5.7480 Y31.0880
G01 X5.8051 Y31.1512
G01 X5.8133 Y31.1593
G01 X5.8765 Y31.2164
G01 X5.9449 Y31.2673
G01 X5.9544 Y31.2737
G01 X6.0276 Y31.3174
G01 X6.1069 Y31.3550
G01 X6.1286 Y31.3631
G00 Z2.0000
G00 X6.1286 Y33.3631
G01 F60.00
G01 Z-0.1000
G01 F120.00
G01 X6.1269 Y33.3699
G01 X6.2837 Y33.4090
G01 X6.3736 Y33.4223
G01 X6.4587 Y33.4267
G01 X6.4702 Y33.4267
G01 X6.5496 Y33.4228
G01 X6.5610 Y33.4216
G01 X6.6453 Y33.4090
G01 X6.7280 Y33.3884
G01 X6.7390 Y33.3851
G01 X6.8138 Y33.3583
G01 X6.8244 Y33.3539
G01 X6.9014 Y33.3174
G01 X6.9745 Y33.2737
G01 X6.9819 Y33.2689
G01 X7.0524 Y33.2164
G01 X7.1198 Y33.1554
G01 X7.1809 Y33.0880
G01 X7.2189 Y33.0370
G01 X7.3734 Y33.0370
G01 X14.0664 Y39.7301
G01 X14.1052 Y39.7651
G01 X14.1475 Y39.7965
G01 X14.1927 Y39.8236
G01 X14.2403 Y39.8461
G01 X14.2899 Y39.8639
G01 X14.3411 Y39.8767
G01 X14.3932 Y39.8844
G01 X14.4454 Y39.8870
G01 X25.5920 Y39.8870
G01 X28.2370 Y42.5319
G01 X28.2738 Y42.5651
G01 X28.3161 Y42.5965
G01 X28.3613 Y42.6236
G01 X28.4037 Y42.6438
G01 X28.4143 Y42.6482
G01 X28.4531 Y42.6621
G01 X28.4641 Y42.6654
G01 X28.5097 Y42.6767
G01 X28.5618 Y42.6844
G01 X28.6140 Y42.6870
G01 X31.9676 Y42.6870
G01 X32.0171 Y42.6844
G01 X32.0636 Y42.6777
G01 X32.0748 Y42.6754
G01 X32.1204 Y42.6639
G01 X32.1646 Y42.6482
G01 X32.1752 Y42.6438
G01 X32.2176 Y42.6236
G01 X32.2602 Y42.5982
G01 X32.2675 Y42.5932
G01 X32.3051 Y42.5651
G01 X32.3439 Y42.5301
G01 X38.1369 Y36.7370
G01 X42.0420 Y36.7370
G01 X44.8275 Y39.5224
G01 X44.8275 Y49.9531
G01 X44.8300 Y50.0026
G01 X44.8378 Y50.0548
G01 X44.8506 Y50.1059
G01 X44.8683 Y50.1555
G01 X44.8909 Y50.2031
G01 X44.9180 Y50.2483
G01 X44.9494 Y50.2907
G01 X44.9844 Y50.3294
G01 X48.0351 Y53.3801
G01 X48.0738 Y53.4151
G01 X48.1114 Y53.4432
G01 X48.1187 Y53.4482
G01 X48.1563 Y53.4708
G01 X48.1665 Y53.4762
G01 X48.2090 Y53.4961
G01 X48.2531 Y53.5121
G01 X48.2641 Y53.5154
G01 X48.3097 Y53.5267
G01 X48.3561 Y53.5337
G01 X48.3676 Y53.5349
G01 X48.4140 Y53.5370
G01 X49.9205 Y53.5370
G01 X49.9376 Y53.5656
G01 X49.9425 Y53.5730
G01 X49.9988 Y53.6490
G01 X50.0045 Y53.6558
G01 X50.0644 Y53.7219
G01 X50.0706 Y53.7282
G01 X50.1387 Y53.7900
G01 X50.1476 Y53.7973
G01 X50.2240 Y53.8538
G01 X50.3077 Y53.9041
G01 X50.3156 Y53.9082
G01 X50.4015 Y53.9486
G01 X50.4909 Y53.9808
G01 X50.5019 Y53.9841
G01 X50.5941 Y54.0071
G01 X50.6881 Y54.0212
G01 X50.6996 Y54.0223
G01 X50.7914 Y54.0268
G01 X50.8002 Y54.0267
G01 X50.8894 Y54.0223
G01 X50.9008 Y54.0212
G01 X50.9948 Y54.0071
G01 X51.0870 Y53.9841
G01 X51.0980 Y53.9808
G01 X51.1874 Y53.9486
G01 X51.2734 Y53.9082
G01 X51.2812 Y53.9041
G01 X51.3601 Y53.8568
G01 X51.3696 Y53.8504
G01 X51.4459 Y53.7937
G01 X51.5183 Y53.7282
G01 X51.5245 Y53.7219
G01 X51.5844 Y53.6558
G01 X51.5901 Y53.6490
G01 X51.6465 Y53.5730
G01 X51.6513 Y53.5656
G01 X51.6684 Y53.5370
G01 X52.6649 Y53.5370
G01 X52.7140 Y53.5347
G01 X52.7228 Y53.5337
G01 X52.7692 Y53.5267
G01 X52.8148 Y53.5154
G01 X52.8258 Y53.5121
G01 X52.8700 Y53.4961
G01 X52.9125 Y53.4762
G01 X52.9226 Y53.4708
G01 X52.9580 Y53.4496
G01 X52.9654 Y53.4447
G01 X53.0051 Y53.4151
G01 X53.0439 Y53.3801
G01 X55.6164 Y50.8075
G01 X55.6496 Y50.7707
G01 X55.6777 Y50.7331
G01 X55.6841 Y50.7235
G01 X55.7081 Y50.6831
G01 X55.7283 Y50.6408
G01 X55.7327 Y50.6301
G01 X55.7466 Y50.5914
G01 X55.7499 Y50.5803
G01 X55.7599 Y50.5404
G01 X55.7621 Y50.5291
G01 X55.7689 Y50.4826
G01 X55.7715 Y50.4305
G01 X55.7715 Y44.5594
G01 X55.8224 Y44.5214
G01 X55.8857 Y44.4643
G01 X55.8938 Y44.4562
G01 X55.9509 Y44.3930
G01 X56.0018 Y44.3246
G01 X56.0082 Y44.3150
G01 X56.0518 Y44.2419
G01 X56.0884 Y44.1649
G01 X56.0928 Y44.1543
G01 X56.1214 Y44.0738
G01 X56.1422 Y43.9914
G01 X56.1445 Y43.9801
G01 X56.1568 Y43.8958
G01 X56.1611 Y43.8108
G01 X56.1611 Y43.7992
G01 X56.1572 Y43.7199
G01 X56.1561 Y43.7084
G01 X56.1435 Y43.6242
G01 X56.1229 Y43.5415
G01 X56.1196 Y43.5305
G01 X56.0928 Y43.4557
G01 X56.0884 Y43.4451
G01 X56.0518 Y43.3681
G01 X56.0051 Y43.2901
G01 X55.9509 Y43.2170
G01 X55.8898 Y43.1496
G01 X55.8224 Y43.0886
G01 X55.7541 Y43.0377
G01 X55.7445 Y43.0313
G01 X55.6764 Y42.9905
G01 X55.6662 Y42.9850
G01 X55.5891 Y42.9487
G01 X55.5035 Y42.9181
G01 X55.4153 Y42.8960
G01 X55.3253 Y42.8827
G01 X55.2345 Y42.8782
G01 X55.1436 Y42.8827
G01 X55.0537 Y42.8960
G01 X54.9654 Y42.9181
G01 X54.8798 Y42.9487
G01 X54.7976 Y42.9876
G01 X54.7196 Y43.0344
G01 X54.6465 Y43.0886
G01 X54.5791 Y43.1496
G01 X54.5180 Y43.2170
G01 X54.4639 Y43.2901
G01 X54.4171 Y43.3681
G01 X54.3782 Y43.4503
G01 X54.3476 Y43.5360
G01 X54.3255 Y43.6242
G01 X54.3128 Y43.7084
G01 X54.3119 Y43.7173
G01 X54.3078 Y43.7992
G01 X54.3078 Y43.8108
G01 X54.3121 Y43.8958
G01 X54.3245 Y43.9801
G01 X54.3267 Y43.9914
G01 X54.3476 Y44.0740
G01 X54.3761 Y44.1543
G01 X54.3794 Y44.1625
G01 X54.4171 Y44.2419
G01 X54.4608 Y44.3150
G01 X54.4672 Y44.3246
G01 X54.5180 Y44.3930
G01 X54.5751 Y44.4562
G01 X54.5833 Y44.4643
G01 X54.6465 Y44.5214
G01 X54.6975 Y44.5594
G01 X54.6975 Y50.2076
G01 X52.4420 Y52.4630
G01 X51.6684 Y52.4630
G01 X51.6513 Y52.4344
G01 X51.6465 Y52.4270
G01 X51.5901 Y52.3510
G01 X51.5844 Y52.3442
G01 X51.5245 Y52.2781
G01 X51.5183 Y52.2718
G01 X51.4459 Y52.2063
G01 X51.3696 Y52.1495
G01 X51.3601 Y52.1432
G01 X51.2812 Y52.0959
G01 X51.2734 Y52.0918
G01 X51.1874 Y52.0514
G01 X51.0980 Y52.0192
G01 X51.0870 Y52.0159
G01 X50.9948 Y51.9929
G01 X50.9008 Y51.9788
G01 X50.8894 Y51.9777
G01 X50.7945 Y51.9732
G01 X50.6996 Y51.9777
G01 X50.6881 Y51.9788
G01 X50.5941 Y51.9929
G01 X50.5019 Y52.0159
G01 X50.4909 Y52.0192
G01 X50.4015 Y52.0514
G01 X50.3156 Y52.0918
G01 X50.3077 Y52.0959
G01 X50.2240 Y52.1462
G01 X50.1476 Y52.2027
G01 X50.1387 Y52.2100
G01 X50.0706 Y52.2718
G01 X50.0644 Y52.2781
G01 X50.0045 Y52.3442
G01 X49.9988 Y52.3510
G01 X49.9425 Y52.4270
G01 X49.9376 Y52.4344
G01 X49.9205 Y52.4630
G01 X48.6369 Y52.4630
G01 X45.9015 Y49.7276
G01 X45.9015 Y39.2995
G01 X45.8989 Y39.2474
G01 X45.8921 Y39.2009
G01 X45.8899 Y39.1896
G01 X45.8784 Y39.1441
G01 X45.8627 Y39.0999
G01 X45.8583 Y39.0892
G01 X45.8381 Y39.0469
G01 X45.8141 Y39.0065
G01 X45.8077 Y38.9969
G01 X45.7796 Y38.9593
G01 X45.7445 Y38.9206
G01 X42.6420 Y35.8181
G01 X42.6051 Y35.7849
G01 X42.5675 Y35.7568
G01 X42.5580 Y35.7504
G01 X42.5176 Y35.7264
G01 X42.4752 Y35.7062
G01 X42.4646 Y35.7018
G01 X42.4258 Y35.6879
G01 X42.4148 Y35.6846
G01 X42.3748 Y35.6746
G01 X42.3636 Y35.6723
G01 X42.3171 Y35.6656
G01 X42.2649 Y35.6630
G01 X37.9140 Y35.6630
G01 X37.8618 Y35.6656
G01 X37.8097 Y35.6733
G01 X37.7586 Y35.6861
G01 X37.7143 Y35.7018
G01 X37.7061 Y35.7051
G01 X37.6613 Y35.7264
G01 X37.6161 Y35.7535
G01 X37.5738 Y35.7849
G01 X37.5351 Y35.8199
G01 X31.7420 Y41.6130
G01 X28.8369 Y41.6130
G01 X26.1920 Y38.9681
G01 X26.1551 Y38.9349
G01 X26.1175 Y38.9068
G01 X26.1080 Y38.9004
G01 X26.0676 Y38.8764
G01 X26.0252 Y38.8562
G01 X26.0146 Y38.8518
G01 X25.9704 Y38.8361
G01 X25.9192 Y38.8233
G01 X25.8671 Y38.8156
G01 X25.8149 Y38.8130
G01 X14.6683 Y38.8130
G01 X7.9752 Y32.1199
G01 X7.9365 Y32.0849
G01 X7.8989 Y32.0568
G01 X7.8916 Y32.0518
G01 X7.8540 Y32.0292
G01 X7.8438 Y32.0238
G01 X7.8013 Y32.0039
G01 X7.7572 Y31.9879
G01 X7.7462 Y31.9846
G01 X7.7006 Y31.9733
G01 X7.6516 Y31.9659
G01 X7.6427 Y31.9651
G01 X7.5963 Y31.9630
G01 X7.2189 Y31.9630
G01 X7.1809 Y31.9120
G01 X7.1238 Y31.8488
G01 X7.1157 Y31.8407
G01 X7.0568 Y31.7873
G01 X7.0479 Y31.7800
G01 X6.9794 Y31.7294
G01 X6.9064 Y31.6855
G01 X6.8962 Y31.6800
G01 X6.8191 Y31.6437
G01 X6.7335 Y31.6131
G01 X6.6453 Y31.5910
G01 X6.5584 Y31.5780
G01 X6.5496 Y31.5772
G01 X6.4645 Y31.5732
G01 X6.3736 Y31.5777
G01 X6.2837 Y31.5910
G01 X6.1954 Y31.6131
G01 X6.1098 Y31.6437
G01 X6.0276 Y31.6826
G01 X5.9496 Y31.7294
G01 X5.8810 Y31.7800
G01 X5.8721 Y31.7873
G01 X5.8133 Y31.8407
G01 X5.8051 Y31.8488
G01 X5.7480 Y31.9120
G01 X5.6972 Y31.9804
G01 X5.6908 Y31.9900
G01 X5.6471 Y32.0631
G01 X5.6105 Y32.1401
G01 X5.6061 Y32.1507
G01 X5.5776 Y32.2310
G01 X5.5567 Y32.3136
G01 X5.5545 Y32.3249
G01 X5.5421 Y32.4092
G01 X5.5378 Y32.4942
G01 X5.5378 Y32.5058
G01 X5.5421 Y32.5908
G01 X5.5545 Y32.6751
G01 X5.5567 Y32.6864
G01 X5.5776 Y32.7690
G01 X5.6061 Y32.8493
G01 X5.6105 Y32.8599
G01 X5.6471 Y32.9369
G01 X5.6908 Y33.0100
G01 X5.6972 Y33.0196
G01 X5.7480 Y33.0880
G01 X5.8051 Y33.1512
G01 X5.8133 Y33.1593
G01 X5.8765 Y33.2164
G01 X5.9449 Y33.2673
G01 X5.9544 Y33.2737
G01 X6.0276 Y33.3174
G01 X6.1069 Y33.3550
G01 X6.1286 Y33.3631
G00 Z2.0000
G00 X5.9275 Y35.2544
G01 F60.00
G01 Z-0.1000
G01 F120.00
G01 X5.9275 Y38.1031
G01 X5.9300 Y38.1526
G01 X5.9368 Y38.1991
G01 X5.9390 Y38.2104
G01 X5.9506 Y38.2559
G01 X5.9683 Y38.3055
G01 X5.9883 Y38.3480
G01 X5.9937 Y38.3582
G01 X6.0149 Y38.3935
G01 X6.0197 Y38.4009
G01 X6.0494 Y38.4407
G01 X6.0844 Y38.4794
G01 X13.4651 Y45.8601
G01 X13.4994 Y45.8914
G01 X13.5083 Y45.8987
G01 X13.5461 Y45.9265
G01 X13.5863 Y45.9508
G01 X13.5965 Y45.9562
G01 X13.6390 Y45.9761
G01 X13.6831 Y45.9921
G01 X13.6941 Y45.9954
G01 X13.7397 Y46.0067
G01 X13.7861 Y46.0137
G01 X13.7976 Y46.0149
G01 X13.8414 Y46.0170
G01 X17.1355 Y46.0170
G01 X17.1886 Y46.0888
G01 X17.1959 Y46.0977
G01 X17.2558 Y46.1636
G01 X17.3261 Y46.2274
G01 X17.4023 Y46.2839
G01 X17.4787 Y46.3298
G01 X17.4889 Y46.3352
G01 X17.5695 Y46.3732
G01 X17.6588 Y46.4052
G01 X17.7452 Y46.4270
G01 X17.7565 Y46.4292
G01 X17.8447 Y46.4422
G01 X17.9395 Y46.4468
G01 X18.0285 Y46.4426
G01 X18.0399 Y46.4415
G01 X18.1282 Y46.4282
G01 X20.1020 Y48.4019
G01 X20.1388 Y48.4351
G01 X20.1764 Y48.4632
G01 X20.1860 Y48.4696
G01 X20.2263 Y48.4936
G01 X20.2687 Y48.5138
G01 X20.2793 Y48.5182
G01 X20.3236 Y48.5339
G01 X20.3717 Y48.5460
G01 X20.3804 Y48.5477
G01 X20.4268 Y48.5544
G01 X20.4790 Y48.5570
G01 X25.0755 Y48.5570
G01 X25.1286 Y48.6288
G01 X25.1359 Y48.6377
G01 X25.1958 Y48.7036
G01 X25.2661 Y48.7674
G01 X25.3423 Y48.8239
G01 X25.4187 Y48.8698
G01 X25.4289 Y48.8752
G01 X25.5095 Y48.9132
G01 X25.5988 Y48.9452
G01 X25.6852 Y48.9670
G01 X25.6965 Y48.9692
G01 X25.7847 Y48.9822
G01 X25.8795 Y48.9868
G01 X25.9685 Y48.9826
G01 X25.9799 Y48.9815
G01 X26.0682 Y48.9682
G01 X27.5620 Y50.4619
G01 X27.5944 Y50.4914
G01 X27.6033 Y50.4987
G01 X27.6411 Y50.5265
G01 X27.6813 Y50.5508
G01 X27.6915 Y50.5562
G01 X27.7340 Y50.5761
G01 X27.7781 Y50.5921
G01 X27.7891 Y50.5954
G01 X27.8347 Y50.6067
G01 X27.8811 Y50.6137
G01 X27.8926 Y50.6149
G01 X27.9390 Y50.6170
G01 X29.9601 Y50.6170
G01 X29.9980 Y50.6680
G01 X30.0551 Y50.7312
G01 X30.0633 Y50.7393
G01 X30.1241 Y50.7944
G01 X30.1310 Y50.8000
G01 X30.1996 Y50.8506
G01 X30.2726 Y50.8945
G01 X30.2803 Y50.8988
G01 X30.3545 Y50.9339
G01 X30.3652 Y50.9383
G01 X30.4454 Y50.9669
G01 X30.5280 Y50.9877
G01 X30.5393 Y50.9900
G01 X30.6236 Y51.0023
G01 X30.7087 Y51.0067
G01 X30.7176 Y51.0068
G01 X30.7996 Y51.0028
G01 X30.8110 Y51.0016
G01 X30.8953 Y50.9890
G01 X30.9780 Y50.9684
G01 X30.9890 Y50.9651
G01 X31.0691 Y50.9363
G01 X31.1462 Y50.9000
G01 X31.1564 Y50.8945
G01 X31.2294 Y50.8506
G01 X31.2979 Y50.8000
G01 X31.3068 Y50.7927
G01 X31.3698 Y50.7354
G01 X31.4271 Y50.6723
G01 X31.4344 Y50.6634
G01 X31.4851 Y50.5949
G01 X31.5290 Y50.5219
G01 X31.5344 Y50.5118
G01 X31.5707 Y50.4347
G01 X31.6014 Y50.3488
G01 X31.6235 Y50.2608
G01 X31.6361 Y50.1766
G01 X31.6372 Y50.1651
G01 X31.6411 Y50.0858
G01 X31.6411 Y50.0742
G01 X31.6368 Y49.9892
G01 X31.6245 Y49.9049
G01 X31.6222 Y49.8936
G01 X31.6014 Y49.8110
G01 X31.5707 Y49.7253
G01 X31.5318 Y49.6431
G01 X31.4882 Y49.5700
G01 X31.4818 Y49.5604
G01 X31.4309 Y49.4920
G01 X31.3738 Y49.4288
G01 X31.3657 Y49.4207
G01 X31.3068 Y49.3673
G01 X31.2979 Y49.3600
G01 X31.2294 Y49.3094
G01 X31.1514 Y49.2626
G01 X31.0691 Y49.2237
G01 X30.9835 Y49.1931
G01 X30.8953 Y49.1710
G01 X30.8110 Y49.1584
G01 X30.7996 Y49.1572
G01 X30.7145 Y49.1532
G01 X30.6236 Y49.1577
G01 X30.5393 Y49.1700
G01 X30.5280 Y49.1723
G01 X30.4510 Y49.1916
G01 X30.4425 Y49.1940
G01 X30.3598 Y49.2237
G01 X30.2827 Y49.2600
G01 X30.2726 Y49.2655
G01 X30.2044 Y49.3063
G01 X30.1949 Y49.3127
G01 X30.1265 Y49.3636
G01 X30.0591 Y49.4246
G01 X29.9980 Y49.4920
G01 X29.9601 Y49.5430
G01 X28.1619 Y49.5430
G01 X26.8277 Y48.2088
G01 X26.8416 Y48.1148
G01 X26.8463 Y48.0200
G01 X26.8416 Y47.9252
G01 X26.8277 Y47.8314
G01 X26.8046 Y47.7394
G01 X26.7727 Y47.6500
G01 X26.7321 Y47.5643
G01 X26.6864 Y47.4877
G01 X26.6800 Y47.4782
G01 X26.6304 Y47.4112
G01 X26.6231 Y47.4023
G01 X26.5631 Y47.3364
G01 X26.4972 Y47.2764
G01 X26.4884 Y47.2692
G01 X26.4166 Y47.2161
G01 X26.3352 Y47.1674
G01 X26.2494 Y47.1268
G01 X26.1656 Y47.0966
G01 X26.1571 Y47.0940
G01 X26.0681 Y47.0718
G01 X25.9799 Y47.0585
G01 X25.9685 Y47.0574
G01 X25.8852 Y47.0533
G01 X25.8737 Y47.0533
G01 X25.7847 Y47.0578
G01 X25.6909 Y47.0718
G01 X25.5988 Y47.0948
G01 X25.5149 Y47.1247
G01 X25.5042 Y47.1291
G01 X25.4289 Y47.1648
G01 X25.4187 Y47.1702
G01 X25.3423 Y47.2161
G01 X25.2661 Y47.2726
G01 X25.1958 Y47.3364
G01 X25.1359 Y47.4023
G01 X25.1287 Y47.4110
G01 X25.0755 Y47.4830
G01 X20.7019 Y47.4830
G01 X18.8877 Y45.6688
G01 X18.9016 Y45.5748
G01 X18.9063 Y45.4800
G01 X18.9016 Y45.3852
G01 X18.8887 Y45.2971
G01 X18.8864 Y45.2858
G01 X18.8646 Y45.1994
G01 X18.8348 Y45.1154
G01 X18.8304 Y45.1048
G01 X18.7947 Y45.0294
G01 X18.7893 Y45.0192
G01 X18.7433 Y44.9429
G01 X18.6868 Y44.8667
G01 X18.6231 Y44.7964
G01 X18.5529 Y44.7327
G01 X18.4766 Y44.6761
G01 X18.3952 Y44.6274
G01 X18.3094 Y44.5868
G01 X18.2231 Y44.5558
G01 X18.2146 Y44.5533
G01 X18.1337 Y44.5330
G01 X18.1224 Y44.5308
G01 X18.0342 Y44.5178
G01 X17.9395 Y44.5132
G01 X17.8447 Y44.5178
G01 X17.7565 Y44.5308
G01 X17.7452 Y44.5330
G01 X17.6644 Y44.5533
G01 X17.6534 Y44.5566
G01 X17.5695 Y44.5868
G01 X17.4837 Y44.6274
G01 X17.4023 Y44.6761
G01 X17.3307 Y44.7291
G01 X17.3218 Y44.7364
G01 X17.2600 Y44.7924
G01 X17.2519 Y44.8005
G01 X17.1922 Y44.8666
G01 X17.1355 Y44.9430
G01 X14.0669 Y44.9430
G01 X7.0015 Y37.8776
G01 X7.0015 Y35.2544
G01 X7.0524 Y35.2164
G01 X7.1176 Y35.1575
G01 X7.1238 Y35.1512
G01 X7.1771 Y35.0923
G01 X7.1828 Y35.0855
G01 X7.2318 Y35.0196
G01 X7.2382 Y35.0100
G01 X7.2790 Y34.9419
G01 X7.2833 Y34.9341
G01 X7.3195 Y34.8575
G01 X7.3276 Y34.8358
G01 X7.3344 Y34.8375
G01 X7.3722 Y34.6864
G01 X7.3740 Y34.6778
G01 X7.3868 Y34.5908
G01 X7.3913 Y34.5000
G01 X7.3872 Y34.4149
G01 X7.3861 Y34.4034
G01 X7.3735 Y34.3192
G01 X7.3529 Y34.2365
G01 X7.3496 Y34.2255
G01 X7.3207 Y34.1453
G01 X7.2818 Y34.0631
G01 X7.2351 Y33.9851
G01 X7.1844 Y33.9166
G01 X7.1771 Y33.9077
G01 X7.1198 Y33.8446
G01 X7.0568 Y33.7873
G01 X7.0479 Y33.7800
G01 X6.9819 Y33.7311
G01 X6.9745 Y33.7263
G01 X6.9014 Y33.6826
G01 X6.8191 Y33.6437
G01 X6.7335 Y33.6131
G01 X6.6453 Y33.5910
G01 X6.5553 Y33.5777
G01 X6.4645 Y33.5732
G01 X6.3736 Y33.5777
G01 X6.2837 Y33.5910
G01 X6.1954 Y33.6131
G01 X6.1098 Y33.6437
G01 X6.0276 Y33.6826
G01 X5.9496 Y33.7294
G01 X5.8765 Y33.7836
G01 X5.8091 Y33.8446
G01 X5.7480 Y33.9120
G01 X5.6956 Y33.9825
G01 X5.6908 Y33.9900
G01 X5.6471 Y34.0631
G01 X5.6082 Y34.1453
G01 X5.5776 Y34.2310
G01 X5.5555 Y34.3192
G01 X5.5421 Y34.4092
G01 X5.5377 Y34.5000
G01 X5.5421 Y34.5908
G01 X5.5549 Y34.6778
G01 X5.5567 Y34.6864
G01 X5.5776 Y34.7690
G01 X5.6082 Y34.8547
G01 X5.6471 Y34.9369
G01 X5.6922 Y35.0123
G01 X5.6972 Y35.0196
G01 X5.7480 Y35.0880
G01 X5.8069 Y35.1531
G01 X5.8133 Y35.1593
G01 X5.8765 Y35.2164
G01 X5.9275 Y35.2544
G00 Z2.0000
G00 X11.1054 Y34.4155
G01 F60.00
G01 Z-0.1000
G01 F120.00
G01 X11.0924 Y34.5043
G01 X11.0878 Y34.5942
G01 X11.0878 Y34.6058
G01 X11.0919 Y34.6900
G01 X11.0931 Y34.7015
G01 X11.1064 Y34.7906
G01 X11.1297 Y34.8836
G01 X11.1620 Y34.9738
G01 X11.2004 Y35.0553
G01 X11.2058 Y35.0655
G01 X11.2523 Y35.1427
G01 X11.3058 Y35.2151
G01 X11.3131 Y35.2240
G01 X11.3698 Y35.2865
G01 X11.3779 Y35.2947
G01 X11.4448 Y35.3551
G01 X11.5218 Y35.4122
G01 X11.6040 Y35.4615
G01 X11.6854 Y35.5001
G01 X11.6960 Y35.5045
G01 X11.7755 Y35.5329
G01 X11.7865 Y35.5363
G01 X11.8739 Y35.5580
G01 X11.9630 Y35.5714
G01 X11.9745 Y35.5725
G01 X12.0645 Y35.5768
G01 X12.1602 Y35.5721
G01 X12.2550 Y35.5580
G01 X12.3478 Y35.5348
G01 X12.4383 Y35.5025
G01 X12.5249 Y35.4615
G01 X12.6072 Y35.4122
G01 X12.6841 Y35.3551
G01 X12.7552 Y35.2907
G01 X12.8158 Y35.2240
G01 X12.8231 Y35.2151
G01 X12.8767 Y35.1427
G01 X12.9231 Y35.0655
G01 X12.9285 Y35.0553
G01 X12.9646 Y34.9791
G01 X12.9690 Y34.9684
G01 X12.9992 Y34.8836
G01 X13.0225 Y34.7906
G01 X13.0366 Y34.6957
G01 X13.0411 Y34.6058
G01 X13.0412 Y34.5970
G01 X14.4030 Y34.5970
G01 X14.4596 Y34.6733
G01 X14.5194 Y34.7395
G01 X14.5275 Y34.7476
G01 X14.5893 Y34.8036
G01 X14.5982 Y34.8109
G01 X14.6698 Y34.8639
G01 X14.7512 Y34.9126
G01 X14.8370 Y34.9532
G01 X14.9263 Y34.9852
G01 X15.0184 Y35.0082
G01 X15.1065 Y35.0215
G01 X15.1179 Y35.0226
G01 X15.2012 Y35.0267
G01 X15.2127 Y35.0267
G01 X15.3017 Y35.0222
G01 X15.3956 Y35.0082
G01 X15.4876 Y34.9852
G01 X15.5769 Y34.9532
G01 X15.6627 Y34.9126
G01 X15.7392 Y34.8670
G01 X15.7488 Y34.8606
G01 X15.8158 Y34.8109
G01 X15.8247 Y34.8036
G01 X15.8906 Y34.7436
G01 X15.9543 Y34.6733
G01 X16.0108 Y34.5971
G01 X16.0568 Y34.5208
G01 X16.0622 Y34.5106
G01 X16.0979 Y34.4352
G01 X16.1023 Y34.4246
G01 X16.1321 Y34.3406
G01 X16.1552 Y34.2486
G01 X16.1691 Y34.1548
G01 X16.1736 Y34.0658
G01 X16.1736 Y34.0542
G01 X16.1691 Y33.9652
G01 X16.1552 Y33.8714
G01 X16.1321 Y33.7794
G01 X16.1002 Y33.6900
G01 X16.0596 Y33.6043
G01 X16.0108 Y33.5229
G01 X15.9543 Y33.4466
G01 X15.8906 Y33.3764
G01 X15.8204 Y33.3127
G01 X15.7441 Y33.2561
G01 X15.6627 Y33.2074
G01 X15.5769 Y33.1668
G01 X15.4876 Y33.1348
G01 X15.3956 Y33.1118
G01 X15.3017 Y33.0978
G01 X15.2070 Y33.0932
G01 X15.1122 Y33.0978
G01 X15.0184 Y33.1118
G01 X14.9319 Y33.1333
G01 X14.9209 Y33.1366
G01 X14.8424 Y33.1647
G01 X14.8317 Y33.1691
G01 X14.7512 Y33.2074
G01 X14.6747 Y33.2530
G01 X14.6651 Y33.2594
G01 X14.5936 Y33.3126
G01 X14.5233 Y33.3764
G01 X14.4597 Y33.4466
G01 X14.4030 Y33.5230
G01 X12.6040 Y33.5230
G01 X12.5576 Y33.5251
G01 X12.5461 Y33.5263
G01 X12.5054 Y33.5323
G01 X12.4941 Y33.5346
G01 X12.4486 Y33.5461
G01 X12.3990 Y33.5639
G01 X12.3565 Y33.5838
G01 X12.3463 Y33.5892
G01 X12.3061 Y33.6135
G01 X12.2646 Y33.6442
G01 X12.2499 Y33.6410
G01 X12.1602 Y33.6279
G01 X12.0702 Y33.6233
G01 X12.0587 Y33.6233
G01 X11.9687 Y33.6279
G01 X11.8796 Y33.6410
G01 X11.8683 Y33.6432
G01 X11.7865 Y33.6637
G01 X11.7779 Y33.6662
G01 X11.6907 Y33.6975
G01 X11.6091 Y33.7359
G01 X11.5990 Y33.7414
G01 X11.5218 Y33.7878
G01 X11.4493 Y33.8414
G01 X11.4404 Y33.8487
G01 X11.3738 Y33.9093
G01 X11.3131 Y33.9760
G01 X11.3058 Y33.9849
G01 X11.2556 Y34.0526
G01 X11.2492 Y34.0622
G01 X11.2030 Y34.1395
G01 X11.1643 Y34.2209
G01 X11.1599 Y34.2316
G01 X11.1307 Y34.3135
G01 X11.1235 Y34.3406
G01 X11.1166 Y34.3396
G01 X11.1054 Y34.4155
G00 Z2.0000
G00 X16.9727 Y42.1245
G01 F60.00
G01 Z-0.1000
G01 F120.00
G01 X16.9727 Y43.7581
G01 X16.9736 Y43.7705
G01 X16.9757 Y43.7828
G01 X16.9791 Y43.7948
G01 X16.9848 Y43.8092
G01 X16.9907 Y43.8202
G01 X16.9976 Y43.8305
G01 X17.0055 Y43.8402
G01 X17.0143 Y43.8490
G01 X17.0239 Y43.8569
G01 X17.0343 Y43.8638
G01 X17.0452 Y43.8696
G01 X17.0538 Y43.8733
G01 X17.0656 Y43.8772
G01 X17.0747 Y43.8794
G01 X17.0870 Y43.8812
G01 X17.0964 Y43.8818
G01 X18.7799 Y43.8818
G01 X18.7950 Y43.8809
G01 X18.8072 Y43.8787
G01 X18.8192 Y43.8754
G01 X18.8309 Y43.8709
G01 X18.8420 Y43.8653
G01 X18.8550 Y43.8569
G01 X18.8646 Y43.8490
G01 X18.8734 Y43.8402
G01 X18.8794 Y43.8330
G01 X18.8866 Y43.8228
G01 X18.8913 Y43.8148
G01 X18.8966 Y43.8035
G01 X18.8999 Y43.7948
G01 X18.9032 Y43.7828
G01 X18.9053 Y43.7705
G01 X18.9062 Y43.7581
G01 X18.9063 Y42.1245
G01 X18.9053 Y42.1095
G01 X18.9032 Y42.0972
G01 X18.8999 Y42.0852
G01 X18.8954 Y42.0736
G01 X18.8882 Y42.0598
G01 X18.8813 Y42.0495
G01 X18.8734 Y42.0398
G01 X18.8646 Y42.0310
G01 X18.8550 Y42.0231
G01 X18.8447 Y42.0162
G01 X18.8337 Y42.0104
G01 X18.8251 Y42.0067
G01 X18.8163 Y42.0037
G01 X18.8042 Y42.0006
G01 X18.7919 Y41.9988
G01 X18.7826 Y41.9982
G01 X17.0932 Y41.9983
G01 X17.0809 Y41.9996
G01 X17.0687 Y42.0020
G01 X17.0567 Y42.0056
G01 X17.0452 Y42.0104
G01 X17.0343 Y42.0162
G01 X17.0239 Y42.0231
G01 X17.0143 Y42.0310
G01 X17.0076 Y42.0376
G01 X16.9995 Y42.0470
G01 X16.9923 Y42.0572
G01 X16.9876 Y42.0652
G01 X16.9823 Y42.0765
G01 X16.9781 Y42.0882
G01 X16.9751 Y42.1003
G01 X16.9733 Y42.1126
G01 X16.9727 Y42.1245
G00 Z2.0000
G00 X17.1881 Y47.4118
G01 F60.00
G01 Z-0.1000
G01 F120.00
G01 X17.1356 Y47.4829
G01 X17.0868 Y47.5643
G01 X17.0463 Y47.6500
G01 X17.0143 Y47.7394
G01 X16.9912 Y47.8314
G01 X16.9773 Y47.9252
G01 X16.9727 Y48.0200
G01 X16.9769 Y48.1090
G01 X16.9780 Y48.1205
G01 X16.9902 Y48.2029
G01 X16.9925 Y48.2142
G01 X17.0143 Y48.3006
G01 X17.0442 Y48.3846
G01 X17.0486 Y48.3952
G01 X17.0868 Y48.4757
G01 X17.1356 Y48.5571
G01 X17.1921 Y48.6333
G01 X17.2519 Y48.6995
G01 X17.2600 Y48.7076
G01 X17.3261 Y48.7674
G01 X17.3976 Y48.8206
G01 X17.4072 Y48.8270
G01 X17.4837 Y48.8726
G01 X17.5642 Y48.9109
G01 X17.5749 Y48.9153
G01 X17.6588 Y48.9452
G01 X17.7452 Y48.9670
G01 X17.7565 Y48.9692
G01 X17.8447 Y48.9822
G01 X17.9337 Y48.9867
G01 X17.9452 Y48.9867
G01 X18.0342 Y48.9822
G01 X18.1282 Y48.9682
G01 X23.0401 Y53.8801
G01 X23.0788 Y53.9151
G01 X23.1211 Y53.9465
G01 X23.1663 Y53.9736
G01 X23.2140 Y53.9961
G01 X23.2636 Y54.0139
G01 X23.3147 Y54.0267
G01 X23.3668 Y54.0344
G01 X23.4190 Y54.0370
G01 X29.7101 Y54.0370
G01 X29.7480 Y54.0880
G01 X29.8051 Y54.1512
G01 X29.8133 Y54.1593
G01 X29.8741 Y54.2144
G01 X29.8810 Y54.2200
G01 X29.9496 Y54.2706
G01 X30.0226 Y54.3145
G01 X30.0303 Y54.3188
G01 X30.1045 Y54.3539
G01 X30.1152 Y54.3583
G01 X30.1954 Y54.3869
G01 X30.2780 Y54.4077
G01 X30.2893 Y54.4100
G01 X30.3736 Y54.4223
G01 X30.4645 Y54.4268
G01 X30.5553 Y54.4223
G01 X30.6396 Y54.4100
G01 X30.6509 Y54.4077
G01 X30.7335 Y54.3869
G01 X30.8138 Y54.3583
G01 X30.8244 Y54.3539
G01 X30.8986 Y54.3188
G01 X30.9064 Y54.3145
G01 X30.9794 Y54.2706
G01 X31.0479 Y54.2200
G01 X31.0548 Y54.2144
G01 X31.1157 Y54.1593
G01 X31.1238 Y54.1512
G01 X31.1809 Y54.0880
G01 X31.2189 Y54.0370
G01 X33.1649 Y54.0370
G01 X33.2171 Y54.0344
G01 X33.2636 Y54.0277
G01 X33.2748 Y54.0254
G01 X33.3148 Y54.0154
G01 X33.3233 Y54.0129
G01 X33.3646 Y53.9982
G01 X33.3752 Y53.9938
G01 X33.4176 Y53.9736
G01 X33.4580 Y53.9496
G01 X33.4675 Y53.9432
G01 X33.5051 Y53.9151
G01 X33.5439 Y53.8801
G01 X40.3445 Y47.0794
G01 X40.3796 Y47.0407
G01 X40.4077 Y47.0031
G01 X40.4141 Y46.9935
G01 X40.4381 Y46.9531
G01 X40.4606 Y46.9055
G01 X40.4766 Y46.8614
G01 X40.4799 Y46.8503
G01 X40.4912 Y46.8048
G01 X40.4982 Y46.7583
G01 X40.4993 Y46.7469
G01 X40.5015 Y46.7005
G01 X40.5015 Y40.9244
G01 X40.5524 Y40.8864
G01 X40.6198 Y40.8254
G01 X40.6809 Y40.7580
G01 X40.7318 Y40.6896
G01 X40.7382 Y40.6800
G01 X40.7790 Y40.6119
G01 X40.7844 Y40.6018
G01 X40.8207 Y40.5247
G01 X40.8505 Y40.4419
G01 X40.8529 Y40.4334
G01 X40.8722 Y40.3564
G01 X40.8745 Y40.3451
G01 X40.8868 Y40.2608
G01 X40.8913 Y40.1700
G01 X40.8868 Y40.0792
G01 X40.8745 Y39.9949
G01 X40.8722 Y39.9836
G01 X40.8529 Y39.9065
G01 X40.8504 Y39.8980
G01 X40.8207 Y39.8153
G01 X40.7844 Y39.7382
G01 X40.7790 Y39.7281
G01 X40.7382 Y39.6600
G01 X40.7318 Y39.6504
G01 X40.6809 Y39.5820
G01 X40.6198 Y39.5146
G01 X40.5524 Y39.4536
G01 X40.4841 Y39.4027
G01 X40.4745 Y39.3963
G01 X40.4064 Y39.3555
G01 X40.3962 Y39.3500
G01 X40.3191 Y39.3137
G01 X40.2335 Y39.2831
G01 X40.1453 Y39.2610
G01 X40.0610 Y39.2484
G01 X40.0496 Y39.2472
G01 X39.9702 Y39.2433
G01 X39.9587 Y39.2433
G01 X39.8736 Y39.2477
G01 X39.7837 Y39.2610
G01 X39.6954 Y39.2831
G01 X39.6152 Y39.3117
G01 X39.6045 Y39.3161
G01 X39.5327 Y39.3500
G01 X39.5226 Y39.3555
G01 X39.4496 Y39.3994
G01 X39.3765 Y39.4536
G01 X39.3091 Y39.5146
G01 X39.2518 Y39.5777
G01 X39.2445 Y39.5866
G01 X39.1972 Y39.6504
G01 X39.1908 Y39.6600
G01 X39.1471 Y39.7331
G01 X39.1082 Y39.8153
G01 X39.0776 Y39.9010
G01 X39.0561 Y39.9861
G01 X39.0545 Y39.9949
G01 X39.0428 Y40.0734
G01 X39.0417 Y40.0849
G01 X39.0377 Y40.1700
G01 X39.0421 Y40.2608
G01 X39.0545 Y40.3451
G01 X39.0567 Y40.3564
G01 X39.0776 Y40.4390
G01 X39.1071 Y40.5218
G01 X39.1105 Y40.5299
G01 X39.1445 Y40.6018
G01 X39.1499 Y40.6119
G01 X39.1939 Y40.6849
G01 X39.2461 Y40.7555
G01 X39.2518 Y40.7623
G01 X39.3051 Y40.8212
G01 X39.3113 Y40.8275
G01 X39.3765 Y40.8864
G01 X39.4275 Y40.9244
G01 X39.4275 Y46.4776
G01 X32.9420 Y52.9630
G01 X31.2189 Y52.9630
G01 X31.1809 Y52.9120
G01 X31.1238 Y52.8488
G01 X31.1157 Y52.8407
G01 X31.0548 Y52.7856
G01 X31.0479 Y52.7800
G01 X30.9794 Y52.7294
G01 X30.9064 Y52.6855
G01 X30.8986 Y52.6812
G01 X30.8244 Y52.6461
G01 X30.8138 Y52.6417
G01 X30.7335 Y52.6131
G01 X30.6509 Y52.5923
G01 X30.6396 Y52.5900
G01 X30.5553 Y52.5777
G01 X30.4645 Y52.5732
G01 X30.3736 Y52.5777
G01 X30.2893 Y52.5900
G01 X30.2780 Y52.5923
G01 X30.1954 Y52.6131
G01 X30.1152 Y52.6417
G01 X30.1045 Y52.6461
G01 X30.0303 Y52.6812
G01 X30.0226 Y52.6855
G01 X29.9496 Y52.7294
G01 X29.8810 Y52.7800
G01 X29.8741 Y52.7856
G01 X29.8133 Y52.8407
G01 X29.8051 Y52.8488
G01 X29.7480 Y52.9120
G01 X29.7101 Y52.9630
G01 X23.6419 Y52.9630
G01 X18.8877 Y48.2088
G01 X18.9009 Y48.1205
G01 X18.9020 Y48.1090
G01 X18.9063 Y48.0200
G01 X18.9020 Y47.9310
G01 X18.9009 Y47.9195
G01 X18.8877 Y47.8314
G01 X18.8662 Y47.7449
G01 X18.8628 Y47.7339
G01 X18.8327 Y47.6500
G01 X18.7947 Y47.5694
G01 X18.7893 Y47.5592
G01 X18.7433 Y47.4829
G01 X18.6904 Y47.4112
G01 X18.6831 Y47.4023
G01 X18.6231 Y47.3364
G01 X18.5552 Y47.2747
G01 X18.5484 Y47.2692
G01 X18.4766 Y47.2161
G01 X18.3952 Y47.1674
G01 X18.3094 Y47.1268
G01 X18.2201 Y47.0948
G01 X18.1281 Y47.0718
G01 X18.0342 Y47.0578
G01 X17.9395 Y47.0532
G01 X17.8447 Y47.0578
G01 X17.7509 Y47.0718
G01 X17.6588 Y47.0948
G01 X17.5695 Y47.1268
G01 X17.4837 Y47.1674
G01 X17.4023 Y47.2161
G01 X17.3261 Y47.2726
G01 X17.2581 Y47.3342
G01 X17.2396 Y47.3540
G01 X17.2340 Y47.3499
G01 X17.1881 Y47.4118
G00 Z2.0000
G00 X25.1281 Y49.9518
G01 F60.00
G01 Z-0.1000
G01 F120.00
G01 X25.0756 Y50.0229
G01 X25.0268 Y50.1043
G01 X24.9863 Y50.1900
G01 X24.9543 Y50.2794
G01 X24.9312 Y50.3714
G01 X24.9173 Y50.4652
G01 X24.9127 Y50.5600
G01 X24.9173 Y50.6548
G01 X24.9312 Y50.7486
G01 X24.9543 Y50.8406
G01 X24.9863 Y50.9300
G01 X25.0268 Y51.0157
G01 X25.0756 Y51.0971
G01 X25.1321 Y51.1733
G01 X25.1958 Y51.2436
G01 X25.2661 Y51.3074
G01 X25.3423 Y51.3639
G01 X25.4237 Y51.4126
G01 X25.5095 Y51.4532
G01 X25.5988 Y51.4852
G01 X25.6909 Y51.5082
G01 X25.7847 Y51.5222
G01 X25.8795 Y51.5268
G01 X25.9742 Y51.5222
G01 X26.0681 Y51.5082
G01 X26.1601 Y51.4852
G01 X26.2494 Y51.4532
G01 X26.3352 Y51.4126
G01 X26.4166 Y51.3639
G01 X26.4928 Y51.3074
G01 X26.5631 Y51.2436
G01 X26.6268 Y51.1733
G01 X26.6833 Y51.0971
G01 X26.7321 Y51.0157
G01 X26.7727 Y50.9300
G01 X26.8046 Y50.8406
G01 X26.8277 Y50.7486
G01 X26.8416 Y50.6548
G01 X26.8463 Y50.5600
G01 X26.8416 Y50.4652
G01 X26.8277 Y50.3714
G01 X26.8046 Y50.2794
G01 X26.7727 Y50.1900
G01 X26.7321 Y50.1043
G01 X26.6833 Y50.0229
G01 X26.6268 Y49.9466
G01 X26.5631 Y49.8764
G01 X26.4929 Y49.8127
G01 X26.4166 Y49.7561
G01 X26.3352 Y49.7074
G01 X26.2494 Y49.6668
G01 X26.1601 Y49.6348
G01 X26.0681 Y49.6118
G01 X25.9742 Y49.5978
G01 X25.8795 Y49.5932
G01 X25.7847 Y49.5978
G01 X25.6909 Y49.6118
G01 X25.5988 Y49.6348
G01 X25.5095 Y49.6668
G01 X25.4237 Y49.7074
G01 X25.3423 Y49.7561
G01 X25.2661 Y49.8126
G01 X25.1981 Y49.8742
G01 X25.1796 Y49.8940
G01 X25.1740 Y49.8899
G01 X25.1281 Y49.9518
G00 Z2.0000
G00 X25.1281 Y42.3318
G01 F60.00
G01 Z-0.1000
G01 F120.00
G01 X25.0756 Y42.4029
G01 X25.0268 Y42.4843
G01 X24.9863 Y42.5700
G01 X24.9543 Y42.6594
G01 X24.9312 Y42.7514
G01 X24.9173 Y42.8452
G01 X24.9127 Y42.9400
G01 X24.9173 Y43.0348
G01 X24.9312 Y43.1286
G01 X24.9543 Y43.2206
G01 X24.9863 Y43.3100
G01 X25.0268 Y43.3957
G01 X25.0756 Y43.4771
G01 X25.1321 Y43.5533
G01 X25.1958 Y43.6236
G01 X25.2661 Y43.6874
G01 X25.3423 Y43.7439
G01 X25.4237 Y43.7926
G01 X25.5095 Y43.8332
G01 X25.5988 Y43.8652
G01 X25.6909 Y43.8882
G01 X25.7847 Y43.9022
G01 X25.8795 Y43.9068
G01 X25.9742 Y43.9022
G01 X26.0681 Y43.8882
G01 X26.1601 Y43.8652
G01 X26.2494 Y43.8332
G01 X26.3352 Y43.7926
G01 X26.4166 Y43.7439
G01 X26.4928 Y43.6874
G01 X26.5631 Y43.6236
G01 X26.6268 Y43.5533
G01 X26.6833 Y43.4771
G01 X26.7321 Y43.3957
G01 X26.7727 Y43.3100
G01 X26.8046 Y43.2206
G01 X26.8277 Y43.1286
G01 X26.8416 Y43.0348
G01 X26.8463 Y42.9400
G01 X26.8416 Y42.8452
G01 X26.8277 Y42.7514
G01 X26.8046 Y42.6594
G01 X26.7727 Y42.5700
G01 X26.7321 Y42.4843
G01 X26.6833 Y42.4029
G01 X26.6268 Y42.3266
G01 X26.5631 Y42.2564
G01 X26.4929 Y42.1927
G01 X26.4166 Y42.1361
G01 X26.3352 Y42.0874
G01 X26.2494 Y42.0468
G01 X26.1601 Y42.0148
G01 X26.0681 Y41.9918
G01 X25.9742 Y41.9778
G01 X25.8795 Y41.9732
G01 X25.7847 Y41.9778
G01 X25.6909 Y41.9918
G01 X25.5988 Y42.0148
G01 X25.5095 Y42.0468
G01 X25.4237 Y42.0874
G01 X25.3423 Y42.1361
G01 X25.2661 Y42.1926
G01 X25.1981 Y42.2542
G01 X25.1796 Y42.2740
G01 X25.1740 Y42.2699
G01 X25.1281 Y42.3318
G00 Z2.0000
G00 X21.9632 Y33.7758
G01 F60.00
G01 Z-0.1000
G01 F120.00
G01 X22.0222 Y33.5941
G01 X22.1089 Y33.4239
G01 X22.2212 Y33.2693
G01 X22.3563 Y33.1342
G01 X22.5109 Y33.0219
G01 X22.5329 Y33.0105
G01 X22.5458 Y33.0021
G01 X22.5526 Y32.9966
G01 X22.5984 Y32.9570
G01 X22.6047 Y32.9511
G01 X22.6129 Y32.9420
G01 X22.6202 Y32.9323
G01 X22.6265 Y32.9219
G01 X22.6318 Y32.9109
G01 X22.6349 Y32.9028
G01 X22.6577 Y32.8358
G01 X22.6603 Y32.8272
G01 X22.6623 Y32.8179
G01 X22.6636 Y32.8086
G01 X22.6643 Y32.7960
G01 X22.6640 Y32.7866
G01 X22.6630 Y32.7772
G01 X22.6607 Y32.7653
G01 X22.6430 Y32.6940
G01 X22.6391 Y32.6820
G01 X22.6326 Y32.6677
G01 X22.6243 Y32.6543
G01 X22.6144 Y32.6420
G01 X22.6081 Y32.6356
G01 X22.5567 Y32.5870
G01 X22.5479 Y32.5795
G01 X22.5405 Y32.5742
G01 X22.5329 Y32.5694
G01 X22.5108 Y32.5581
G01 X22.3563 Y32.4458
G01 X22.2828 Y32.3725
G01 X22.2520 Y32.3477
G01 X22.2416 Y32.3408
G01 X22.2306 Y32.3351
G01 X22.2161 Y32.3294
G01 X22.1432 Y32.3080
G01 X22.1284 Y32.3050
G01 X22.1194 Y32.3040
G01 X22.1108 Y32.3037
G01 X19.3313 Y32.3037
G01 X19.3181 Y32.3041
G01 X19.3092 Y32.3048
G01 X19.2999 Y32.3062
G01 X19.2908 Y32.3082
G01 X19.2793 Y32.3118
G01 X19.2075 Y32.3388
G01 X19.1962 Y32.3443
G01 X19.1829 Y32.3528
G01 X19.1755 Y32.3586
G01 X19.1686 Y32.3650
G01 X19.1581 Y32.3767
G01 X19.1124 Y32.4377
G01 X19.1056 Y32.4483
G01 X19.1000 Y32.4596
G01 X19.0964 Y32.4683
G01 X19.0936 Y32.4773
G01 X19.0908 Y32.4896
G01 X19.0896 Y32.4990
G01 X19.0840 Y32.5781
G01 X19.0844 Y32.5907
G01 X19.0866 Y32.6063
G01 X19.0888 Y32.6154
G01 X19.0917 Y32.6244
G01 X19.0953 Y32.6332
G01 X19.0993 Y32.6412
G01 X19.1360 Y32.7082
G01 X19.1428 Y32.7182
G01 X19.1525 Y32.7297
G01 X22.9160 Y36.4932
G01 X22.9253 Y36.5016
G01 X22.9513 Y36.5223
G01 X22.9617 Y36.5292
G01 X22.9727 Y36.5349
G01 X22.9872 Y36.5406
G01 X23.0601 Y36.5620
G01 X23.0749 Y36.5650
G01 X23.0839 Y36.5660
G01 X23.0925 Y36.5663
G01 X28.2217 Y36.5663
G01 X28.3731 Y36.5964
G01 X28.5157 Y36.6555
G01 X28.6440 Y36.7413
G01 X30.5760 Y38.6732
G01 X30.5831 Y38.6798
G01 X30.6067 Y38.6988
G01 X30.6138 Y38.7041
G01 X30.6217 Y38.7092
G01 X30.6327 Y38.7149
G01 X30.6472 Y38.7206
G01 X30.7231 Y38.7427
G01 X30.7349 Y38.7450
G01 X30.7469 Y38.7462
G01 X30.8068 Y38.7463
G01 X30.9893 Y38.7752
G01 X31.1650 Y38.8323
G01 X31.3296 Y38.9162
G01 X31.4791 Y39.0247
G01 X31.6097 Y39.1554
G01 X31.7183 Y39.3048
G01 X31.8022 Y39.4695
G01 X31.8593 Y39.6452
G01 X31.8882 Y39.8276
G01 X31.8882 Y40.0124
G01 X31.8593 Y40.1948
G01 X31.8022 Y40.3705
G01 X31.7183 Y40.5352
G01 X31.6097 Y40.6846
G01 X31.4791 Y40.8152
G01 X31.3428 Y40.9143
G01 X31.3360 Y40.9198
G01 X31.3127 Y40.9412
G01 X31.3021 Y40.9523
G01 X31.2944 Y40.9623
G01 X31.2862 Y40.9759
G01 X31.2542 Y41.0456
G01 X31.2498 Y41.0569
G01 X31.2470 Y41.0659
G01 X31.2450 Y41.0751
G01 X31.2437 Y41.0845
G01 X31.2430 Y41.0971
G01 X31.2438 Y41.1128
G01 X31.2543 Y41.1855
G01 X31.2566 Y41.1974
G01 X31.2613 Y41.2124
G01 X31.2664 Y41.2239
G01 X31.2743 Y41.2375
G01 X31.2818 Y41.2476
G01 X31.3339 Y41.3075
G01 X31.3407 Y41.3141
G01 X31.3479 Y41.3201
G01 X31.3609 Y41.3290
G01 X31.3749 Y41.3361
G01 X31.3867 Y41.3406
G01 X31.4597 Y41.3620
G01 X31.4685 Y41.3640
G01 X31.4805 Y41.3657
G01 X31.4920 Y41.3663
G01 X31.5365 Y41.3663
G01 X31.5461 Y41.3659
G01 X31.5820 Y41.3619
G01 X31.5912 Y41.3601
G01 X31.6002 Y41.3577
G01 X31.6119 Y41.3534
G01 X31.6203 Y41.3494
G01 X31.6870 Y41.3130
G01 X31.6996 Y41.3047
G01 X31.7111 Y41.2950
G01 X37.4149 Y35.5913
G01 X37.5432 Y35.5055
G01 X37.6859 Y35.4464
G01 X37.8373 Y35.4163
G01 X42.3417 Y35.4163
G01 X42.4931 Y35.4464
G01 X42.6357 Y35.5055
G01 X42.7640 Y35.5913
G01 X45.9732 Y38.8004
G01 X46.0590 Y38.9288
G01 X46.1181 Y39.0714
G01 X46.1482 Y39.2228
G01 X46.1482 Y49.5220
G01 X46.1486 Y49.5317
G01 X46.1521 Y49.5645
G01 X46.1543 Y49.5767
G01 X46.1578 Y49.5887
G01 X46.1611 Y49.5974
G01 X46.1650 Y49.6059
G01 X46.2015 Y49.6726
G01 X46.2098 Y49.6852
G01 X46.2155 Y49.6922
G01 X46.2213 Y49.6985
G01 X48.6660 Y52.1432
G01 X48.6753 Y52.1516
G01 X48.6967 Y52.1688
G01 X48.7038 Y52.1741
G01 X48.7172 Y52.1822
G01 X48.7285 Y52.1874
G01 X48.7398 Y52.1913
G01 X48.8101 Y52.2120
G01 X48.8249 Y52.2150
G01 X48.8400 Y52.2163
G01 X49.6735 Y52.2163
G01 X49.6860 Y52.2156
G01 X49.7160 Y52.2124
G01 X49.7252 Y52.2108
G01 X49.7343 Y52.2086
G01 X49.7431 Y52.2057
G01 X49.7574 Y52.1994
G01 X49.8241 Y52.1630
G01 X49.8367 Y52.1547
G01 X49.8437 Y52.1490
G01 X49.8500 Y52.1432
G01 X49.9647 Y52.0285
G01 X50.1269 Y51.9106
G01 X50.3055 Y51.8196
G01 X50.4962 Y51.7577
G01 X50.6942 Y51.7263
G01 X50.8947 Y51.7263
G01 X51.0927 Y51.7577
G01 X51.2834 Y51.8196
G01 X51.4620 Y51.9106
G01 X51.6242 Y52.0285
G01 X51.7390 Y52.1432
G01 X51.7461 Y52.1498
G01 X51.7718 Y52.1705
G01 X51.7820 Y52.1775
G01 X51.7957 Y52.1849
G01 X51.8102 Y52.1906
G01 X51.8860 Y52.2127
G01 X51.8979 Y52.2150
G01 X51.9129 Y52.2163
G01 X52.2394 Y52.2163
G01 X52.2490 Y52.2156
G01 X52.2763 Y52.2127
G01 X52.2882 Y52.2108
G01 X52.3032 Y52.2067
G01 X52.3176 Y52.2008
G01 X52.3896 Y52.1615
G01 X52.4020 Y52.1529
G01 X52.4130 Y52.1432
G01 X54.3777 Y50.1785
G01 X54.3842 Y50.1714
G01 X54.4049 Y50.1457
G01 X54.4120 Y50.1354
G01 X54.4181 Y50.1245
G01 X54.4219 Y50.1160
G01 X54.4250 Y50.1072
G01 X54.4458 Y50.0368
G01 X54.4479 Y50.0285
G01 X54.4495 Y50.0195
G01 X54.4504 Y50.0105
G01 X54.4508 Y50.0020
G01 X54.4508 Y44.7845
G01 X54.4504 Y44.7749
G01 X54.4472 Y44.7447
G01 X54.4459 Y44.7359
G01 X54.4439 Y44.7268
G01 X54.4401 Y44.7149
G01 X54.4339 Y44.7007
G01 X54.3959 Y44.6314
G01 X54.3892 Y44.6214
G01 X54.3815 Y44.6121
G01 X54.3392 Y44.5696
G01 X54.2306 Y44.4202
G01 X54.1865 Y44.3336
G01 X54.1801 Y44.3231
G01 X54.1728 Y44.3132
G01 X54.1314 Y44.2655
G01 X54.1255 Y44.2591
G01 X54.1188 Y44.2529
G01 X54.1117 Y44.2472
G01 X54.1042 Y44.2420
G01 X54.0963 Y44.2374
G01 X54.0881 Y44.2333
G01 X54.0797 Y44.2299
G01 X54.0047 Y44.2044
G01 X53.9924 Y44.2016
G01 X53.9831 Y44.2002
G01 X53.9736 Y44.1996
G01 X53.9642 Y44.1996
G01 X53.9517 Y44.2008
G01 X53.9424 Y44.2025
G01 X53.8710 Y44.2202
G01 X53.8624 Y44.2226
G01 X53.8506 Y44.2272
G01 X53.8394 Y44.2328
G01 X53.8288 Y44.2396
G01 X53.8189 Y44.2473
G01 X53.8101 Y44.2557
G01 X53.7615 Y44.3072
G01 X53.7558 Y44.3136
G01 X53.7504 Y44.3208
G01 X53.7454 Y44.3284
G01 X53.7412 Y44.3359
G01 X53.6983 Y44.4202
G01 X53.5897 Y44.5696
G01 X53.4591 Y44.7003
G01 X53.3096 Y44.8088
G01 X53.1450 Y44.8927
G01 X52.9693 Y44.9498
G01 X52.7868 Y44.9787
G01 X52.6021 Y44.9787
G01 X52.4196 Y44.9498
G01 X52.2439 Y44.8927
G01 X52.0793 Y44.8088
G01 X51.9299 Y44.7003
G01 X51.7992 Y44.5696
G01 X51.6906 Y44.4202
G01 X51.6068 Y44.2555
G01 X51.5497 Y44.0798
G01 X51.5208 Y43.8974
G01 X51.5208 Y43.7126
G01 X51.5497 Y43.5302
G01 X51.6068 Y43.3545
G01 X51.6906 Y43.1898
G01 X51.7992 Y43.0404
G01 X51.8420 Y42.9974
G01 X51.8649 Y42.9691
G01 X51.8736 Y42.9562
G01 X51.8807 Y42.9423
G01 X51.8850 Y42.9307
G01 X51.9058 Y42.8602
G01 X51.9079 Y42.8519
G01 X51.9099 Y42.8400
G01 X51.9108 Y42.8254
G01 X51.9108 Y41.6928
G01 X51.9409 Y41.5414
G01 X52.0000 Y41.3988
G01 X52.0857 Y41.2704
G01 X54.3777 Y38.9785
G01 X54.3861 Y38.9691
G01 X54.4068 Y38.9432
G01 X54.4152 Y38.9301
G01 X54.4207 Y38.9189
G01 X54.4258 Y38.9047
G01 X54.4465 Y38.8343
G01 X54.4495 Y38.8195
G01 X54.4504 Y38.8105
G01 X54.4508 Y38.8020
G01 X54.4508 Y37.1645
G01 X54.4504 Y37.1549
G01 X54.4468 Y37.1220
G01 X54.4453 Y37.1128
G01 X54.4421 Y37.1008
G01 X54.4390 Y37.0920
G01 X54.4339 Y37.0807
G01 X54.3987 Y37.0162
G01 X54.3909 Y37.0038
G01 X54.3854 Y36.9966
G01 X54.3794 Y36.9899
G01 X54.3392 Y36.9496
G01 X54.2306 Y36.8002
G01 X54.1877 Y36.7159
G01 X54.1834 Y36.7083
G01 X54.1784 Y36.7006
G01 X54.1711 Y36.6912
G01 X54.1297 Y36.6435
G01 X54.1211 Y36.6349
G01 X54.1141 Y36.6291
G01 X54.1042 Y36.6220
G01 X54.0963 Y36.6174
G01 X54.0881 Y36.6133
G01 X54.0772 Y36.6090
G01 X54.0047 Y36.5844
G01 X53.9955 Y36.5822
G01 X53.9862 Y36.5806
G01 X53.9705 Y36.5795
G01 X53.9548 Y36.5804
G01 X53.9424 Y36.5825
G01 X53.8654 Y36.6017
G01 X53.8535 Y36.6059
G01 X53.8422 Y36.6113
G01 X53.8314 Y36.6178
G01 X53.8213 Y36.6253
G01 X53.8101 Y36.6357
G01 X53.7615 Y36.6872
G01 X53.7521 Y36.6984
G01 X53.7470 Y36.7058
G01 X53.7424 Y36.7136
G01 X53.6983 Y36.8002
G01 X53.5897 Y36.9496
G01 X53.5469 Y36.9926
G01 X53.5240 Y37.0209
G01 X53.5153 Y37.0338
G01 X53.5109 Y37.0420
G01 X53.5071 Y37.0505
G01 X53.5031 Y37.0618
G01 X53.4825 Y37.1322
G01 X53.4805 Y37.1410
G01 X53.4787 Y37.1530
G01 X53.4782 Y37.1646
G01 X53.4782 Y37.4972
G01 X53.4481 Y37.6486
G01 X53.3890 Y37.7912
G01 X53.3032 Y37.9196
G01 X52.2640 Y38.9587
G01 X52.1357 Y39.0445
G01 X51.9931 Y39.1036
G01 X51.8417 Y39.1337
G01 X48.9373 Y39.1337
G01 X48.7859 Y39.1036
G01 X48.6432 Y39.0445
G01 X48.5149 Y38.9587
G01 X46.7557 Y37.1996
G01 X46.6700 Y37.0712
G01 X46.6109 Y36.9286
G01 X46.5808 Y36.7772
G01 X46.5808 Y22.6562
G01 X46.5804 Y22.6466
G01 X46.5772 Y22.6164
G01 X46.5759 Y22.6076
G01 X46.5739 Y22.5985
G01 X46.5701 Y22.5866
G01 X46.5653 Y22.5752
G01 X46.5287 Y22.5079
G01 X46.5243 Y22.5005
G01 X46.5192 Y22.4931
G01 X46.5135 Y22.4860
G01 X46.5076 Y22.4797
G01 X43.0997 Y19.0718
G01 X43.0926 Y19.0652
G01 X43.0689 Y19.0462
G01 X43.0618 Y19.0409
G01 X43.0513 Y19.0343
G01 X43.0401 Y19.0288
G01 X43.0259 Y19.0237
G01 X42.9580 Y19.0037
G01 X42.9497 Y19.0016
G01 X42.9378 Y18.9996
G01 X42.9257 Y18.9987
G01 X42.7610 Y18.9987
G01 X42.5630 Y18.9673
G01 X42.3723 Y18.9054
G01 X42.1936 Y18.8144
G01 X42.0315 Y18.6965
G01 X41.8897 Y18.5548
G01 X41.7718 Y18.3926
G01 X41.6808 Y18.2139
G01 X41.6189 Y18.0233
G01 X41.5875 Y17.8252
G01 X41.5875 Y17.6248
G01 X41.6189 Y17.4267
G01 X41.6808 Y17.2361
G01 X41.7718 Y17.0574
G01 X41.8897 Y16.8952
G01 X42.0315 Y16.7535
G01 X42.1937 Y16.6356
G01 X42.3723 Y16.5446
G01 X42.5630 Y16.4827
G01 X42.7610 Y16.4513
G01 X42.9615 Y16.4513
G01 X43.1595 Y16.4827
G01 X43.3501 Y16.5446
G01 X43.5288 Y16.6356
G01 X43.6910 Y16.7535
G01 X43.8327 Y16.8952
G01 X43.9506 Y17.0574
G01 X43.9519 Y17.0600
G01 X44.0416 Y17.2361
G01 X44.1036 Y17.4267
G01 X44.1349 Y17.6248
G01 X44.1350 Y17.7899
G01 X44.1356 Y17.7995
G01 X44.1385 Y17.8269
G01 X44.1398 Y17.8356
G01 X44.1418 Y17.8448
G01 X44.1445 Y17.8537
G01 X44.1478 Y17.8624
G01 X44.1518 Y17.8709
G01 X44.1882 Y17.9376
G01 X44.1947 Y17.9477
G01 X44.2022 Y17.9572
G01 X44.2081 Y17.9635
G01 X47.9732 Y21.7287
G01 X48.0590 Y21.8570
G01 X48.1181 Y21.9997
G01 X48.1482 Y22.1511
G01 X48.1483 Y36.2783
G01 X48.1518 Y36.3119
G01 X48.1531 Y36.3206
G01 X48.1559 Y36.3328
G01 X48.1599 Y36.3445
G01 X48.1663 Y36.3582
G01 X48.2015 Y36.4226
G01 X48.2063 Y36.4303
G01 X48.2135 Y36.4399
G01 X48.2213 Y36.4485
G01 X48.6472 Y36.8743
G01 X48.6540 Y36.8804
G01 X48.6613 Y36.8860
G01 X48.7059 Y36.9160
G01 X48.7199 Y36.9237
G01 X48.7317 Y36.9286
G01 X48.7439 Y36.9322
G01 X48.7564 Y36.9346
G01 X48.8295 Y36.9431
G01 X48.8447 Y36.9438
G01 X48.8573 Y36.9431
G01 X48.8697 Y36.9411
G01 X48.8819 Y36.9379
G01 X48.8937 Y36.9335
G01 X48.9649 Y36.8986
G01 X48.9784 Y36.8904
G01 X48.9884 Y36.8828
G01 X48.9953 Y36.8764
G01 X49.0018 Y36.8695
G01 X49.0077 Y36.8621
G01 X49.0131 Y36.8544
G01 X49.0540 Y36.7864
G01 X49.0594 Y36.7750
G01 X49.0645 Y36.7601
G01 X49.0677 Y36.7447
G01 X49.0687 Y36.7353
G01 X49.0691 Y36.7259
G01 X49.0669 Y36.6499
G01 X49.0652 Y36.6349
G01 X49.0633 Y36.6261
G01 X49.0610 Y36.6178
G01 X49.0097 Y36.4598
G01 X48.9808 Y36.2774
G01 X48.9808 Y36.0926
G01 X49.0097 Y35.9102
G01 X49.0668 Y35.7345
G01 X49.1506 Y35.5698
G01 X49.2592 Y35.4204
G01 X49.3899 Y35.2897
G01 X49.5393 Y35.1812
G01 X49.7039 Y35.0973
G01 X49.8796 Y35.0402
G01 X50.0621 Y35.0113
G01 X50.1228 Y35.0111
G01 X50.1590 Y35.0074
G01 X50.1742 Y35.0044
G01 X50.1890 Y34.9996
G01 X50.2027 Y34.9932
G01 X50.2670 Y34.9580
G01 X50.2772 Y34.9515
G01 X50.2844 Y34.9460
G01 X50.2930 Y34.9382
G01 X51.7097 Y33.5214
G01 X51.7161 Y33.5141
G01 X51.7368 Y33.4882
G01 X51.7436 Y33.4778
G01 X51.7494 Y33.4667
G01 X51.7530 Y33.4581
G01 X51.7558 Y33.4497
G01 X51.7758 Y33.3818
G01 X51.7785 Y33.3705
G01 X51.7802 Y33.3586
G01 X51.7808 Y33.3470
G01 X51.7808 Y22.4128
G01 X51.8109 Y22.2614
G01 X51.8700 Y22.1188
G01 X51.9557 Y21.9904
G01 X56.3509 Y17.5952
G01 X56.3569 Y17.5884
G01 X56.3642 Y17.5788
G01 X56.3976 Y17.5265
G01 X56.4020 Y17.5181
G01 X56.4058 Y17.5093
G01 X56.4089 Y17.5004
G01 X56.4114 Y17.4912
G01 X56.4131 Y17.4818
G01 X56.4141 Y17.4729
G01 X56.4191 Y17.4022
G01 X56.4194 Y17.3901
G01 X56.4180 Y17.3744
G01 X56.4154 Y17.3621
G01 X56.4117 Y17.3501
G01 X56.4068 Y17.3385
G01 X56.3674 Y17.2663
G01 X56.3607 Y17.2563
G01 X56.3509 Y17.2448
G01 X54.8609 Y15.7548
G01 X54.8536 Y15.7484
G01 X54.8276 Y15.7277
G01 X54.8172 Y15.7208
G01 X54.8034 Y15.7138
G01 X54.7892 Y15.7087
G01 X54.7188 Y15.6880
G01 X54.7100 Y15.6860
G01 X54.6980 Y15.6843
G01 X54.6864 Y15.6837
G01 X40.8142 Y15.6837
G01 X40.8017 Y15.6844
G01 X40.7743 Y15.6873
G01 X40.7656 Y15.6886
G01 X40.7565 Y15.6906
G01 X40.7475 Y15.6933
G01 X40.7331 Y15.6992
G01 X40.6610 Y15.7385
G01 X40.6487 Y15.7471
G01 X40.6377 Y15.7568
G01 X38.9080 Y17.4865
G01 X38.9015 Y17.4936
G01 X38.8807 Y17.5193
G01 X38.8737 Y17.5296
G01 X38.8690 Y17.5377
G01 X38.8650 Y17.5461
G01 X38.8616 Y17.5548
G01 X38.8392 Y17.6307
G01 X38.8362 Y17.6455
G01 X38.8352 Y17.6545
G01 X38.8349 Y17.6630
G01 X38.8349 Y17.8252
G01 X38.8036 Y18.0233
G01 X38.7416 Y18.2139
G01 X38.6506 Y18.3926
G01 X38.5327 Y18.5548
G01 X38.4160 Y18.6716
G01 X38.4096 Y18.6788
G01 X38.3924 Y18.7002
G01 X38.3853 Y18.7099
G01 X38.3776 Y18.7234
G01 X38.3716 Y18.7378
G01 X38.3499 Y18.8112
G01 X38.3467 Y18.8254
G01 X38.3455 Y18.8344
G01 X38.3449 Y18.8460
G01 X38.3449 Y29.8304
G01 X38.3148 Y29.9818
G01 X38.2556 Y30.1246
G01 X38.1700 Y30.2528
G01 X35.8140 Y32.6087
G01 X35.8023 Y32.6168
G01 X35.7949 Y32.6228
G01 X35.7802 Y32.6367
G01 X35.7683 Y32.6492
G01 X35.7624 Y32.6562
G01 X35.7570 Y32.6636
G01 X35.7522 Y32.6714
G01 X35.7480 Y32.6794
G01 X35.7155 Y32.7510
G01 X35.7114 Y32.7629
G01 X35.7085 Y32.7751
G01 X35.7072 Y32.7845
G01 X35.7066 Y32.7939
G01 X35.7070 Y32.8096
G01 X35.7178 Y32.8855
G01 X35.7201 Y32.8974
G01 X35.7238 Y32.9095
G01 X35.7286 Y32.9211
G01 X35.7345 Y32.9322
G01 X35.7415 Y32.9427
G01 X35.7471 Y32.9497
G01 X35.7953 Y33.0052
G01 X35.8019 Y33.0120
G01 X35.8114 Y33.0201
G01 X35.8191 Y33.0256
G01 X35.8272 Y33.0305
G01 X35.8356 Y33.0348
G01 X35.8473 Y33.0396
G01 X35.9207 Y33.0613
G01 X35.9350 Y33.0645
G01 X35.9440 Y33.0657
G01 X35.9556 Y33.0663
G01 X36.1365 Y33.0663
G01 X36.1490 Y33.0656
G01 X36.1763 Y33.0627
G01 X36.1851 Y33.0614
G01 X36.1942 Y33.0594
G01 X36.2032 Y33.0567
G01 X36.2119 Y33.0534
G01 X36.2203 Y33.0494
G01 X36.2870 Y33.0130
G01 X36.2972 Y33.0065
G01 X36.3044 Y33.0010
G01 X36.3130 Y32.9932
G01 X39.9149 Y29.3913
G01 X40.0432 Y29.3055
G01 X40.1859 Y29.2464
G01 X40.3373 Y29.2163
G01 X42.5649 Y29.2163
G01 X42.5746 Y29.2159
G01 X42.6048 Y29.2127
G01 X42.6136 Y29.2114
G01 X42.6257 Y29.2086
G01 X42.6346 Y29.2057
G01 X42.6488 Y29.1994
G01 X42.7181 Y29.1615
G01 X42.7281 Y29.1547
G01 X42.7374 Y29.1470
G01 X42.7799 Y29.1047
G01 X42.9293 Y28.9962
G01 X43.0939 Y28.9123
G01 X43.2696 Y28.8552
G01 X43.4521 Y28.8263
G01 X43.6368 Y28.8263
G01 X43.8193 Y28.8552
G01 X43.9950 Y28.9123
G01 X44.1596 Y28.9962
G01 X44.3091 Y29.1047
G01 X44.4397 Y29.2354
G01 X44.5483 Y29.3848
G01 X44.6322 Y29.5495
G01 X44.6893 Y29.7252
G01 X44.7182 Y29.9076
G01 X44.7182 Y30.0924
G01 X44.6893 Y30.2748
G01 X44.6322 Y30.4505
G01 X44.5483 Y30.6152
G01 X44.4397 Y30.7646
G01 X44.3091 Y30.8953
G01 X44.1596 Y31.0038
G01 X43.9950 Y31.0877
G01 X43.8193 Y31.1448
G01 X43.6368 Y31.1737
G01 X43.4521 Y31.1737
G01 X43.2696 Y31.1448
G01 X43.0939 Y31.0877
G01 X42.9293 Y31.0038
G01 X42.7799 Y30.8953
G01 X42.7368 Y30.8525
G01 X42.7086 Y30.8295
G01 X42.6957 Y30.8208
G01 X42.6846 Y30.8151
G01 X42.6702 Y30.8094
G01 X42.5972 Y30.7880
G01 X42.5825 Y30.7850
G01 X42.5735 Y30.7840
G01 X42.5649 Y30.7837
G01 X40.8425 Y30.7837
G01 X40.8299 Y30.7844
G01 X40.8026 Y30.7873
G01 X40.7938 Y30.7886
G01 X40.7847 Y30.7906
G01 X40.7758 Y30.7933
G01 X40.7614 Y30.7992
G01 X40.6893 Y30.8385
G01 X40.6769 Y30.8471
G01 X40.6660 Y30.8568
G01 X37.0640 Y34.4587
G01 X36.9357 Y34.5445
G01 X36.7931 Y34.6036
G01 X36.6417 Y34.6337
G01 X26.0873 Y34.6337
G01 X25.9359 Y34.6036
G01 X25.7971 Y34.5461
G01 X25.7932 Y34.5445
G01 X25.6649 Y34.4587
G01 X24.7499 Y33.5439
G01 X24.7207 Y33.5204
G01 X24.7134 Y33.5150
G01 X24.7026 Y33.5085
G01 X24.6882 Y33.5018
G01 X24.6767 Y33.4979
G01 X24.6028 Y33.4775
G01 X24.5935 Y33.4758
G01 X24.5841 Y33.4748
G01 X24.5684 Y33.4746
G01 X24.5528 Y33.4764
G01 X24.5405 Y33.4792
G01 X24.4677 Y33.5017
G01 X24.4589 Y33.5051
G01 X24.4503 Y33.5090
G01 X24.4421 Y33.5137
G01 X24.4342 Y33.5189
G01 X24.4244 Y33.5267
G01 X24.4132 Y33.5378
G01 X24.3642 Y33.5961
G01 X24.3586 Y33.6037
G01 X24.3535 Y33.6117
G01 X24.3477 Y33.6229
G01 X24.3442 Y33.6316
G01 X24.3404 Y33.6436
G01 X24.3375 Y33.6586
G01 X24.3281 Y33.7314
G01 X24.3275 Y33.7404
G01 X24.3275 Y33.7495
G01 X24.3289 Y33.7640
G01 X24.3607 Y33.9645
G01 X24.3607 Y34.1555
G01 X24.3308 Y34.3442
G01 X24.2717 Y34.5259
G01 X24.1850 Y34.6961
G01 X24.0727 Y34.8507
G01 X23.9376 Y34.9858
G01 X23.7831 Y35.0980
G01 X23.6129 Y35.1848
G01 X23.4312 Y35.2438
G01 X23.2425 Y35.2737
G01 X23.0514 Y35.2737
G01 X22.8628 Y35.2438
G01 X22.6811 Y35.1848
G01 X22.5108 Y35.0980
G01 X22.3563 Y34.9858
G01 X22.2212 Y34.8507
G01 X22.1089 Y34.6961
G01 X22.0222 Y34.5259
G01 X21.9632 Y34.3442
G01 X21.9333 Y34.1555
G01 X21.9333 Y33.9645
G01 X21.9632 Y33.7758
G00 Z2.0000
G00 X22.3956 Y33.4518
G01 F60.00
G01 Z-0.1000
G01 F120.00
G01 X22.3431 Y33.5229
G01 X22.2943 Y33.6043
G01 X22.2538 Y33.6900
G01 X22.2218 Y33.7794
G01 X22.1987 Y33.8714
G01 X22.1848 Y33.9652
G01 X22.1802 Y34.0600
G01 X22.1848 Y34.1548
G01 X22.1987 Y34.2486
G01 X22.2218 Y34.3406
G01 X22.2538 Y34.4300
G01 X22.2943 Y34.5157
G01 X22.3431 Y34.5971
G01 X22.3996 Y34.6733
G01 X22.4633 Y34.7436
G01 X22.5336 Y34.8074
G01 X22.6098 Y34.8639
G01 X22.6912 Y34.9126
G01 X22.7770 Y34.9532
G01 X22.8663 Y34.9852
G01 X22.9584 Y35.0082
G01 X23.0522 Y35.0222
G01 X23.1470 Y35.0268
G01 X23.2417 Y35.0222
G01 X23.3356 Y35.0082
G01 X23.4276 Y34.9852
G01 X23.5169 Y34.9532
G01 X23.6027 Y34.9126
G01 X23.6841 Y34.8639
G01 X23.7603 Y34.8074
G01 X23.8306 Y34.7436
G01 X23.8943 Y34.6733
G01 X23.9508 Y34.5971
G01 X23.9996 Y34.5157
G01 X24.0402 Y34.4300
G01 X24.0721 Y34.3406
G01 X24.0952 Y34.2486
G01 X24.1091 Y34.1548
G01 X24.1138 Y34.0600
G01 X24.1091 Y33.9652
G01 X24.0952 Y33.8714
G01 X24.0721 Y33.7794
G01 X24.0402 Y33.6900
G01 X23.9996 Y33.6043
G01 X23.9508 Y33.5229
G01 X23.8943 Y33.4466
G01 X23.8306 Y33.3764
G01 X23.7604 Y33.3127
G01 X23.6841 Y33.2561
G01 X23.6027 Y33.2074
G01 X23.5169 Y33.1668
G01 X23.4276 Y33.1348
G01 X23.3356 Y33.1118
G01 X23.2417 Y33.0978
G01 X23.1470 Y33.0932
G01 X23.0522 Y33.0978
G01 X22.9584 Y33.1118
G01 X22.8663 Y33.1348
G01 X22.7770 Y33.1668
G01 X22.6912 Y33.2074
G01 X22.6098 Y33.2561
G01 X22.5336 Y33.3126
G01 X22.4656 Y33.3742
G01 X22.4471 Y33.3940
G01 X22.4415 Y33.3899
G01 X22.3956 Y33.4518
G00 Z2.0000
G00 X22.3956 Y25.8318
G01 F60.00
G01 Z-0.1000
G01 F120.00
G01 X22.3431 Y25.9029
G01 X22.2943 Y25.9843
G01 X22.2538 Y26.0700
G01 X22.2218 Y26.1594
G01 X22.1987 Y26.2514
G01 X22.1848 Y26.3452
G01 X22.1802 Y26.4400
G01 X22.1848 Y26.5348
G01 X22.1987 Y26.6286
G01 X22.2218 Y26.7206
G01 X22.2538 Y26.8100
G01 X22.2943 Y26.8957
G01 X22.3431 Y26.9771
G01 X22.3996 Y27.0533
G01 X22.4633 Y27.1236
G01 X22.5336 Y27.1874
G01 X22.6098 Y27.2439
G01 X22.6912 Y27.2926
G01 X22.7770 Y27.3332
G01 X22.8663 Y27.3652
G01 X22.9584 Y27.3882
G01 X23.0522 Y27.4022
G01 X23.1470 Y27.4068
G01 X23.2417 Y27.4022
G01 X23.3356 Y27.3882
G01 X23.4276 Y27.3652
G01 X23.5169 Y27.3332
G01 X23.6027 Y27.2926
G01 X23.6841 Y27.2439
G01 X23.7603 Y27.1874
G01 X23.8306 Y27.1236
G01 X23.8943 Y27.0533
G01 X23.9508 Y26.9771
G01 X23.9996 Y26.8957
G01 X24.0402 Y26.8100
G01 X24.0721 Y26.7206
G01 X24.0952 Y26.6286
G01 X24.1091 Y26.5348
G01 X24.1138 Y26.4400
G01 X24.1091 Y26.3452
G01 X24.0952 Y26.2514
G01 X24.0721 Y26.1594
G01 X24.0402 Y26.0700
G01 X23.9996 Y25.9843
G01 X23.9508 Y25.9029
G01 X23.8943 Y25.8266
G01 X23.8306 Y25.7564
G01 X23.7604 Y25.6927
G01 X23.6841 Y25.6361
G01 X23.6027 Y25.5874
G01 X23.5169 Y25.5468
G01 X23.4276 Y25.5148
G01 X23.3356 Y25.4918
G01 X23.2417 Y25.4778
G01 X23.1470 Y25.4732
G01 X23.0522 Y25.4778
G01 X22.9584 Y25.4918
G01 X22.8663 Y25.5148
G01 X22.7770 Y25.5468
G01 X22.6912 Y25.5874
