(G-CODE GENERATED BY FLATCAM v8.993 - www.flatcam.org - Version Date: 2020/06/05)

(Name: Function_Generator-Edge_Cuts.gbr_cutout_cnc)
(Type: G-code from Geometry)
(Units: MM)

(Created on Saturday, 16 August 2025 at 13:32)

(This preprocessor is the default preprocessor used by FlatCAM.)
(It is made to work with MACH3 compatible motion controllers.)

(TOOL DIAMETER: 1.6 mm)
(Feedrate_XY: 120.0 mm/min)
(Feedrate_Z: 60.0 mm/min)
(Feedrate rapids 1500.0 mm/min)

(Z_Cut: -2.0 mm)
(DepthPerCut: 0.5 mm <=>4 passes)
(Z_Move: 2.0 mm)
(Z Start: None mm)
(Z End: 15.0 mm)
(Steps per circle: 64)
(Preprocessor Geometry: default)

(X range:    0.7644 ...   92.2001  mm)
(Y range:    0.3001 ...   61.7799  mm)

(Spindle Speed: None RPM)
G21
G90
G94



G01 F120.00
G00 Z2.0000

M03
G00 X24.8744 Y6.4503
G01 F60.00
G01 Z-0.5000
G01 F120.00
G01 X4.3205 Y6.4503
G01 X4.2573 Y6.4521
G01 X4.2083 Y6.4555
G01 X3.9674 Y6.4779
G01 X3.9187 Y6.4837
G01 X3.8992 Y6.4865
G01 X3.8508 Y6.4946
G01 X3.6133 Y6.5405
G01 X3.5653 Y6.5510
G01 X3.5463 Y6.5557
G01 X3.4989 Y6.5686
G01 X3.2670 Y6.6376
G01 X3.2203 Y6.6527
G01 X3.2018 Y6.6592
G01 X3.1559 Y6.6767
G01 X2.9319 Y6.7681
G01 X2.8869 Y6.7877
G01 X2.8691 Y6.7960
G01 X2.8252 Y6.8179
G01 X2.6112 Y6.9308
G01 X2.5683 Y6.9548
G01 X2.5514 Y6.9648
G01 X2.5098 Y6.9908
G01 X2.3079 Y7.1242
G01 X2.2677 Y7.1522
G01 X2.2518 Y7.1638
G01 X2.2130 Y7.1938
G01 X2.0251 Y7.3463
G01 X1.9878 Y7.3782
G01 X1.9732 Y7.3913
G01 X1.9375 Y7.4249
G01 X1.7655 Y7.5951
G01 X1.7314 Y7.6305
G01 X1.7182 Y7.6450
G01 X1.6859 Y7.6820
G01 X1.5314 Y7.8682
G01 X1.5010 Y7.9067
G01 X1.4893 Y7.9224
G01 X1.4608 Y7.9624
G01 X1.3253 Y8.1629
G01 X1.2988 Y8.2042
G01 X1.2886 Y8.2210
G01 X1.2642 Y8.2636
G01 X1.1490 Y8.4764
G01 X1.1267 Y8.5201
G01 X1.1183 Y8.5378
G01 X1.0981 Y8.5825
G01 X1.0044 Y8.8056
G01 X0.9864 Y8.8513
G01 X0.9797 Y8.8697
G01 X0.9641 Y8.9163
G01 X0.8926 Y9.1474
G01 X0.8793 Y9.1947
G01 X0.8744 Y9.2137
G01 X0.8634 Y9.2615
G01 X0.8150 Y9.4986
G01 X0.8063 Y9.5469
G01 X0.8033 Y9.5663
G01 X0.7971 Y9.6150
G01 X0.7721 Y9.8556
G01 X0.7682 Y9.9046
G01 X0.7671 Y9.9242
G01 X0.7657 Y9.9732
G01 X0.7644 Y10.2152
G01 X0.7644 Y57.1655
G01 X0.7652 Y57.2054
G01 X0.7664 Y57.2333
G01 X0.7844 Y57.5515
G01 X0.7881 Y57.5975
G01 X0.7900 Y57.6159
G01 X0.7958 Y57.6618
G01 X0.8431 Y57.9769
G01 X0.8510 Y58.0224
G01 X0.8546 Y58.0405
G01 X0.8646 Y58.0856
G01 X0.9407 Y58.3951
G01 X0.9528 Y58.4397
G01 X0.9580 Y58.4574
G01 X0.9722 Y58.5014
G01 X1.0765 Y58.8025
G01 X1.0927 Y58.8458
G01 X1.0995 Y58.8629
G01 X1.1177 Y58.9054
G01 X1.2494 Y59.1956
G01 X1.2694 Y59.2372
G01 X1.2778 Y59.2537
G01 X1.2998 Y59.2943
G01 X1.4577 Y59.5711
G01 X1.4816 Y59.6107
G01 X1.4914 Y59.6263
G01 X1.5171 Y59.6647
G01 X1.6999 Y59.9258
G01 X1.7272 Y59.9630
G01 X1.7385 Y59.9776
G01 X1.7676 Y60.0135
G01 X1.9737 Y60.2566
G01 X2.0044 Y60.2911
G01 X2.0170 Y60.3046
G01 X2.0492 Y60.3377
G01 X2.2769 Y60.5607
G01 X2.3106 Y60.5923
G01 X2.3244 Y60.6046
G01 X2.3595 Y60.6345
G01 X2.6068 Y60.8356
G01 X2.6433 Y60.8639
G01 X2.6582 Y60.8749
G01 X2.6959 Y60.9015
G01 X2.9607 Y61.0788
G01 X2.9996 Y61.1036
G01 X3.0155 Y61.1132
G01 X3.0555 Y61.1362
G01 X3.3355 Y61.2884
G01 X3.3766 Y61.3095
G01 X3.3932 Y61.3176
G01 X3.4353 Y61.3368
G01 X3.7281 Y61.4625
G01 X3.7709 Y61.4797
G01 X3.7882 Y61.4862
G01 X3.8319 Y61.5014
G01 X4.1350 Y61.5996
G01 X4.1793 Y61.6128
G01 X4.1971 Y61.6177
G01 X4.2420 Y61.6288
G01 X4.5529 Y61.6986
G01 X4.5982 Y61.7076
G01 X4.6164 Y61.7109
G01 X4.6621 Y61.7178
G01 X4.9781 Y61.7586
G01 X5.0241 Y61.7634
G01 X5.0425 Y61.7649
G01 X5.0886 Y61.7677
G01 X5.4071 Y61.7791
G01 X5.4322 Y61.7797
G01 X87.4661 Y61.7799
G01 X87.4990 Y61.7793
G01 X87.5198 Y61.7786
G01 X87.8461 Y61.7635
G01 X87.8921 Y61.7603
G01 X87.9106 Y61.7586
G01 X87.9564 Y61.7532
G01 X88.2799 Y61.7081
G01 X88.3255 Y61.7007
G01 X88.3436 Y61.6973
G01 X88.3888 Y61.6878
G01 X88.7067 Y61.6130
G01 X88.7514 Y61.6014
G01 X88.7692 Y61.5963
G01 X88.8133 Y61.5827
G01 X89.1230 Y61.4789
G01 X89.1664 Y61.4632
G01 X89.1837 Y61.4565
G01 X89.2264 Y61.4388
G01 X89.5251 Y61.3069
G01 X89.5669 Y61.2873
G01 X89.5835 Y61.2791
G01 X89.6243 Y61.2575
G01 X89.9096 Y61.0986
G01 X89.9494 Y61.0752
G01 X89.9652 Y61.0655
G01 X90.0039 Y61.0403
G01 X90.2733 Y60.8557
G01 X90.3108 Y60.8287
G01 X90.3255 Y60.8176
G01 X90.3617 Y60.7889
G01 X90.6130 Y60.5803
G01 X90.6478 Y60.5500
G01 X90.6615 Y60.5375
G01 X90.6949 Y60.5056
G01 X90.9258 Y60.2747
G01 X90.9577 Y60.2413
G01 X90.9702 Y60.2276
G01 X91.0005 Y60.1928
G01 X91.2091 Y59.9416
G01 X91.2378 Y59.9053
G01 X91.2490 Y59.8906
G01 X91.2759 Y59.8531
G01 X91.4605 Y59.5837
G01 X91.4857 Y59.5450
G01 X91.4954 Y59.5293
G01 X91.5188 Y59.4894
G01 X91.6778 Y59.2041
G01 X91.6993 Y59.1633
G01 X91.7075 Y59.1467
G01 X91.7272 Y59.1049
G01 X91.8591 Y58.8062
G01 X91.8768 Y58.7635
G01 X91.8834 Y58.7463
G01 X91.8991 Y58.7028
G01 X92.0029 Y58.3932
G01 X92.0166 Y58.3490
G01 X92.0216 Y58.3313
G01 X92.0332 Y58.2866
G01 X92.1080 Y57.9687
G01 X92.1176 Y57.9235
G01 X92.1209 Y57.9053
G01 X92.1284 Y57.8597
G01 X92.1735 Y57.5363
G01 X92.1788 Y57.4904
G01 X92.1805 Y57.4720
G01 X92.1837 Y57.4259
G01 X92.1988 Y57.0997
G01 X92.2001 Y57.0442
G01 X92.1997 Y4.9597
G01 X92.1987 Y4.9143
G01 X92.1972 Y4.8817
G01 X92.1748 Y4.5375
G01 X92.1704 Y4.4886
G01 X92.1681 Y4.4691
G01 X92.1614 Y4.4204
G01 X92.1053 Y4.0800
G01 X92.0962 Y4.0318
G01 X92.0920 Y4.0126
G01 X92.0805 Y3.9649
G01 X91.9914 Y3.6316
G01 X91.9775 Y3.5845
G01 X91.9715 Y3.5658
G01 X91.9554 Y3.5194
G01 X91.8340 Y3.1965
G01 X91.8156 Y3.1509
G01 X91.8078 Y3.1329
G01 X91.7872 Y3.0884
G01 X91.6348 Y2.7789
G01 X91.6120 Y2.7354
G01 X91.6025 Y2.7182
G01 X91.5776 Y2.6759
G01 X91.3956 Y2.3828
G01 X91.3686 Y2.3418
G01 X91.3575 Y2.3256
G01 X91.3286 Y2.2859
G01 X91.1187 Y2.0121
G01 X91.0879 Y1.9739
G01 X91.0752 Y1.9589
G01 X91.0425 Y1.9223
G01 X90.8068 Y1.6703
G01 X90.7724 Y1.6353
G01 X90.7583 Y1.6217
G01 X90.7222 Y1.5884
G01 X90.4629 Y1.3608
G01 X90.4252 Y1.3293
G01 X90.4099 Y1.3171
G01 X90.3707 Y1.2875
G01 X90.0903 Y1.0864
G01 X90.0498 Y1.0588
G01 X90.0333 Y1.0482
G01 X89.9914 Y1.0226
G01 X89.6927 Y0.8499
G01 X89.6496 Y0.8264
G01 X89.6321 Y0.8174
G01 X89.5879 Y0.7960
G01 X89.2737 Y0.6535
G01 X89.2286 Y0.6343
G01 X89.2103 Y0.6271
G01 X89.1642 Y0.6102
G01 X88.8376 Y0.4991
G01 X88.7907 Y0.4845
G01 X88.7719 Y0.4791
G01 X88.7243 Y0.4667
G01 X88.3884 Y0.3882
G01 X88.3403 Y0.3782
G01 X88.3210 Y0.3747
G01 X88.2725 Y0.3671
G01 X87.9305 Y0.3219
G01 X87.8817 Y0.3166
G01 X87.8621 Y0.3150
G01 X87.8131 Y0.3122
G01 X87.4451 Y0.3002
G01 X27.9561 Y0.3001
G01 X27.9275 Y0.3004
G01 X27.8962 Y0.3013
G01 X27.7613 Y0.3076
G01 X27.7152 Y0.3108
G01 X27.6968 Y0.3125
G01 X27.6509 Y0.3178
G01 X27.5172 Y0.3364
G01 X27.4716 Y0.3438
G01 X27.4534 Y0.3472
G01 X27.4082 Y0.3568
G01 X27.2767 Y0.3877
G01 X27.2320 Y0.3993
G01 X27.2142 Y0.4043
G01 X27.1701 Y0.4180
G01 X27.0420 Y0.4609
G01 X26.9986 Y0.4766
G01 X26.9813 Y0.4833
G01 X26.9386 Y0.5009
G01 X26.8151 Y0.5555
G01 X26.7733 Y0.5751
G01 X26.7567 Y0.5833
G01 X26.7158 Y0.6049
G01 X26.5978 Y0.6706
G01 X26.5580 Y0.6940
G01 X26.5423 Y0.7037
G01 X26.5036 Y0.7289
G01 X26.3922 Y0.8053
G01 X26.3547 Y0.8322
G01 X26.3399 Y0.8434
G01 X26.3037 Y0.8721
G01 X26.1998 Y0.9583
G01 X26.1649 Y0.9887
G01 X26.1513 Y1.0011
G01 X26.1178 Y1.0330
G01 X26.0223 Y1.1285
G01 X25.9904 Y1.1619
G01 X25.9780 Y1.1756
G01 X25.9476 Y1.2104
G01 X25.8614 Y1.3143
G01 X25.8327 Y1.3505
G01 X25.8215 Y1.3653
G01 X25.7945 Y1.4028
G01 X25.7182 Y1.5142
G01 X25.6930 Y1.5529
G01 X25.6833 Y1.5686
G01 X25.6598 Y1.6085
G01 X25.5941 Y1.7264
G01 X25.5726 Y1.7673
G01 X25.5643 Y1.7839
G01 X25.5447 Y1.8257
G01 X25.4901 Y1.9492
G01 X25.4725 Y1.9919
G01 X25.4658 Y2.0092
G01 X25.4501 Y2.0526
G01 X25.4072 Y2.1807
G01 X25.3935 Y2.2248
G01 X25.3884 Y2.2426
G01 X25.3768 Y2.2873
G01 X25.3459 Y2.4188
G01 X25.3364 Y2.4640
G01 X25.3330 Y2.4821
G01 X25.3255 Y2.5277
G01 X25.3069 Y2.6615
G01 X25.3016 Y2.7074
G01 X25.2998 Y2.7258
G01 X25.2967 Y2.7719
G01 X25.2904 Y2.9068
G01 X25.2894 Y2.9385
G01 X25.2891 Y2.9621
G01 X25.2894 Y5.9862
G01 X25.2848 Y6.0345
G01 X25.2754 Y6.0821
G01 X25.2615 Y6.1286
G01 X25.2430 Y6.1734
G01 X25.2202 Y6.2163
G01 X25.1934 Y6.2566
G01 X25.1627 Y6.2942
G01 X25.1285 Y6.3286
G01 X25.0910 Y6.3595
G01 X25.0508 Y6.3865
G01 X25.0080 Y6.4095
G01 X24.9633 Y6.4281
G01 X24.9169 Y6.4423
G01 X24.8794 Y6.4499
G01 X24.8744 Y6.4503
G00 X24.8744 Y6.4503
G01 F60.00
G01 Z-1.0000
G01 F120.00
G01 X4.3205 Y6.4503
G01 X4.2573 Y6.4521
G01 X4.2083 Y6.4555
G01 X3.9674 Y6.4779
G01 X3.9187 Y6.4837
G01 X3.8992 Y6.4865
G01 X3.8508 Y6.4946
G01 X3.6133 Y6.5405
G01 X3.5653 Y6.5510
G01 X3.5463 Y6.5557
G01 X3.4989 Y6.5686
G01 X3.2670 Y6.6376
G01 X3.2203 Y6.6527
G01 X3.2018 Y6.6592
G01 X3.1559 Y6.6767
G01 X2.9319 Y6.7681
G01 X2.8869 Y6.7877
G01 X2.8691 Y6.7960
G01 X2.8252 Y6.8179
G01 X2.6112 Y6.9308
G01 X2.5683 Y6.9548
G01 X2.5514 Y6.9648
G01 X2.5098 Y6.9908
G01 X2.3079 Y7.1242
G01 X2.2677 Y7.1522
G01 X2.2518 Y7.1638
G01 X2.2130 Y7.1938
G01 X2.0251 Y7.3463
G01 X1.9878 Y7.3782
G01 X1.9732 Y7.3913
G01 X1.9375 Y7.4249
G01 X1.7655 Y7.5951
G01 X1.7314 Y7.6305
G01 X1.7182 Y7.6450
G01 X1.6859 Y7.6820
G01 X1.5314 Y7.8682
G01 X1.5010 Y7.9067
G01 X1.4893 Y7.9224
G01 X1.4608 Y7.9624
G01 X1.3253 Y8.1629
G01 X1.2988 Y8.2042
G01 X1.2886 Y8.2210
G01 X1.2642 Y8.2636
G01 X1.1490 Y8.4764
G01 X1.1267 Y8.5201
G01 X1.1183 Y8.5378
G01 X1.0981 Y8.5825
G01 X1.0044 Y8.8056
G01 X0.9864 Y8.8513
G01 X0.9797 Y8.8697
G01 X0.9641 Y8.9163
G01 X0.8926 Y9.1474
G01 X0.8793 Y9.1947
G01 X0.8744 Y9.2137
G01 X0.8634 Y9.2615
G01 X0.8150 Y9.4986
G01 X0.8063 Y9.5469
G01 X0.8033 Y9.5663
G01 X0.7971 Y9.6150
G01 X0.7721 Y9.8556
G01 X0.7682 Y9.9046
G01 X0.7671 Y9.9242
G01 X0.7657 Y9.9732
G01 X0.7644 Y10.2152
G01 X0.7644 Y57.1655
G01 X0.7652 Y57.2054
G01 X0.7664 Y57.2333
G01 X0.7844 Y57.5515
G01 X0.7881 Y57.5975
G01 X0.7900 Y57.6159
G01 X0.7958 Y57.6618
G01 X0.8431 Y57.9769
G01 X0.8510 Y58.0224
G01 X0.8546 Y58.0405
G01 X0.8646 Y58.0856
G01 X0.9407 Y58.3951
G01 X0.9528 Y58.4397
G01 X0.9580 Y58.4574
G01 X0.9722 Y58.5014
G01 X1.0765 Y58.8025
G01 X1.0927 Y58.8458
G01 X1.0995 Y58.8629
G01 X1.1177 Y58.9054
G01 X1.2494 Y59.1956
G01 X1.2694 Y59.2372
G01 X1.2778 Y59.2537
G01 X1.2998 Y59.2943
G01 X1.4577 Y59.5711
G01 X1.4816 Y59.6107
G01 X1.4914 Y59.6263
G01 X1.5171 Y59.6647
G01 X1.6999 Y59.9258
G01 X1.7272 Y59.9630
G01 X1.7385 Y59.9776
G01 X1.7676 Y60.0135
G01 X1.9737 Y60.2566
G01 X2.0044 Y60.2911
G01 X2.0170 Y60.3046
G01 X2.0492 Y60.3377
G01 X2.2769 Y60.5607
G01 X2.3106 Y60.5923
G01 X2.3244 Y60.6046
G01 X2.3595 Y60.6345
G01 X2.6068 Y60.8356
G01 X2.6433 Y60.8639
G01 X2.6582 Y60.8749
G01 X2.6959 Y60.9015
G01 X2.9607 Y61.0788
G01 X2.9996 Y61.1036
G01 X3.0155 Y61.1132
G01 X3.0555 Y61.1362
G01 X3.3355 Y61.2884
G01 X3.3766 Y61.3095
G01 X3.3932 Y61.3176
G01 X3.4353 Y61.3368
G01 X3.7281 Y61.4625
G01 X3.7709 Y61.4797
G01 X3.7882 Y61.4862
G01 X3.8319 Y61.5014
G01 X4.1350 Y61.5996
G01 X4.1793 Y61.6128
G01 X4.1971 Y61.6177
G01 X4.2420 Y61.6288
G01 X4.5529 Y61.6986
G01 X4.5982 Y61.7076
G01 X4.6164 Y61.7109
G01 X4.6621 Y61.7178
G01 X4.9781 Y61.7586
G01 X5.0241 Y61.7634
G01 X5.0425 Y61.7649
G01 X5.0886 Y61.7677
G01 X5.4071 Y61.7791
G01 X5.4322 Y61.7797
G01 X87.4661 Y61.7799
G01 X87.4990 Y61.7793
G01 X87.5198 Y61.7786
G01 X87.8461 Y61.7635
G01 X87.8921 Y61.7603
G01 X87.9106 Y61.7586
G01 X87.9564 Y61.7532
G01 X88.2799 Y61.7081
G01 X88.3255 Y61.7007
G01 X88.3436 Y61.6973
G01 X88.3888 Y61.6878
G01 X88.7067 Y61.6130
G01 X88.7514 Y61.6014
G01 X88.7692 Y61.5963
G01 X88.8133 Y61.5827
G01 X89.1230 Y61.4789
G01 X89.1664 Y61.4632
G01 X89.1837 Y61.4565
G01 X89.2264 Y61.4388
G01 X89.5251 Y61.3069
G01 X89.5669 Y61.2873
G01 X89.5835 Y61.2791
G01 X89.6243 Y61.2575
G01 X89.9096 Y61.0986
G01 X89.9494 Y61.0752
G01 X89.9652 Y61.0655
G01 X90.0039 Y61.0403
G01 X90.2733 Y60.8557
G01 X90.3108 Y60.8287
G01 X90.3255 Y60.8176
G01 X90.3617 Y60.7889
G01 X90.6130 Y60.5803
G01 X90.6478 Y60.5500
G01 X90.6615 Y60.5375
G01 X90.6949 Y60.5056
G01 X90.9258 Y60.2747
G01 X90.9577 Y60.2413
G01 X90.9702 Y60.2276
G01 X91.0005 Y60.1928
G01 X91.2091 Y59.9416
G01 X91.2378 Y59.9053
G01 X91.2490 Y59.8906
G01 X91.2759 Y59.8531
G01 X91.4605 Y59.5837
G01 X91.4857 Y59.5450
G01 X91.4954 Y59.5293
G01 X91.5188 Y59.4894
G01 X91.6778 Y59.2041
G01 X91.6993 Y59.1633
G01 X91.7075 Y59.1467
G01 X91.7272 Y59.1049
G01 X91.8591 Y58.8062
G01 X91.8768 Y58.7635
G01 X91.8834 Y58.7463
G01 X91.8991 Y58.7028
G01 X92.0029 Y58.3932
G01 X92.0166 Y58.3490
G01 X92.0216 Y58.3313
G01 X92.0332 Y58.2866
G01 X92.1080 Y57.9687
G01 X92.1176 Y57.9235
G01 X92.1209 Y57.9053
G01 X92.1284 Y57.8597
G01 X92.1735 Y57.5363
G01 X92.1788 Y57.4904
G01 X92.1805 Y57.4720
G01 X92.1837 Y57.4259
G01 X92.1988 Y57.0997
G01 X92.2001 Y57.0442
G01 X92.1997 Y4.9597
G01 X92.1987 Y4.9143
G01 X92.1972 Y4.8817
G01 X92.1748 Y4.5375
G01 X92.1704 Y4.4886
G01 X92.1681 Y4.4691
G01 X92.1614 Y4.4204
G01 X92.1053 Y4.0800
G01 X92.0962 Y4.0318
G01 X92.0920 Y4.0126
G01 X92.0805 Y3.9649
G01 X91.9914 Y3.6316
G01 X91.9775 Y3.5845
G01 X91.9715 Y3.5658
G01 X91.9554 Y3.5194
G01 X91.8340 Y3.1965
G01 X91.8156 Y3.1509
G01 X91.8078 Y3.1329
G01 X91.7872 Y3.0884
G01 X91.6348 Y2.7789
G01 X91.6120 Y2.7354
G01 X91.6025 Y2.7182
G01 X91.5776 Y2.6759
G01 X91.3956 Y2.3828
G01 X91.3686 Y2.3418
G01 X91.3575 Y2.3256
G01 X91.3286 Y2.2859
G01 X91.1187 Y2.0121
G01 X91.0879 Y1.9739
G01 X91.0752 Y1.9589
G01 X91.0425 Y1.9223
G01 X90.8068 Y1.6703
G01 X90.7724 Y1.6353
G01 X90.7583 Y1.6217
G01 X90.7222 Y1.5884
G01 X90.4629 Y1.3608
G01 X90.4252 Y1.3293
G01 X90.4099 Y1.3171
G01 X90.3707 Y1.2875
G01 X90.0903 Y1.0864
G01 X90.0498 Y1.0588
G01 X90.0333 Y1.0482
G01 X89.9914 Y1.0226
G01 X89.6927 Y0.8499
G01 X89.6496 Y0.8264
G01 X89.6321 Y0.8174
G01 X89.5879 Y0.7960
G01 X89.2737 Y0.6535
G01 X89.2286 Y0.6343
G01 X89.2103 Y0.6271
G01 X89.1642 Y0.6102
G01 X88.8376 Y0.4991
G01 X88.7907 Y0.4845
G01 X88.7719 Y0.4791
G01 X88.7243 Y0.4667
G01 X88.3884 Y0.3882
G01 X88.3403 Y0.3782
G01 X88.3210 Y0.3747
G01 X88.2725 Y0.3671
G01 X87.9305 Y0.3219
G01 X87.8817 Y0.3166
G01 X87.8621 Y0.3150
G01 X87.8131 Y0.3122
G01 X87.4451 Y0.3002
G01 X27.9561 Y0.3001
G01 X27.9275 Y0.3004
G01 X27.8962 Y0.3013
G01 X27.7613 Y0.3076
G01 X27.7152 Y0.3108
G01 X27.6968 Y0.3125
G01 X27.6509 Y0.3178
G01 X27.5172 Y0.3364
G01 X27.4716 Y0.3438
G01 X27.4534 Y0.3472
G01 X27.4082 Y0.3568
G01 X27.2767 Y0.3877
G01 X27.2320 Y0.3993
G01 X27.2142 Y0.4043
G01 X27.1701 Y0.4180
G01 X27.0420 Y0.4609
G01 X26.9986 Y0.4766
G01 X26.9813 Y0.4833
G01 X26.9386 Y0.5009
G01 X26.8151 Y0.5555
G01 X26.7733 Y0.5751
G01 X26.7567 Y0.5833
G01 X26.7158 Y0.6049
G01 X26.5978 Y0.6706
G01 X26.5580 Y0.6940
G01 X26.5423 Y0.7037
G01 X26.5036 Y0.7289
G01 X26.3922 Y0.8053
G01 X26.3547 Y0.8322
G01 X26.3399 Y0.8434
G01 X26.3037 Y0.8721
G01 X26.1998 Y0.9583
G01 X26.1649 Y0.9887
G01 X26.1513 Y1.0011
G01 X26.1178 Y1.0330
G01 X26.0223 Y1.1285
G01 X25.9904 Y1.1619
G01 X25.9780 Y1.1756
G01 X25.9476 Y1.2104
G01 X25.8614 Y1.3143
G01 X25.8327 Y1.3505
G01 X25.8215 Y1.3653
G01 X25.7945 Y1.4028
G01 X25.7182 Y1.5142
G01 X25.6930 Y1.5529
G01 X25.6833 Y1.5686
G01 X25.6598 Y1.6085
G01 X25.5941 Y1.7264
G01 X25.5726 Y1.7673
G01 X25.5643 Y1.7839
G01 X25.5447 Y1.8257
G01 X25.4901 Y1.9492
G01 X25.4725 Y1.9919
G01 X25.4658 Y2.0092
G01 X25.4501 Y2.0526
G01 X25.4072 Y2.1807
G01 X25.3935 Y2.2248
G01 X25.3884 Y2.2426
G01 X25.3768 Y2.2873
G01 X25.3459 Y2.4188
G01 X25.3364 Y2.4640
G01 X25.3330 Y2.4821
G01 X25.3255 Y2.5277
G01 X25.3069 Y2.6615
G01 X25.3016 Y2.7074
G01 X25.2998 Y2.7258
G01 X25.2967 Y2.7719
G01 X25.2904 Y2.9068
G01 X25.2894 Y2.9385
G01 X25.2891 Y2.9621
G01 X25.2894 Y5.9862
G01 X25.2848 Y6.0345
G01 X25.2754 Y6.0821
G01 X25.2615 Y6.1286
G01 X25.2430 Y6.1734
G01 X25.2202 Y6.2163
G01 X25.1934 Y6.2566
G01 X25.1627 Y6.2942
G01 X25.1285 Y6.3286
G01 X25.0910 Y6.3595
G01 X25.0508 Y6.3865
G01 X25.0080 Y6.4095
G01 X24.9633 Y6.4281
G01 X24.9169 Y6.4423
G01 X24.8794 Y6.4499
G01 X24.8744 Y6.4503
G00 X24.8744 Y6.4503
G01 F60.00
G01 Z-1.5000
G01 F120.00
G01 X4.3205 Y6.4503
G01 X4.2573 Y6.4521
G01 X4.2083 Y6.4555
G01 X3.9674 Y6.4779
G01 X3.9187 Y6.4837
G01 X3.8992 Y6.4865
G01 X3.8508 Y6.4946
G01 X3.6133 Y6.5405
G01 X3.5653 Y6.5510
G01 X3.5463 Y6.5557
G01 X3.4989 Y6.5686
G01 X3.2670 Y6.6376
G01 X3.2203 Y6.6527
G01 X3.2018 Y6.6592
G01 X3.1559 Y6.6767
G01 X2.9319 Y6.7681
G01 X2.8869 Y6.7877
G01 X2.8691 Y6.7960
G01 X2.8252 Y6.8179
G01 X2.6112 Y6.9308
G01 X2.5683 Y6.9548
G01 X2.5514 Y6.9648
G01 X2.5098 Y6.9908
G01 X2.3079 Y7.1242
G01 X2.2677 Y7.1522
G01 X2.2518 Y7.1638
G01 X2.2130 Y7.1938
G01 X2.0251 Y7.3463
G01 X1.9878 Y7.3782
G01 X1.9732 Y7.3913
G01 X1.9375 Y7.4249
G01 X1.7655 Y7.5951
G01 X1.7314 Y7.6305
G01 X1.7182 Y7.6450
G01 X1.6859 Y7.6820
G01 X1.5314 Y7.8682
G01 X1.5010 Y7.9067
G01 X1.4893 Y7.9224
G01 X1.4608 Y7.9624
G01 X1.3253 Y8.1629
G01 X1.2988 Y8.2042
G01 X1.2886 Y8.2210
G01 X1.2642 Y8.2636
G01 X1.1490 Y8.4764
G01 X1.1267 Y8.5201
G01 X1.1183 Y8.5378
G01 X1.0981 Y8.5825
G01 X1.0044 Y8.8056
G01 X0.9864 Y8.8513
G01 X0.9797 Y8.8697
G01 X0.9641 Y8.9163
G01 X0.8926 Y9.1474
G01 X0.8793 Y9.1947
G01 X0.8744 Y9.2137
G01 X0.8634 Y9.2615
G01 X0.8150 Y9.4986
G01 X0.8063 Y9.5469
G01 X0.8033 Y9.5663
G01 X0.7971 Y9.6150
G01 X0.7721 Y9.8556
G01 X0.7682 Y9.9046
G01 X0.7671 Y9.9242
G01 X0.7657 Y9.9732
G01 X0.7644 Y10.2152
G01 X0.7644 Y57.1655
G01 X0.7652 Y57.2054
G01 X0.7664 Y57.2333
G01 X0.7844 Y57.5515
G01 X0.7881 Y57.5975
G01 X0.7900 Y57.6159
G01 X0.7958 Y57.6618
G01 X0.8431 Y57.9769
G01 X0.8510 Y58.0224
G01 X0.8546 Y58.0405
G01 X0.8646 Y58.0856
G01 X0.9407 Y58.3951
G01 X0.9528 Y58.4397
G01 X0.9580 Y58.4574
G01 X0.9722 Y58.5014
G01 X1.0765 Y58.8025
G01 X1.0927 Y58.8458
G01 X1.0995 Y58.8629
G01 X1.1177 Y58.9054
G01 X1.2494 Y59.1956
G01 X1.2694 Y59.2372
G01 X1.2778 Y59.2537
G01 X1.2998 Y59.2943
G01 X1.4577 Y59.5711
G01 X1.4816 Y59.6107
G01 X1.4914 Y59.6263
G01 X1.5171 Y59.6647
G01 X1.6999 Y59.9258
G01 X1.7272 Y59.9630
G01 X1.7385 Y59.9776
G01 X1.7676 Y60.0135
G01 X1.9737 Y60.2566
G01 X2.0044 Y60.2911
G01 X2.0170 Y60.3046
G01 X2.0492 Y60.3377
G01 X2.2769 Y60.5607
G01 X2.3106 Y60.5923
G01 X2.3244 Y60.6046
G01 X2.3595 Y60.6345
G01 X2.6068 Y60.8356
G01 X2.6433 Y60.8639
G01 X2.6582 Y60.8749
G01 X2.6959 Y60.9015
G01 X2.9607 Y61.0788
G01 X2.9996 Y61.1036
G01 X3.0155 Y61.1132
G01 X3.0555 Y61.1362
G01 X3.3355 Y61.2884
G01 X3.3766 Y61.3095
G01 X3.3932 Y61.3176
G01 X3.4353 Y61.3368
G01 X3.7281 Y61.4625
G01 X3.7709 Y61.4797
G01 X3.7882 Y61.4862
G01 X3.8319 Y61.5014
G01 X4.1350 Y61.5996
G01 X4.1793 Y61.6128
G01 X4.1971 Y61.6177
G01 X4.2420 Y61.6288
G01 X4.5529 Y61.6986
G01 X4.5982 Y61.7076
G01 X4.6164 Y61.7109
G01 X4.6621 Y61.7178
G01 X4.9781 Y61.7586
G01 X5.0241 Y61.7634
G01 X5.0425 Y61.7649
G01 X5.0886 Y61.7677
G01 X5.4071 Y61.7791
G01 X5.4322 Y61.7797
G01 X87.4661 Y61.7799
G01 X87.4990 Y61.7793
G01 X87.5198 Y61.7786
G01 X87.8461 Y61.7635
G01 X87.8921 Y61.7603
G01 X87.9106 Y61.7586
G01 X87.9564 Y61.7532
G01 X88.2799 Y61.7081
G01 X88.3255 Y61.7007
G01 X88.3436 Y61.6973
G01 X88.3888 Y61.6878
G01 X88.7067 Y61.6130
G01 X88.7514 Y61.6014
G01 X88.7692 Y61.5963
G01 X88.8133 Y61.5827
G01 X89.1230 Y61.4789
G01 X89.1664 Y61.4632
G01 X89.1837 Y61.4565
G01 X89.2264 Y61.4388
G01 X89.5251 Y61.3069
G01 X89.5669 Y61.2873
G01 X89.5835 Y61.2791
G01 X89.6243 Y61.2575
G01 X89.9096 Y61.0986
G01 X89.9494 Y61.0752
G01 X89.9652 Y61.0655
G01 X90.0039 Y61.0403
G01 X90.2733 Y60.8557
G01 X90.3108 Y60.8287
G01 X90.3255 Y60.8176
G01 X90.3617 Y60.7889
G01 X90.6130 Y60.5803
G01 X90.6478 Y60.5500
G01 X90.6615 Y60.5375
G01 X90.6949 Y60.5056
G01 X90.9258 Y60.2747
G01 X90.9577 Y60.2413
G01 X90.9702 Y60.2276
G01 X91.0005 Y60.1928
G01 X91.2091 Y59.9416
G01 X91.2378 Y59.9053
G01 X91.2490 Y59.8906
G01 X91.2759 Y59.8531
G01 X91.4605 Y59.5837
G01 X91.4857 Y59.5450
G01 X91.4954 Y59.5293
G01 X91.5188 Y59.4894
G01 X91.6778 Y59.2041
G01 X91.6993 Y59.1633
G01 X91.7075 Y59.1467
G01 X91.7272 Y59.1049
G01 X91.8591 Y58.8062
G01 X91.8768 Y58.7635
G01 X91.8834 Y58.7463
G01 X91.8991 Y58.7028
G01 X92.0029 Y58.3932
G01 X92.0166 Y58.3490
G01 X92.0216 Y58.3313
G01 X92.0332 Y58.2866
G01 X92.1080 Y57.9687
G01 X92.1176 Y57.9235
G01 X92.1209 Y57.9053
G01 X92.1284 Y57.8597
G01 X92.1735 Y57.5363
G01 X92.1788 Y57.4904
G01 X92.1805 Y57.4720
G01 X92.1837 Y57.4259
G01 X92.1988 Y57.0997
G01 X92.2001 Y57.0442
G01 X92.1997 Y4.9597
G01 X92.1987 Y4.9143
G01 X92.1972 Y4.8817
G01 X92.1748 Y4.5375
G01 X92.1704 Y4.4886
G01 X92.1681 Y4.4691
G01 X92.1614 Y4.4204
G01 X92.1053 Y4.0800
G01 X92.0962 Y4.0318
G01 X92.0920 Y4.0126
G01 X92.0805 Y3.9649
G01 X91.9914 Y3.6316
G01 X91.9775 Y3.5845
G01 X91.9715 Y3.5658
G01 X91.9554 Y3.5194
G01 X91.8340 Y3.1965
G01 X91.8156 Y3.1509
G01 X91.8078 Y3.1329
G01 X91.7872 Y3.0884
G01 X91.6348 Y2.7789
G01 X91.6120 Y2.7354
G01 X91.6025 Y2.7182
G01 X91.5776 Y2.6759
G01 X91.3956 Y2.3828
G01 X91.3686 Y2.3418
G01 X91.3575 Y2.3256
G01 X91.3286 Y2.2859
G01 X91.1187 Y2.0121
G01 X91.0879 Y1.9739
G01 X91.0752 Y1.9589
G01 X91.0425 Y1.9223
G01 X90.8068 Y1.6703
G01 X90.7724 Y1.6353
G01 X90.7583 Y1.6217
G01 X90.7222 Y1.5884
G01 X90.4629 Y1.3608
G01 X90.4252 Y1.3293
G01 X90.4099 Y1.3171
G01 X90.3707 Y1.2875
G01 X90.0903 Y1.0864
G01 X90.0498 Y1.0588
G01 X90.0333 Y1.0482
G01 X89.9914 Y1.0226
G01 X89.6927 Y0.8499
G01 X89.6496 Y0.8264
G01 X89.6321 Y0.8174
G01 X89.5879 Y0.7960
G01 X89.2737 Y0.6535
G01 X89.2286 Y0.6343
G01 X89.2103 Y0.6271
G01 X89.1642 Y0.6102
G01 X88.8376 Y0.4991
G01 X88.7907 Y0.4845
G01 X88.7719 Y0.4791
G01 X88.7243 Y0.4667
G01 X88.3884 Y0.3882
G01 X88.3403 Y0.3782
G01 X88.3210 Y0.3747
G01 X88.2725 Y0.3671
G01 X87.9305 Y0.3219
G01 X87.8817 Y0.3166
G01 X87.8621 Y0.3150
G01 X87.8131 Y0.3122
G01 X87.4451 Y0.3002
G01 X27.9561 Y0.3001
G01 X27.9275 Y0.3004
G01 X27.8962 Y0.3013
G01 X27.7613 Y0.3076
G01 X27.7152 Y0.3108
G01 X27.6968 Y0.3125
G01 X27.6509 Y0.3178
G01 X27.5172 Y0.3364
G01 X27.4716 Y0.3438
G01 X27.4534 Y0.3472
G01 X27.4082 Y0.3568
G01 X27.2767 Y0.3877
G01 X27.2320 Y0.3993
G01 X27.2142 Y0.4043
G01 X27.1701 Y0.4180
G01 X27.0420 Y0.4609
G01 X26.9986 Y0.4766
G01 X26.9813 Y0.4833
G01 X26.9386 Y0.5009
G01 X26.8151 Y0.5555
G01 X26.7733 Y0.5751
G01 X26.7567 Y0.5833
G01 X26.7158 Y0.6049
G01 X26.5978 Y0.6706
G01 X26.5580 Y0.6940
G01 X26.5423 Y0.7037
G01 X26.5036 Y0.7289
G01 X26.3922 Y0.8053
G01 X26.3547 Y0.8322
G01 X26.3399 Y0.8434
G01 X26.3037 Y0.8721
G01 X26.1998 Y0.9583
G01 X26.1649 Y0.9887
G01 X26.1513 Y1.0011
G01 X26.1178 Y1.0330
G01 X26.0223 Y1.1285
G01 X25.9904 Y1.1619
G01 X25.9780 Y1.1756
G01 X25.9476 Y1.2104
G01 X25.8614 Y1.3143
G01 X25.8327 Y1.3505
G01 X25.8215 Y1.3653
G01 X25.7945 Y1.4028
G01 X25.7182 Y1.5142
G01 X25.6930 Y1.5529
G01 X25.6833 Y1.5686
G01 X25.6598 Y1.6085
G01 X25.5941 Y1.7264
G01 X25.5726 Y1.7673
G01 X25.5643 Y1.7839
G01 X25.5447 Y1.8257
G01 X25.4901 Y1.9492
G01 X25.4725 Y1.9919
G01 X25.4658 Y2.0092
G01 X25.4501 Y2.0526
G01 X25.4072 Y2.1807
G01 X25.3935 Y2.2248
G01 X25.3884 Y2.2426
G01 X25.3768 Y2.2873
G01 X25.3459 Y2.4188
G01 X25.3364 Y2.4640
G01 X25.3330 Y2.4821
G01 X25.3255 Y2.5277
G01 X25.3069 Y2.6615
G01 X25.3016 Y2.7074
G01 X25.2998 Y2.7258
G01 X25.2967 Y2.7719
G01 X25.2904 Y2.9068
G01 X25.2894 Y2.9385
G01 X25.2891 Y2.9621
G01 X25.2894 Y5.9862
G01 X25.2848 Y6.0345
G01 X25.2754 Y6.0821
G01 X25.2615 Y6.1286
G01 X25.2430 Y6.1734
G01 X25.2202 Y6.2163
G01 X25.1934 Y6.2566
G01 X25.1627 Y6.2942
G01 X25.1285 Y6.3286
G01 X25.0910 Y6.3595
G01 X25.0508 Y6.3865
G01 X25.0080 Y6.4095
G01 X24.9633 Y6.4281
G01 X24.9169 Y6.4423
G01 X24.8794 Y6.4499
G01 X24.8744 Y6.4503
G00 X24.8744 Y6.4503
G01 F60.00
G01 Z-2.0000
G01 F120.00
G01 X4.3205 Y6.4503
G01 X4.2573 Y6.4521
G01 X4.2083 Y6.4555
G01 X3.9674 Y6.4779
G01 X3.9187 Y6.4837
G01 X3.8992 Y6.4865
G01 X3.8508 Y6.4946
G01 X3.6133 Y6.5405
G01 X3.5653 Y6.5510
G01 X3.5463 Y6.5557
G01 X3.4989 Y6.5686
G01 X3.2670 Y6.6376
G01 X3.2203 Y6.6527
G01 X3.2018 Y6.6592
G01 X3.1559 Y6.6767
G01 X2.9319 Y6.7681
G01 X2.8869 Y6.7877
G01 X2.8691 Y6.7960
G01 X2.8252 Y6.8179
G01 X2.6112 Y6.9308
G01 X2.5683 Y6.9548
G01 X2.5514 Y6.9648
G01 X2.5098 Y6.9908
G01 X2.3079 Y7.1242
G01 X2.2677 Y7.1522
G01 X2.2518 Y7.1638
G01 X2.2130 Y7.1938
G01 X2.0251 Y7.3463
G01 X1.9878 Y7.3782
G01 X1.9732 Y7.3913
G01 X1.9375 Y7.4249
G01 X1.7655 Y7.5951
G01 X1.7314 Y7.6305
G01 X1.7182 Y7.6450
G01 X1.6859 Y7.6820
G01 X1.5314 Y7.8682
G01 X1.5010 Y7.9067
G01 X1.4893 Y7.9224
G01 X1.4608 Y7.9624
G01 X1.3253 Y8.1629
G01 X1.2988 Y8.2042
G01 X1.2886 Y8.2210
G01 X1.2642 Y8.2636
G01 X1.1490 Y8.4764
G01 X1.1267 Y8.5201
G01 X1.1183 Y8.5378
G01 X1.0981 Y8.5825
G01 X1.0044 Y8.8056
G01 X0.9864 Y8.8513
G01 X0.9797 Y8.8697
G01 X0.9641 Y8.9163
G01 X0.8926 Y9.1474
G01 X0.8793 Y9.1947
G01 X0.8744 Y9.2137
G01 X0.8634 Y9.2615
G01 X0.8150 Y9.4986
G01 X0.8063 Y9.5469
G01 X0.8033 Y9.5663
G01 X0.7971 Y9.6150
G01 X0.7721 Y9.8556
G01 X0.7682 Y9.9046
G01 X0.7671 Y9.9242
G01 X0.7657 Y9.9732
G01 X0.7644 Y10.2152
G01 X0.7644 Y57.1655
G01 X0.7652 Y57.2054
G01 X0.7664 Y57.2333
G01 X0.7844 Y57.5515
G01 X0.7881 Y57.5975
G01 X0.7900 Y57.6159
G01 X0.7958 Y57.6618
G01 X0.8431 Y57.9769
G01 X0.8510 Y58.0224
G01 X0.8546 Y58.0405
G01 X0.8646 Y58.0856
G01 X0.9407 Y58.3951
G01 X0.9528 Y58.4397
G01 X0.9580 Y58.4574
G01 X0.9722 Y58.5014
G01 X1.0765 Y58.8025
G01 X1.0927 Y58.8458
G01 X1.0995 Y58.8629
G01 X1.1177 Y58.9054
G01 X1.2494 Y59.1956
G01 X1.2694 Y59.2372
G01 X1.2778 Y59.2537
G01 X1.2998 Y59.2943
G01 X1.4577 Y59.5711
G01 X1.4816 Y59.6107
G01 X1.4914 Y59.6263
G01 X1.5171 Y59.6647
G01 X1.6999 Y59.9258
G01 X1.7272 Y59.9630
G01 X1.7385 Y59.9776
G01 X1.7676 Y60.0135
G01 X1.9737 Y60.2566
G01 X2.0044 Y60.2911
G01 X2.0170 Y60.3046
G01 X2.0492 Y60.3377
G01 X2.2769 Y60.5607
G01 X2.3106 Y60.5923
G01 X2.3244 Y60.6046
G01 X2.3595 Y60.6345
G01 X2.6068 Y60.8356
G01 X2.6433 Y60.8639
G01 X2.6582 Y60.8749
G01 X2.6959 Y60.9015
G01 X2.9607 Y61.0788
G01 X2.9996 Y61.1036
G01 X3.0155 Y61.1132
G01 X3.0555 Y61.1362
G01 X3.3355 Y61.2884
G01 X3.3766 Y61.3095
G01 X3.3932 Y61.3176
G01 X3.4353 Y61.3368
G01 X3.7281 Y61.4625
G01 X3.7709 Y61.4797
G01 X3.7882 Y61.4862
G01 X3.8319 Y61.5014
G01 X4.1350 Y61.5996
G01 X4.1793 Y61.6128
G01 X4.1971 Y61.6177
G01 X4.2420 Y61.6288
G01 X4.5529 Y61.6986
G01 X4.5982 Y61.7076
G01 X4.6164 Y61.7109
G01 X4.6621 Y61.7178
G01 X4.9781 Y61.7586
G01 X5.0241 Y61.7634
G01 X5.0425 Y61.7649
G01 X5.0886 Y61.7677
G01 X5.4071 Y61.7791
G01 X5.4322 Y61.7797
G01 X87.4661 Y61.7799
G01 X87.4990 Y61.7793
G01 X87.5198 Y61.7786
G01 X87.8461 Y61.7635
G01 X87.8921 Y61.7603
G01 X87.9106 Y61.7586
G01 X87.9564 Y61.7532
G01 X88.2799 Y61.7081
G01 X88.3255 Y61.7007
G01 X88.3436 Y61.6973
G01 X88.3888 Y61.6878
G01 X88.7067 Y61.6130
G01 X88.7514 Y61.6014
G01 X88.7692 Y61.5963
G01 X88.8133 Y61.5827
G01 X89.1230 Y61.4789
G01 X89.1664 Y61.4632
G01 X89.1837 Y61.4565
G01 X89.2264 Y61.4388
G01 X89.5251 Y61.3069
G01 X89.5669 Y61.2873
G01 X89.5835 Y61.2791
G01 X89.6243 Y61.2575
G01 X89.9096 Y61.0986
G01 X89.9494 Y61.0752
G01 X89.9652 Y61.0655
G01 X90.0039 Y61.0403
G01 X90.2733 Y60.8557
G01 X90.3108 Y60.8287
G01 X90.3255 Y60.8176
G01 X90.3617 Y60.7889
G01 X90.6130 Y60.5803
G01 X90.6478 Y60.5500
G01 X90.6615 Y60.5375
G01 X90.6949 Y60.5056
G01 X90.9258 Y60.2747
G01 X90.9577 Y60.2413
G01 X90.9702 Y60.2276
G01 X91.0005 Y60.1928
G01 X91.2091 Y59.9416
G01 X91.2378 Y59.9053
G01 X91.2490 Y59.8906
G01 X91.2759 Y59.8531
G01 X91.4605 Y59.5837
G01 X91.4857 Y59.5450
G01 X91.4954 Y59.5293
G01 X91.5188 Y59.4894
G01 X91.6778 Y59.2041
G01 X91.6993 Y59.1633
G01 X91.7075 Y59.1467
G01 X91.7272 Y59.1049
G01 X91.8591 Y58.8062
G01 X91.8768 Y58.7635
G01 X91.8834 Y58.7463
G01 X91.8991 Y58.7028
G01 X92.0029 Y58.3932
G01 X92.0166 Y58.3490
G01 X92.0216 Y58.3313
G01 X92.0332 Y58.2866
G01 X92.1080 Y57.9687
G01 X92.1176 Y57.9235
G01 X92.1209 Y57.9053
G01 X92.1284 Y57.8597
G01 X92.1735 Y57.5363
G01 X92.1788 Y57.4904
G01 X92.1805 Y57.4720
G01 X92.1837 Y57.4259
G01 X92.1988 Y57.0997
G01 X92.2001 Y57.0442
G01 X92.1997 Y4.9597
G01 X92.1987 Y4.9143
G01 X92.1972 Y4.8817
G01 X92.1748 Y4.5375
G01 X92.1704 Y4.4886
G01 X92.1681 Y4.4691
G01 X92.1614 Y4.4204
G01 X92.1053 Y4.0800
G01 X92.0962 Y4.0318
G01 X92.0920 Y4.0126
G01 X92.0805 Y3.9649
G01 X91.9914 Y3.6316
G01 X91.9775 Y3.5845
G01 X91.9715 Y3.5658
G01 X91.9554 Y3.5194
G01 X91.8340 Y3.1965
G01 X91.8156 Y3.1509
G01 X91.8078 Y3.1329
G01 X91.7872 Y3.0884
G01 X91.6348 Y2.7789
G01 X91.6120 Y2.7354
G01 X91.6025 Y2.7182
G01 X91.5776 Y2.6759
G01 X91.3956 Y2.3828
G01 X91.3686 Y2.3418
G01 X91.3575 Y2.3256
G01 X91.3286 Y2.2859
G01 X91.1187 Y2.0121
G01 X91.0879 Y1.9739
G01 X91.0752 Y1.9589
G01 X91.0425 Y1.9223
G01 X90.8068 Y1.6703
G01 X90.7724 Y1.6353
G01 X90.7583 Y1.6217
G01 X90.7222 Y1.5884
G01 X90.4629 Y1.3608
G01 X90.4252 Y1.3293
G01 X90.4099 Y1.3171
G01 X90.3707 Y1.2875
G01 X90.0903 Y1.0864
G01 X90.0498 Y1.0588
G01 X90.0333 Y1.0482
G01 X89.9914 Y1.0226
G01 X89.6927 Y0.8499
G01 X89.6496 Y0.8264
G01 X89.6321 Y0.8174
G01 X89.5879 Y0.7960
G01 X89.2737 Y0.6535
G01 X89.2286 Y0.6343
G01 X89.2103 Y0.6271
G01 X89.1642 Y0.6102
G01 X88.8376 Y0.4991
G01 X88.7907 Y0.4845
G01 X88.7719 Y0.4791
G01 X88.7243 Y0.4667
G01 X88.3884 Y0.3882
G01 X88.3403 Y0.3782
G01 X88.3210 Y0.3747
G01 X88.2725 Y0.3671
G01 X87.9305 Y0.3219
G01 X87.8817 Y0.3166
G01 X87.8621 Y0.3150
G01 X87.8131 Y0.3122
G01 X87.4451 Y0.3002
G01 X27.9561 Y0.3001
G01 X27.9275 Y0.3004
G01 X27.8962 Y0.3013
G01 X27.7613 Y0.3076
G01 X27.7152 Y0.3108
G01 X27.6968 Y0.3125
G01 X27.6509 Y0.3178
G01 X27.5172 Y0.3364
G01 X27.4716 Y0.3438
G01 X27.4534 Y0.3472
G01 X27.4082 Y0.3568
G01 X27.2767 Y0.3877
G01 X27.2320 Y0.3993
G01 X27.2142 Y0.4043
G01 X27.1701 Y0.4180
G01 X27.0420 Y0.4609
G01 X26.9986 Y0.4766
G01 X26.9813 Y0.4833
G01 X26.9386 Y0.5009
G01 X26.8151 Y0.5555
G01 X26.7733 Y0.5751
G01 X26.7567 Y0.5833
G01 X26.7158 Y0.6049
G01 X26.5978 Y0.6706
G01 X26.5580 Y0.6940
G01 X26.5423 Y0.7037
G01 X26.5036 Y0.7289
G01 X26.3922 Y0.8053
G01 X26.3547 Y0.8322
G01 X26.3399 Y0.8434
G01 X26.3037 Y0.8721
G01 X26.1998 Y0.9583
G01 X26.1649 Y0.9887
G01 X26.1513 Y1.0011
G01 X26.1178 Y1.0330
G01 X26.0223 Y1.1285
G01 X25.9904 Y1.1619
G01 X25.9780 Y1.1756
G01 X25.9476 Y1.2104
G01 X25.8614 Y1.3143
G01 X25.8327 Y1.3505
G01 X25.8215 Y1.3653
G01 X25.7945 Y1.4028
G01 X25.7182 Y1.5142
G01 X25.6930 Y1.5529
G01 X25.6833 Y1.5686
G01 X25.6598 Y1.6085
G01 X25.5941 Y1.7264
G01 X25.5726 Y1.7673
G01 X25.5643 Y1.7839
G01 X25.5447 Y1.8257
G01 X25.4901 Y1.9492
G01 X25.4725 Y1.9919
G01 X25.4658 Y2.0092
G01 X25.4501 Y2.0526
G01 X25.4072 Y2.1807
G01 X25.3935 Y2.2248
G01 X25.3884 Y2.2426
G01 X25.3768 Y2.2873
G01 X25.3459 Y2.4188
G01 X25.3364 Y2.4640
G01 X25.3330 Y2.4821
G01 X25.3255 Y2.5277
G01 X25.3069 Y2.6615
G01 X25.3016 Y2.7074
G01 X25.2998 Y2.7258
G01 X25.2967 Y2.7719
G01 X25.2904 Y2.9068
G01 X25.2894 Y2.9385
G01 X25.2891 Y2.9621
G01 X25.2894 Y5.9862
G01 X25.2848 Y6.0345
G01 X25.2754 Y6.0821
G01 X25.2615 Y6.1286
G01 X25.2430 Y6.1734
G01 X25.2202 Y6.2163
G01 X25.1934 Y6.2566
G01 X25.1627 Y6.2942
G01 X25.1285 Y6.3286
G01 X25.0910 Y6.3595
G01 X25.0508 Y6.3865
G01 X25.0080 Y6.4095
G01 X24.9633 Y6.4281
G01 X24.9169 Y6.4423
G01 X24.8794 Y6.4499
G01 X24.8744 Y6.4503
G00 Z2.0000
M05
G00 Z2.0000
G00 Z15.00

